(Exported by FreeCAD)
(Post Processor: grbl_post)
(Output Time:2024-03-01 22:03:58.353708)
(Begin preamble)
G17 G90
G21
(Begin operation: Fixture)
(Path: Fixture)
G54
(Finish operation: Fixture)
(Begin operation: 1/8th in Endmill019)
(Path: 1/8th in Endmill019)
(1/8th in Endmill019)
(Begin toolchange)
( M6 T2 )
(Finish operation: 1/8th in Endmill019)
(Begin operation: Profile020)
(Path: Profile020)
(Profile020)
(Compensated Tool Path. Diameter: 3.175)
G0 Z5.000
G0 X-39.069 Y-17.784
G0 Z3.000
G1 X-39.069 Y-17.784 Z-3.200 F1400.000
G2 X-39.075 Y-17.855 Z-3.200 I-0.035 J-0.033 K0.000 F1800.000
G1 X-39.075 Y-23.699 Z-3.200 F1800.000
G2 X-39.086 Y-23.781 Z-3.200 I-0.047 J-0.036 K0.000 F1800.000
G2 X-39.090 Y-23.781 Z-3.200 I-0.002 J0.004 K0.000 F1800.000
G3 X-40.688 Y-22.189 Z-3.200 I-1.637 J-0.045 K0.000 F1800.000
G1 X-60.287 Y-22.189 Z-3.200 F1800.000
G3 X-61.884 Y-23.778 Z-3.200 I0.006 J-1.603 K0.000 F1800.000
G2 X-61.889 Y-23.780 Z-3.200 I-0.004 J0.001 K0.000 F1800.000
G2 X-61.900 Y-23.694 Z-3.200 I0.034 J0.049 K0.000 F1800.000
G1 X-61.900 Y-17.855 Z-3.200 F1800.000
G1 X-61.892 Y-17.776 Z-3.200 F1800.000
G2 X-61.885 Y-17.773 Z-3.200 I0.005 J-0.001 K0.000 F1800.000
G3 X-60.287 Y-19.364 Z-3.200 I1.637 J0.045 K0.000 F1800.000
G1 X-40.688 Y-19.364 Z-3.200 F1800.000
G3 X-39.092 Y-17.776 Z-3.200 I-0.006 J1.601 K0.000 F1800.000
G2 X-39.088 Y-17.772 Z-3.200 I0.005 J-0.001 K0.000 F1800.000
G2 X-39.069 Y-17.784 Z-3.200 I-0.017 J-0.045 K0.000 F1800.000
G1 X-39.069 Y-17.784 Z-6.400 F1400.000
G2 X-39.075 Y-17.855 Z-6.400 I-0.035 J-0.033 K0.000 F1800.000
G1 X-39.075 Y-23.699 Z-6.400 F1800.000
G2 X-39.086 Y-23.781 Z-6.400 I-0.047 J-0.036 K0.000 F1800.000
G2 X-39.090 Y-23.781 Z-6.400 I-0.002 J0.004 K0.000 F1800.000
G3 X-40.688 Y-22.189 Z-6.400 I-1.637 J-0.045 K0.000 F1800.000
G1 X-60.287 Y-22.189 Z-6.400 F1800.000
G3 X-61.884 Y-23.778 Z-6.400 I0.006 J-1.603 K0.000 F1800.000
G2 X-61.889 Y-23.780 Z-6.400 I-0.004 J0.001 K0.000 F1800.000
G2 X-61.900 Y-23.694 Z-6.400 I0.034 J0.049 K0.000 F1800.000
G1 X-61.900 Y-17.855 Z-6.400 F1800.000
G1 X-61.892 Y-17.776 Z-6.400 F1800.000
G2 X-61.885 Y-17.773 Z-6.400 I0.005 J-0.001 K0.000 F1800.000
G3 X-60.287 Y-19.364 Z-6.400 I1.637 J0.045 K0.000 F1800.000
G1 X-40.688 Y-19.364 Z-6.400 F1800.000
G3 X-39.092 Y-17.776 Z-6.400 I-0.006 J1.601 K0.000 F1800.000
G2 X-39.088 Y-17.772 Z-6.400 I0.005 J-0.001 K0.000 F1800.000
G2 X-39.069 Y-17.784 Z-6.400 I-0.017 J-0.045 K0.000 F1800.000
G0 Z5.000
G0 Z5.000
G0 X-39.069 Y-17.784
G0 X-99.056 Y-17.817
G0 X-99.056 Y-17.817 Z3.000
G1 X-99.056 Y-17.817 Z-3.200 F1400.000
G2 X-99.075 Y-17.855 Z-3.200 I-0.048 J-0.000 K0.000 F1800.000
G1 X-99.075 Y-23.694 Z-3.200 F1800.000
G1 X-99.084 Y-23.778 Z-3.200 F1800.000
G2 X-99.089 Y-23.780 Z-3.200 I-0.004 J0.001 K0.000 F1800.000
G3 X-100.688 Y-22.189 Z-3.200 I-1.641 J-0.050 K0.000 F1800.000
G1 X-120.287 Y-22.189 Z-3.200 F1800.000
G3 X-121.883 Y-23.778 Z-3.200 I0.006 J-1.601 K0.000 F1800.000
G2 X-121.887 Y-23.782 Z-3.200 I-0.005 J0.001 K0.000 F1800.000
G2 X-121.900 Y-23.699 Z-3.200 I0.017 J0.045 K0.000 F1800.000
G1 X-121.900 Y-17.855 Z-3.200 F1800.000
G1 X-121.892 Y-17.776 Z-3.200 F1800.000
G2 X-121.885 Y-17.773 Z-3.200 I0.005 J-0.001 K0.000 F1800.000
G3 X-120.287 Y-19.364 Z-3.200 I1.637 J0.045 K0.000 F1800.000
G1 X-100.688 Y-19.364 Z-3.200 F1800.000
G3 X-99.092 Y-17.776 Z-3.200 I-0.006 J1.601 K0.000 F1800.000
G2 X-99.088 Y-17.772 Z-3.200 I0.005 J-0.001 K0.000 F1800.000
G2 X-99.056 Y-17.817 Z-3.200 I-0.017 J-0.045 K0.000 F1800.000
G1 X-99.056 Y-17.817 Z-6.400 F1400.000
G2 X-99.075 Y-17.855 Z-6.400 I-0.048 J-0.000 K0.000 F1800.000
G1 X-99.075 Y-23.694 Z-6.400 F1800.000
G1 X-99.084 Y-23.778 Z-6.400 F1800.000
G2 X-99.089 Y-23.780 Z-6.400 I-0.004 J0.001 K0.000 F1800.000
G3 X-100.688 Y-22.189 Z-6.400 I-1.641 J-0.050 K0.000 F1800.000
G1 X-120.287 Y-22.189 Z-6.400 F1800.000
G3 X-121.883 Y-23.778 Z-6.400 I0.006 J-1.601 K0.000 F1800.000
G2 X-121.887 Y-23.782 Z-6.400 I-0.005 J0.001 K0.000 F1800.000
G2 X-121.900 Y-23.699 Z-6.400 I0.017 J0.045 K0.000 F1800.000
G1 X-121.900 Y-17.855 Z-6.400 F1800.000
G1 X-121.892 Y-17.776 Z-6.400 F1800.000
G2 X-121.885 Y-17.773 Z-6.400 I0.005 J-0.001 K0.000 F1800.000
G3 X-120.287 Y-19.364 Z-6.400 I1.637 J0.045 K0.000 F1800.000
G1 X-100.688 Y-19.364 Z-6.400 F1800.000
G3 X-99.092 Y-17.776 Z-6.400 I-0.006 J1.601 K0.000 F1800.000
G2 X-99.088 Y-17.772 Z-6.400 I0.005 J-0.001 K0.000 F1800.000
G2 X-99.056 Y-17.817 Z-6.400 I-0.017 J-0.045 K0.000 F1800.000
G0 Z5.000
G0 Z5.000
G0 X-99.056 Y-17.817
G0 Y-42.782
G0 Y-42.782 Z3.000
G1 X-99.056 Y-42.782 Z-3.200 F1400.000
G1 X-97.165 Y-42.782 Z-3.200 F1800.000
G2 X-97.075 Y-42.873 Z-3.200 I0.035 J-0.055 K0.000 F1800.000
G1 X-97.075 Y-89.517 Z-3.200 F1800.000
G2 X-97.165 Y-89.607 Z-3.200 I-0.055 J-0.035 K0.000 F1800.000
G1 X-123.810 Y-89.607 Z-3.200 F1800.000
G2 X-123.900 Y-89.517 Z-3.200 I-0.035 J0.055 K0.000 F1800.000
G1 X-123.900 Y-42.873 Z-3.200 F1800.000
G2 X-123.810 Y-42.782 Z-3.200 I0.055 J0.035 K0.000 F1800.000
G1 X-99.056 Y-42.782 Z-3.200 F1800.000
G1 X-99.056 Y-42.782 Z-6.400 F1400.000
G1 X-97.165 Y-42.782 Z-6.400 F1800.000
G2 X-97.075 Y-42.873 Z-6.400 I0.035 J-0.055 K0.000 F1800.000
G1 X-97.075 Y-89.517 Z-6.400 F1800.000
G2 X-97.165 Y-89.607 Z-6.400 I-0.055 J-0.035 K0.000 F1800.000
G1 X-123.810 Y-89.607 Z-6.400 F1800.000
G2 X-123.900 Y-89.517 Z-6.400 I-0.035 J0.055 K0.000 F1800.000
G1 X-123.900 Y-42.873 Z-6.400 F1800.000
G2 X-123.810 Y-42.782 Z-6.400 I0.055 J0.035 K0.000 F1800.000
G1 X-99.056 Y-42.782 Z-6.400 F1800.000
G0 Z5.000
G0 Z5.000
G0 X-99.056 Y-42.782
G0 X-159.069 Y-23.752
G0 X-159.069 Y-23.752 Z3.000
G1 X-159.069 Y-23.752 Z-3.200 F1400.000
G2 X-159.086 Y-23.780 Z-3.200 I-0.071 J0.022 K0.000 F1800.000
G2 X-159.089 Y-23.780 Z-3.200 I-0.002 J0.003 K0.000 F1800.000
G3 X-160.688 Y-22.189 Z-3.200 I-1.641 J-0.050 K0.000 F1800.000
G1 X-180.287 Y-22.189 Z-3.200 F1800.000
G3 X-181.884 Y-23.778 Z-3.200 I0.006 J-1.603 K0.000 F1800.000
G2 X-181.889 Y-23.780 Z-3.200 I-0.004 J0.001 K0.000 F1800.000
G2 X-181.900 Y-23.694 Z-3.200 I0.034 J0.049 K0.000 F1800.000
G1 X-181.900 Y-17.860 Z-3.200 F1800.000
G1 X-181.891 Y-17.776 Z-3.200 F1800.000
G2 X-181.886 Y-17.774 Z-3.200 I0.004 J-0.001 K0.000 F1800.000
G3 X-180.287 Y-19.364 Z-3.200 I1.641 J0.050 K0.000 F1800.000
G1 X-160.688 Y-19.364 Z-3.200 F1800.000
G3 X-159.091 Y-17.776 Z-3.200 I-0.006 J1.603 K0.000 F1800.000
G2 X-159.086 Y-17.773 Z-3.200 I0.004 J-0.001 K0.000 F1800.000
G2 X-159.075 Y-17.860 Z-3.200 I-0.034 J-0.049 K0.000 F1800.000
G1 X-159.075 Y-23.694 Z-3.200 F1800.000
G2 X-159.069 Y-23.752 Z-3.200 I-0.065 J-0.036 K0.000 F1800.000
G1 X-159.069 Y-23.752 Z-6.400 F1400.000
G2 X-159.086 Y-23.780 Z-6.400 I-0.071 J0.022 K0.000 F1800.000
G2 X-159.089 Y-23.780 Z-6.400 I-0.002 J0.003 K0.000 F1800.000
G3 X-160.688 Y-22.189 Z-6.400 I-1.641 J-0.050 K0.000 F1800.000
G1 X-180.287 Y-22.189 Z-6.400 F1800.000
G3 X-181.884 Y-23.778 Z-6.400 I0.006 J-1.603 K0.000 F1800.000
G2 X-181.889 Y-23.780 Z-6.400 I-0.004 J0.001 K0.000 F1800.000
G2 X-181.900 Y-23.694 Z-6.400 I0.034 J0.049 K0.000 F1800.000
G1 X-181.900 Y-17.860 Z-6.400 F1800.000
G1 X-181.891 Y-17.776 Z-6.400 F1800.000
G2 X-181.886 Y-17.774 Z-6.400 I0.004 J-0.001 K0.000 F1800.000
G3 X-180.287 Y-19.364 Z-6.400 I1.641 J0.050 K0.000 F1800.000
G1 X-160.688 Y-19.364 Z-6.400 F1800.000
G3 X-159.091 Y-17.776 Z-6.400 I-0.006 J1.603 K0.000 F1800.000
G2 X-159.086 Y-17.773 Z-6.400 I0.004 J-0.001 K0.000 F1800.000
G2 X-159.075 Y-17.860 Z-6.400 I-0.034 J-0.049 K0.000 F1800.000
G1 X-159.075 Y-23.694 Z-6.400 F1800.000
G2 X-159.069 Y-23.752 Z-6.400 I-0.065 J-0.036 K0.000 F1800.000
G0 Z5.000
G0 Z5.000
(Finish operation: Profile020)
(Begin operation: Profile021)
(Path: Profile021)
(Profile021)
(Compensated Tool Path. Diameter: 3.175)
G0 Z5.000
G0 X-1.054 Y2.490
G0 Z3.000
G1 X-1.054 Y2.490 Z-3.200 F1400.000
G2 X-0.008 Y0.111 Z-3.200 I-2.541 J-2.538 K0.000 F1800.000
G1 X-0.000 Y-13.045 Z-3.200 F1800.000
G2 X-3.432 Y-16.625 Z-3.200 I-3.591 J0.008 K0.000 F1800.000
G1 X-7.588 Y-16.632 Z-3.200 F1800.000
G2 X-11.167 Y-13.200 Z-3.200 I0.008 J3.591 K0.000 F1800.000
G1 X-11.175 Y-10.745 Z-3.200 F1800.000
G2 X-9.100 Y-8.654 Z-3.200 I2.094 J-0.003 K0.000 F1800.000
G3 X-9.083 Y-8.645 Z-3.200 I0.005 J0.012 K0.000 F1800.000
G3 X-9.165 Y-8.632 Z-3.200 I-0.045 J-0.017 K0.000 F1800.000
G1 X-16.404 Y-8.632 Z-3.200 F1800.000
G1 X-16.488 Y-8.641 Z-3.200 F1800.000
G3 X-16.491 Y-8.645 Z-3.200 I0.001 J-0.004 K0.000 F1800.000
G2 X-14.400 Y-10.745 Z-3.200 I-0.035 J-2.127 K0.000 F1800.000
G1 X-14.400 Y-67.195 Z-3.200 F1800.000
G2 X-15.988 Y-68.790 Z-3.200 I-1.601 J0.006 K0.000 F1800.000
G3 X-15.992 Y-68.795 Z-3.200 I0.001 J-0.005 K0.000 F1800.000
G3 X-15.910 Y-68.807 Z-3.200 I0.045 J0.017 K0.000 F1800.000
G1 X-3.588 Y-68.807 Z-3.200 F1800.000
G2 X-0.008 Y-72.239 Z-3.200 I-0.008 J-3.591 K0.000 F1800.000
G1 X-0.000 Y-86.395 Z-3.200 F1800.000
G2 X-3.432 Y-89.975 Z-3.200 I-3.591 J0.008 K0.000 F1800.000
G1 X-7.588 Y-89.982 Z-3.200 F1800.000
G2 X-11.167 Y-86.550 Z-3.200 I0.008 J3.591 K0.000 F1800.000
G1 X-11.175 Y-84.095 Z-3.200 F1800.000
G2 X-9.100 Y-82.004 Z-3.200 I2.094 J-0.003 K0.000 F1800.000
G3 X-9.083 Y-81.995 Z-3.200 I0.005 J0.012 K0.000 F1800.000
G3 X-9.165 Y-81.982 Z-3.200 I-0.045 J-0.017 K0.000 F1800.000
G1 X-16.404 Y-81.982 Z-3.200 F1800.000
G1 X-16.488 Y-81.991 Z-3.200 F1800.000
G3 X-16.491 Y-81.995 Z-3.200 I0.001 J-0.004 K0.000 F1800.000
G2 X-14.400 Y-84.095 Z-3.200 I-0.035 J-2.127 K0.000 F1800.000
G1 X-14.400 Y-120.045 Z-3.200 F1800.000
G2 X-16.988 Y-122.632 Z-3.200 I-2.600 J0.013 K0.000 F1800.000
G1 X-203.987 Y-122.632 Z-3.200 F1800.000
G2 X-206.575 Y-120.045 Z-3.200 I0.013 J2.600 K0.000 F1800.000
G1 X-206.575 Y-84.095 Z-3.200 F1800.000
G2 X-204.500 Y-82.004 Z-3.200 I2.094 J-0.003 K0.000 F1800.000
G3 X-204.483 Y-81.995 Z-3.200 I0.005 J0.012 K0.000 F1800.000
G3 X-204.565 Y-81.982 Z-3.200 I-0.045 J-0.017 K0.000 F1800.000
G1 X-211.804 Y-81.982 Z-3.200 F1800.000
G1 X-211.888 Y-81.991 Z-3.200 F1800.000
G3 X-211.891 Y-81.995 Z-3.200 I0.001 J-0.004 K0.000 F1800.000
G2 X-209.800 Y-84.095 Z-3.200 I-0.035 J-2.127 K0.000 F1800.000
G1 X-209.800 Y-86.395 Z-3.200 F1800.000
G2 X-213.232 Y-89.975 Z-3.200 I-3.591 J0.008 K0.000 F1800.000
G1 X-217.387 Y-89.982 Z-3.200 F1800.000
G2 X-220.967 Y-86.550 Z-3.200 I0.008 J3.591 K0.000 F1800.000
G1 X-220.975 Y-72.395 Z-3.200 F1800.000
G2 X-217.543 Y-68.815 Z-3.200 I3.591 J-0.008 K0.000 F1800.000
G1 X-205.066 Y-68.807 Z-3.200 F1800.000
G1 X-204.987 Y-68.799 Z-3.200 F1800.000
G3 X-204.983 Y-68.792 Z-3.200 I-0.001 J0.005 K0.000 F1800.000
G2 X-206.575 Y-67.195 Z-3.200 I0.045 J1.637 K0.000 F1800.000
G1 X-206.575 Y-10.745 Z-3.200 F1800.000
G2 X-204.500 Y-8.654 Z-3.200 I2.094 J-0.003 K0.000 F1800.000
G3 X-204.483 Y-8.645 Z-3.200 I0.005 J0.012 K0.000 F1800.000
G3 X-204.565 Y-8.632 Z-3.200 I-0.045 J-0.017 K0.000 F1800.000
G1 X-211.804 Y-8.632 Z-3.200 F1800.000
G1 X-211.888 Y-8.641 Z-3.200 F1800.000
G3 X-211.891 Y-8.645 Z-3.200 I0.001 J-0.004 K0.000 F1800.000
G2 X-209.800 Y-10.745 Z-3.200 I-0.035 J-2.127 K0.000 F1800.000
G1 X-209.800 Y-13.045 Z-3.200 F1800.000
G2 X-213.232 Y-16.625 Z-3.200 I-3.591 J0.008 K0.000 F1800.000
G1 X-217.387 Y-16.632 Z-3.200 F1800.000
G2 X-220.967 Y-13.200 Z-3.200 I0.008 J3.591 K0.000 F1800.000
G1 X-220.975 Y-0.045 Z-3.200 F1800.000
G2 X-217.543 Y3.535 Z-3.200 I3.591 J-0.008 K0.000 F1800.000
G1 X-182.887 Y3.543 Z-3.200 F1800.000
G2 X-179.708 Y0.511 Z-3.200 I-0.007 J-3.191 K0.000 F1800.000
G1 X-179.700 Y-8.866 Z-3.200 F1800.000
G3 X-179.610 Y-8.957 Z-3.200 I0.056 J-0.035 K0.000 F1800.000
G1 X-162.965 Y-8.957 Z-3.200 F1800.000
G3 X-162.875 Y-8.867 Z-3.200 I0.035 J0.055 K0.000 F1800.000
G1 X-162.875 Y0.355 Z-3.200 F1800.000
G2 X-159.843 Y3.535 Z-3.200 I3.191 J-0.007 K0.000 F1800.000
G1 X-61.288 Y3.543 Z-3.200 F1800.000
G2 X-58.108 Y0.511 Z-3.200 I-0.007 J-3.191 K0.000 F1800.000
G1 X-58.100 Y-8.866 Z-3.200 F1800.000
G3 X-58.010 Y-8.957 Z-3.200 I0.056 J-0.035 K0.000 F1800.000
G1 X-41.365 Y-8.957 Z-3.200 F1800.000
G3 X-41.275 Y-8.867 Z-3.200 I0.035 J0.055 K0.000 F1800.000
G1 X-41.275 Y0.355 Z-3.200 F1800.000
G2 X-38.243 Y3.535 Z-3.200 I3.191 J-0.007 K0.000 F1800.000
G1 X-3.588 Y3.543 Z-3.200 F1800.000
G2 X-1.054 Y2.490 Z-3.200 I-0.008 J-3.591 K0.000 F1800.000
G1 X-1.054 Y2.490 Z-6.400 F1400.000
G2 X-0.008 Y0.111 Z-6.400 I-2.541 J-2.538 K0.000 F1800.000
G1 X-0.000 Y-13.045 Z-6.400 F1800.000
G2 X-3.432 Y-16.625 Z-6.400 I-3.591 J0.008 K0.000 F1800.000
G1 X-7.588 Y-16.632 Z-6.400 F1800.000
G2 X-11.167 Y-13.200 Z-6.400 I0.008 J3.591 K0.000 F1800.000
G1 X-11.175 Y-10.745 Z-6.400 F1800.000
G2 X-9.100 Y-8.654 Z-6.400 I2.094 J-0.003 K0.000 F1800.000
G3 X-9.083 Y-8.645 Z-6.400 I0.005 J0.012 K0.000 F1800.000
G3 X-9.165 Y-8.632 Z-6.400 I-0.045 J-0.017 K0.000 F1800.000
G1 X-16.404 Y-8.632 Z-6.400 F1800.000
G1 X-16.488 Y-8.641 Z-6.400 F1800.000
G3 X-16.491 Y-8.645 Z-6.400 I0.001 J-0.004 K0.000 F1800.000
G2 X-14.400 Y-10.745 Z-6.400 I-0.035 J-2.127 K0.000 F1800.000
G1 X-14.400 Y-67.195 Z-6.400 F1800.000
G2 X-15.988 Y-68.790 Z-6.400 I-1.601 J0.006 K0.000 F1800.000
G3 X-15.992 Y-68.795 Z-6.400 I0.001 J-0.005 K0.000 F1800.000
G3 X-15.910 Y-68.807 Z-6.400 I0.045 J0.017 K0.000 F1800.000
G1 X-3.588 Y-68.807 Z-6.400 F1800.000
G2 X-0.008 Y-72.239 Z-6.400 I-0.008 J-3.591 K0.000 F1800.000
G1 X-0.000 Y-86.395 Z-6.400 F1800.000
G2 X-3.432 Y-89.975 Z-6.400 I-3.591 J0.008 K0.000 F1800.000
G1 X-7.588 Y-89.982 Z-6.400 F1800.000
G2 X-11.167 Y-86.550 Z-6.400 I0.008 J3.591 K0.000 F1800.000
G1 X-11.175 Y-84.095 Z-6.400 F1800.000
G2 X-9.100 Y-82.004 Z-6.400 I2.094 J-0.003 K0.000 F1800.000
G3 X-9.083 Y-81.995 Z-6.400 I0.005 J0.012 K0.000 F1800.000
G3 X-9.165 Y-81.982 Z-6.400 I-0.045 J-0.017 K0.000 F1800.000
G1 X-16.404 Y-81.982 Z-6.400 F1800.000
G1 X-16.488 Y-81.991 Z-6.400 F1800.000
G3 X-16.491 Y-81.995 Z-6.400 I0.001 J-0.004 K0.000 F1800.000
G2 X-14.400 Y-84.095 Z-6.400 I-0.035 J-2.127 K0.000 F1800.000
G1 X-14.400 Y-120.045 Z-6.400 F1800.000
G2 X-16.988 Y-122.632 Z-6.400 I-2.600 J0.013 K0.000 F1800.000
G1 X-203.987 Y-122.632 Z-6.400 F1800.000
G2 X-206.575 Y-120.045 Z-6.400 I0.013 J2.600 K0.000 F1800.000
G1 X-206.575 Y-84.095 Z-6.400 F1800.000
G2 X-204.500 Y-82.004 Z-6.400 I2.094 J-0.003 K0.000 F1800.000
G3 X-204.483 Y-81.995 Z-6.400 I0.005 J0.012 K0.000 F1800.000
G3 X-204.565 Y-81.982 Z-6.400 I-0.045 J-0.017 K0.000 F1800.000
G1 X-211.804 Y-81.982 Z-6.400 F1800.000
G1 X-211.888 Y-81.991 Z-6.400 F1800.000
G3 X-211.891 Y-81.995 Z-6.400 I0.001 J-0.004 K0.000 F1800.000
G2 X-209.800 Y-84.095 Z-6.400 I-0.035 J-2.127 K0.000 F1800.000
G1 X-209.800 Y-86.395 Z-6.400 F1800.000
G2 X-213.232 Y-89.975 Z-6.400 I-3.591 J0.008 K0.000 F1800.000
G1 X-217.387 Y-89.982 Z-6.400 F1800.000
G2 X-220.967 Y-86.550 Z-6.400 I0.008 J3.591 K0.000 F1800.000
G1 X-220.975 Y-72.395 Z-6.400 F1800.000
G2 X-217.543 Y-68.815 Z-6.400 I3.591 J-0.008 K0.000 F1800.000
G1 X-205.066 Y-68.807 Z-6.400 F1800.000
G1 X-204.987 Y-68.799 Z-6.400 F1800.000
G3 X-204.983 Y-68.792 Z-6.400 I-0.001 J0.005 K0.000 F1800.000
G2 X-206.575 Y-67.195 Z-6.400 I0.045 J1.637 K0.000 F1800.000
G1 X-206.575 Y-10.745 Z-6.400 F1800.000
G2 X-204.500 Y-8.654 Z-6.400 I2.094 J-0.003 K0.000 F1800.000
G3 X-204.483 Y-8.645 Z-6.400 I0.005 J0.012 K0.000 F1800.000
G3 X-204.565 Y-8.632 Z-6.400 I-0.045 J-0.017 K0.000 F1800.000
G1 X-211.804 Y-8.632 Z-6.400 F1800.000
G1 X-211.888 Y-8.641 Z-6.400 F1800.000
G3 X-211.891 Y-8.645 Z-6.400 I0.001 J-0.004 K0.000 F1800.000
G2 X-209.800 Y-10.745 Z-6.400 I-0.035 J-2.127 K0.000 F1800.000
G1 X-209.800 Y-13.045 Z-6.400 F1800.000
G2 X-213.232 Y-16.625 Z-6.400 I-3.591 J0.008 K0.000 F1800.000
G1 X-217.387 Y-16.632 Z-6.400 F1800.000
G2 X-220.967 Y-13.200 Z-6.400 I0.008 J3.591 K0.000 F1800.000
G1 X-220.975 Y-0.045 Z-6.400 F1800.000
G2 X-217.543 Y3.535 Z-6.400 I3.591 J-0.008 K0.000 F1800.000
G1 X-182.887 Y3.543 Z-6.400 F1800.000
G2 X-179.708 Y0.511 Z-6.400 I-0.007 J-3.191 K0.000 F1800.000
G1 X-179.700 Y-8.866 Z-6.400 F1800.000
G3 X-179.610 Y-8.957 Z-6.400 I0.056 J-0.035 K0.000 F1800.000
G1 X-162.965 Y-8.957 Z-6.400 F1800.000
G3 X-162.875 Y-8.867 Z-6.400 I0.035 J0.055 K0.000 F1800.000
G1 X-162.875 Y0.355 Z-6.400 F1800.000
G2 X-159.843 Y3.535 Z-6.400 I3.191 J-0.007 K0.000 F1800.000
G1 X-61.288 Y3.543 Z-6.400 F1800.000
G2 X-58.108 Y0.511 Z-6.400 I-0.007 J-3.191 K0.000 F1800.000
G1 X-58.100 Y-8.866 Z-6.400 F1800.000
G3 X-58.010 Y-8.957 Z-6.400 I0.056 J-0.035 K0.000 F1800.000
G1 X-41.365 Y-8.957 Z-6.400 F1800.000
G3 X-41.275 Y-8.867 Z-6.400 I0.035 J0.055 K0.000 F1800.000
G1 X-41.275 Y0.355 Z-6.400 F1800.000
G2 X-38.243 Y3.535 Z-6.400 I3.191 J-0.007 K0.000 F1800.000
G1 X-3.588 Y3.543 Z-6.400 F1800.000
G2 X-1.054 Y2.490 Z-6.400 I-0.008 J-3.591 K0.000 F1800.000
G0 Z5.000
G0 Z5.000
(Finish operation: Profile021)
(Begin postamble)
M5
G17 G90
M2
