(Exported by FreeCAD)
(Post Processor: grbl_post)
(Output Time:2024-03-05 10:15:39.206913)
(Begin preamble)
G17 G90
G21
(Begin operation: Fixture)
(Path: Fixture)
G54
(Finish operation: Fixture)
(Begin operation: 1/8th in Endmill017)
(Path: 1/8th in Endmill017)
(1/8th in Endmill017)
(Begin toolchange)
( M6 T2 )
(Finish operation: 1/8th in Endmill017)
(Begin operation: Profile018)
(Path: Profile018)
(Profile018)
(Compensated Tool Path. Diameter: 3.175)
G0 Z5.000
G0 X-28.054 Y-41.640
G0 Z3.000
G1 X-28.054 Y-41.640 Z-3.200 F1400.000
G2 X-28.259 Y-42.335 Z-3.200 I-0.292 J-0.291 K0.000 F1800.000
G3 X-29.925 Y-43.938 Z-3.200 I-0.048 J-1.618 K0.000 F1800.000
G1 X-29.925 Y-80.937 Z-3.200 F1800.000
G3 X-28.259 Y-82.540 Z-3.200 I1.616 J0.012 K0.000 F1800.000
G2 X-28.415 Y-83.350 Z-3.200 I-0.087 J-0.403 K0.000 F1800.000
G1 X-34.360 Y-83.350 Z-3.200 F1800.000
G2 X-34.516 Y-82.540 Z-3.200 I-0.069 J0.407 K0.000 F1800.000
G3 X-32.850 Y-80.937 Z-3.200 I0.048 J1.618 K0.000 F1800.000
G1 X-32.850 Y-43.938 Z-3.200 F1800.000
G3 X-34.516 Y-42.335 Z-3.200 I-1.616 J-0.012 K0.000 F1800.000
G2 X-34.360 Y-41.525 Z-3.200 I0.087 J0.403 K0.000 F1800.000
G1 X-28.415 Y-41.525 Z-3.200 F1800.000
G2 X-28.054 Y-41.640 Z-3.200 I0.069 J-0.407 K0.000 F1800.000
G1 X-28.054 Y-41.640 Z-6.400 F1400.000
G2 X-28.259 Y-42.335 Z-6.400 I-0.292 J-0.291 K0.000 F1800.000
G3 X-29.925 Y-43.938 Z-6.400 I-0.048 J-1.618 K0.000 F1800.000
G1 X-29.925 Y-80.937 Z-6.400 F1800.000
G3 X-28.259 Y-82.540 Z-6.400 I1.616 J0.012 K0.000 F1800.000
G2 X-28.415 Y-83.350 Z-6.400 I-0.087 J-0.403 K0.000 F1800.000
G1 X-34.360 Y-83.350 Z-6.400 F1800.000
G2 X-34.516 Y-82.540 Z-6.400 I-0.069 J0.407 K0.000 F1800.000
G3 X-32.850 Y-80.937 Z-6.400 I0.048 J1.618 K0.000 F1800.000
G1 X-32.850 Y-43.938 Z-6.400 F1800.000
G3 X-34.516 Y-42.335 Z-6.400 I-1.616 J-0.012 K0.000 F1800.000
G2 X-34.360 Y-41.525 Z-6.400 I0.087 J0.403 K0.000 F1800.000
G1 X-28.415 Y-41.525 Z-6.400 F1800.000
G2 X-28.054 Y-41.640 Z-6.400 I0.069 J-0.407 K0.000 F1800.000
G0 Z5.000
G0 Z5.000
G0 X-28.054 Y-41.640
G0 X-17.912 Y-56.590
G0 X-17.912 Y-56.590 Z3.000
G1 X-17.912 Y-56.590 Z-3.200 F1400.000
G2 X-17.610 Y-56.525 Z-3.200 I0.232 J-0.341 K0.000 F1800.000
G1 X-11.665 Y-56.525 Z-3.200 F1800.000
G2 X-11.509 Y-57.335 Z-3.200 I0.069 J-0.407 K0.000 F1800.000
G3 X-13.175 Y-58.938 Z-3.200 I-0.048 J-1.618 K0.000 F1800.000
G1 X-13.175 Y-80.937 Z-3.200 F1800.000
G3 X-11.509 Y-82.540 Z-3.200 I1.616 J0.012 K0.000 F1800.000
G2 X-11.665 Y-83.350 Z-3.200 I-0.087 J-0.403 K0.000 F1800.000
G1 X-17.610 Y-83.350 Z-3.200 F1800.000
G2 X-17.766 Y-82.540 Z-3.200 I-0.069 J0.407 K0.000 F1800.000
G3 X-16.100 Y-80.937 Z-3.200 I0.048 J1.618 K0.000 F1800.000
G1 X-16.100 Y-58.938 Z-3.200 F1800.000
G3 X-17.766 Y-57.335 Z-3.200 I-1.616 J-0.012 K0.000 F1800.000
G2 X-17.912 Y-56.590 Z-3.200 I0.087 J0.403 K0.000 F1800.000
G1 X-17.912 Y-56.590 Z-6.400 F1400.000
G2 X-17.610 Y-56.525 Z-6.400 I0.232 J-0.341 K0.000 F1800.000
G1 X-11.665 Y-56.525 Z-6.400 F1800.000
G2 X-11.509 Y-57.335 Z-6.400 I0.069 J-0.407 K0.000 F1800.000
G3 X-13.175 Y-58.938 Z-6.400 I-0.048 J-1.618 K0.000 F1800.000
G1 X-13.175 Y-80.937 Z-6.400 F1800.000
G3 X-11.509 Y-82.540 Z-6.400 I1.616 J0.012 K0.000 F1800.000
G2 X-11.665 Y-83.350 Z-6.400 I-0.087 J-0.403 K0.000 F1800.000
G1 X-17.610 Y-83.350 Z-6.400 F1800.000
G2 X-17.766 Y-82.540 Z-6.400 I-0.069 J0.407 K0.000 F1800.000
G3 X-16.100 Y-80.937 Z-6.400 I0.048 J1.618 K0.000 F1800.000
G1 X-16.100 Y-58.938 Z-6.400 F1800.000
G3 X-17.766 Y-57.335 Z-6.400 I-1.616 J-0.012 K0.000 F1800.000
G2 X-17.912 Y-56.590 Z-6.400 I0.087 J0.403 K0.000 F1800.000
G0 Z5.000
G0 Z5.000
G0 X-17.912 Y-56.590
G0 X-200.635 Y-41.964
G0 X-200.635 Y-41.964 Z3.000
G1 X-200.635 Y-41.964 Z-3.200 F1400.000
G2 X-200.959 Y-42.335 Z-3.200 I-0.411 J0.033 K0.000 F1800.000
G3 X-202.625 Y-43.938 Z-3.200 I-0.048 J-1.618 K0.000 F1800.000
G1 X-202.625 Y-80.937 Z-3.200 F1800.000
G3 X-200.959 Y-82.540 Z-3.200 I1.616 J0.012 K0.000 F1800.000
G2 X-201.115 Y-83.350 Z-3.200 I-0.087 J-0.403 K0.000 F1800.000
G1 X-207.860 Y-83.350 Z-3.200 F1800.000
G2 X-208.016 Y-82.540 Z-3.200 I-0.069 J0.407 K0.000 F1800.000
G3 X-206.350 Y-80.937 Z-3.200 I0.048 J1.618 K0.000 F1800.000
G1 X-206.350 Y-43.938 Z-3.200 F1800.000
G3 X-208.016 Y-42.335 Z-3.200 I-1.616 J-0.012 K0.000 F1800.000
G2 X-207.860 Y-41.525 Z-3.200 I0.087 J0.403 K0.000 F1800.000
G1 X-201.115 Y-41.525 Z-3.200 F1800.000
G2 X-200.635 Y-41.964 Z-3.200 I0.069 J-0.407 K0.000 F1800.000
G1 X-200.635 Y-41.964 Z-6.400 F1400.000
G2 X-200.959 Y-42.335 Z-6.400 I-0.411 J0.033 K0.000 F1800.000
G3 X-202.625 Y-43.938 Z-6.400 I-0.048 J-1.618 K0.000 F1800.000
G1 X-202.625 Y-80.937 Z-6.400 F1800.000
G3 X-200.959 Y-82.540 Z-6.400 I1.616 J0.012 K0.000 F1800.000
G2 X-201.115 Y-83.350 Z-6.400 I-0.087 J-0.403 K0.000 F1800.000
G1 X-207.860 Y-83.350 Z-6.400 F1800.000
G2 X-208.016 Y-82.540 Z-6.400 I-0.069 J0.407 K0.000 F1800.000
G3 X-206.350 Y-80.937 Z-6.400 I0.048 J1.618 K0.000 F1800.000
G1 X-206.350 Y-43.938 Z-6.400 F1800.000
G3 X-208.016 Y-42.335 Z-6.400 I-1.616 J-0.012 K0.000 F1800.000
G2 X-207.860 Y-41.525 Z-6.400 I0.087 J0.403 K0.000 F1800.000
G1 X-201.115 Y-41.525 Z-6.400 F1800.000
G2 X-200.635 Y-41.964 Z-6.400 I0.069 J-0.407 K0.000 F1800.000
G0 Z5.000
G0 Z5.000
G0 X-200.635 Y-41.964
G0 X-217.882 Y-56.664
G0 X-217.882 Y-56.664 Z3.000
G1 X-217.882 Y-56.664 Z-3.200 F1400.000
G2 X-218.109 Y-57.335 Z-3.200 I-0.314 J-0.268 K0.000 F1800.000
G3 X-219.775 Y-58.938 Z-3.200 I-0.048 J-1.618 K0.000 F1800.000
G1 X-219.775 Y-80.937 Z-3.200 F1800.000
G3 X-218.109 Y-82.540 Z-3.200 I1.616 J0.012 K0.000 F1800.000
G2 X-218.265 Y-83.350 Z-3.200 I-0.087 J-0.403 K0.000 F1800.000
G1 X-224.210 Y-83.350 Z-3.200 F1800.000
G2 X-224.366 Y-82.540 Z-3.200 I-0.069 J0.407 K0.000 F1800.000
G3 X-222.700 Y-80.937 Z-3.200 I0.048 J1.618 K0.000 F1800.000
G1 X-222.700 Y-58.938 Z-3.200 F1800.000
G3 X-224.366 Y-57.335 Z-3.200 I-1.616 J-0.012 K0.000 F1800.000
G2 X-224.210 Y-56.525 Z-3.200 I0.087 J0.403 K0.000 F1800.000
G1 X-218.265 Y-56.525 Z-3.200 F1800.000
G2 X-217.882 Y-56.664 Z-3.200 I0.069 J-0.407 K0.000 F1800.000
G1 X-217.882 Y-56.664 Z-6.400 F1400.000
G2 X-218.109 Y-57.335 Z-6.400 I-0.314 J-0.268 K0.000 F1800.000
G3 X-219.775 Y-58.938 Z-6.400 I-0.048 J-1.618 K0.000 F1800.000
G1 X-219.775 Y-80.937 Z-6.400 F1800.000
G3 X-218.109 Y-82.540 Z-6.400 I1.616 J0.012 K0.000 F1800.000
G2 X-218.265 Y-83.350 Z-6.400 I-0.087 J-0.403 K0.000 F1800.000
G1 X-224.210 Y-83.350 Z-6.400 F1800.000
G2 X-224.366 Y-82.540 Z-6.400 I-0.069 J0.407 K0.000 F1800.000
G3 X-222.700 Y-80.937 Z-6.400 I0.048 J1.618 K0.000 F1800.000
G1 X-222.700 Y-58.938 Z-6.400 F1800.000
G3 X-224.366 Y-57.335 Z-6.400 I-1.616 J-0.012 K0.000 F1800.000
G2 X-224.210 Y-56.525 Z-6.400 I0.087 J0.403 K0.000 F1800.000
G1 X-218.265 Y-56.525 Z-6.400 F1800.000
G2 X-217.882 Y-56.664 Z-6.400 I0.069 J-0.407 K0.000 F1800.000
G0 Z5.000
G0 Z5.000
(Finish operation: Profile018)
(Begin operation: Profile024)
(Path: Profile024)
(Profile024)
(Compensated Tool Path. Diameter: 3.175)
G0 Z5.000
G0 X-28.054 Y-41.640
G0 Z3.000
G1 X-28.054 Y-41.640 Z-3.200 F1400.000
G3 X-28.415 Y-41.525 Z-3.200 I-0.292 J-0.291 K0.000 F1800.000
G1 X-34.360 Y-41.525 Z-3.200 F1800.000
G3 X-34.516 Y-42.335 Z-3.200 I-0.070 J-0.406 K0.000 F1800.000
G2 X-32.850 Y-43.938 Z-3.200 I0.051 J-1.615 K0.000 F1800.000
G1 X-32.850 Y-80.937 Z-3.200 F1800.000
G2 X-34.516 Y-82.540 Z-3.200 I-1.619 J0.015 K0.000 F1800.000
G3 X-34.360 Y-83.350 Z-3.200 I0.088 J-0.403 K0.000 F1800.000
G1 X-28.415 Y-83.350 Z-3.200 F1800.000
G3 X-28.259 Y-82.540 Z-3.200 I0.070 J0.406 K0.000 F1800.000
G2 X-29.925 Y-80.937 Z-3.200 I-0.051 J1.615 K0.000 F1800.000
G1 X-29.925 Y-43.938 Z-3.200 F1800.000
G2 X-28.259 Y-42.335 Z-3.200 I1.619 J-0.015 K0.000 F1800.000
G3 X-28.054 Y-41.640 Z-3.200 I-0.088 J0.403 K0.000 F1800.000
G1 X-28.054 Y-41.640 Z-6.400 F1400.000
G3 X-28.415 Y-41.525 Z-6.400 I-0.292 J-0.291 K0.000 F1800.000
G1 X-34.360 Y-41.525 Z-6.400 F1800.000
G3 X-34.516 Y-42.335 Z-6.400 I-0.070 J-0.406 K0.000 F1800.000
G2 X-32.850 Y-43.938 Z-6.400 I0.051 J-1.615 K0.000 F1800.000
G1 X-32.850 Y-80.937 Z-6.400 F1800.000
G2 X-34.516 Y-82.540 Z-6.400 I-1.619 J0.015 K0.000 F1800.000
G3 X-34.360 Y-83.350 Z-6.400 I0.088 J-0.403 K0.000 F1800.000
G1 X-28.415 Y-83.350 Z-6.400 F1800.000
G3 X-28.259 Y-82.540 Z-6.400 I0.070 J0.406 K0.000 F1800.000
G2 X-29.925 Y-80.937 Z-6.400 I-0.051 J1.615 K0.000 F1800.000
G1 X-29.925 Y-43.938 Z-6.400 F1800.000
G2 X-28.259 Y-42.335 Z-6.400 I1.619 J-0.015 K0.000 F1800.000
G3 X-28.054 Y-41.640 Z-6.400 I-0.088 J0.403 K0.000 F1800.000
G0 Z5.000
G0 Z5.000
G0 X-28.054 Y-41.640
G0 X-17.912 Y-56.590
G0 X-17.912 Y-56.590 Z3.000
G1 X-17.912 Y-56.590 Z-3.200 F1400.000
G3 X-17.766 Y-57.335 Z-3.200 I0.232 J-0.341 K0.000 F1800.000
G2 X-16.100 Y-58.938 Z-3.200 I0.051 J-1.615 K0.000 F1800.000
G1 X-16.100 Y-80.937 Z-3.200 F1800.000
G2 X-17.766 Y-82.540 Z-3.200 I-1.619 J0.015 K0.000 F1800.000
G3 X-17.610 Y-83.350 Z-3.200 I0.088 J-0.403 K0.000 F1800.000
G1 X-11.665 Y-83.350 Z-3.200 F1800.000
G3 X-11.509 Y-82.540 Z-3.200 I0.070 J0.406 K0.000 F1800.000
G2 X-13.175 Y-80.937 Z-3.200 I-0.051 J1.615 K0.000 F1800.000
G1 X-13.175 Y-58.938 Z-3.200 F1800.000
G2 X-11.509 Y-57.335 Z-3.200 I1.619 J-0.015 K0.000 F1800.000
G3 X-11.665 Y-56.525 Z-3.200 I-0.088 J0.403 K0.000 F1800.000
G1 X-17.610 Y-56.525 Z-3.200 F1800.000
G3 X-17.912 Y-56.590 Z-3.200 I-0.070 J-0.406 K0.000 F1800.000
G1 X-17.912 Y-56.590 Z-6.400 F1400.000
G3 X-17.766 Y-57.335 Z-6.400 I0.232 J-0.341 K0.000 F1800.000
G2 X-16.100 Y-58.938 Z-6.400 I0.051 J-1.615 K0.000 F1800.000
G1 X-16.100 Y-80.937 Z-6.400 F1800.000
G2 X-17.766 Y-82.540 Z-6.400 I-1.619 J0.015 K0.000 F1800.000
G3 X-17.610 Y-83.350 Z-6.400 I0.088 J-0.403 K0.000 F1800.000
G1 X-11.665 Y-83.350 Z-6.400 F1800.000
G3 X-11.509 Y-82.540 Z-6.400 I0.070 J0.406 K0.000 F1800.000
G2 X-13.175 Y-80.937 Z-6.400 I-0.051 J1.615 K0.000 F1800.000
G1 X-13.175 Y-58.938 Z-6.400 F1800.000
G2 X-11.509 Y-57.335 Z-6.400 I1.619 J-0.015 K0.000 F1800.000
G3 X-11.665 Y-56.525 Z-6.400 I-0.088 J0.403 K0.000 F1800.000
G1 X-17.610 Y-56.525 Z-6.400 F1800.000
G3 X-17.912 Y-56.590 Z-6.400 I-0.070 J-0.406 K0.000 F1800.000
G0 Z5.000
G0 Z5.000
G0 X-17.912 Y-56.590
G0 X-200.635 Y-41.964
G0 X-200.635 Y-41.964 Z3.000
G1 X-200.635 Y-41.964 Z-3.200 F1400.000
G3 X-201.115 Y-41.525 Z-3.200 I-0.411 J0.033 K0.000 F1800.000
G1 X-207.860 Y-41.525 Z-3.200 F1800.000
G3 X-208.016 Y-42.335 Z-3.200 I-0.070 J-0.406 K0.000 F1800.000
G2 X-206.350 Y-43.938 Z-3.200 I0.051 J-1.615 K0.000 F1800.000
G1 X-206.350 Y-80.937 Z-3.200 F1800.000
G2 X-208.016 Y-82.540 Z-3.200 I-1.619 J0.015 K0.000 F1800.000
G3 X-207.860 Y-83.350 Z-3.200 I0.088 J-0.403 K0.000 F1800.000
G1 X-201.115 Y-83.350 Z-3.200 F1800.000
G3 X-200.959 Y-82.540 Z-3.200 I0.070 J0.406 K0.000 F1800.000
G2 X-202.625 Y-80.937 Z-3.200 I-0.051 J1.615 K0.000 F1800.000
G1 X-202.625 Y-43.938 Z-3.200 F1800.000
G2 X-200.959 Y-42.335 Z-3.200 I1.619 J-0.015 K0.000 F1800.000
G3 X-200.635 Y-41.964 Z-3.200 I-0.088 J0.403 K0.000 F1800.000
G1 X-200.635 Y-41.964 Z-6.400 F1400.000
G3 X-201.115 Y-41.525 Z-6.400 I-0.411 J0.033 K0.000 F1800.000
G1 X-207.860 Y-41.525 Z-6.400 F1800.000
G3 X-208.016 Y-42.335 Z-6.400 I-0.070 J-0.406 K0.000 F1800.000
G2 X-206.350 Y-43.938 Z-6.400 I0.051 J-1.615 K0.000 F1800.000
G1 X-206.350 Y-80.937 Z-6.400 F1800.000
G2 X-208.016 Y-82.540 Z-6.400 I-1.619 J0.015 K0.000 F1800.000
G3 X-207.860 Y-83.350 Z-6.400 I0.088 J-0.403 K0.000 F1800.000
G1 X-201.115 Y-83.350 Z-6.400 F1800.000
G3 X-200.959 Y-82.540 Z-6.400 I0.070 J0.406 K0.000 F1800.000
G2 X-202.625 Y-80.937 Z-6.400 I-0.051 J1.615 K0.000 F1800.000
G1 X-202.625 Y-43.938 Z-6.400 F1800.000
G2 X-200.959 Y-42.335 Z-6.400 I1.619 J-0.015 K0.000 F1800.000
G3 X-200.635 Y-41.964 Z-6.400 I-0.088 J0.403 K0.000 F1800.000
G0 Z5.000
G0 Z5.000
G0 X-200.635 Y-41.964
G0 X-217.882 Y-56.664
G0 X-217.882 Y-56.664 Z3.000
G1 X-217.882 Y-56.664 Z-3.200 F1400.000
G3 X-218.265 Y-56.525 Z-3.200 I-0.314 J-0.268 K0.000 F1800.000
G1 X-224.210 Y-56.525 Z-3.200 F1800.000
G3 X-224.366 Y-57.335 Z-3.200 I-0.070 J-0.406 K0.000 F1800.000
G2 X-222.700 Y-58.938 Z-3.200 I0.051 J-1.615 K0.000 F1800.000
G1 X-222.700 Y-80.937 Z-3.200 F1800.000
G2 X-224.366 Y-82.540 Z-3.200 I-1.619 J0.015 K0.000 F1800.000
G3 X-224.210 Y-83.350 Z-3.200 I0.088 J-0.403 K0.000 F1800.000
G1 X-218.265 Y-83.350 Z-3.200 F1800.000
G3 X-218.109 Y-82.540 Z-3.200 I0.070 J0.406 K0.000 F1800.000
G2 X-219.775 Y-80.937 Z-3.200 I-0.051 J1.615 K0.000 F1800.000
G1 X-219.775 Y-58.938 Z-3.200 F1800.000
G2 X-218.109 Y-57.335 Z-3.200 I1.619 J-0.015 K0.000 F1800.000
G3 X-217.882 Y-56.664 Z-3.200 I-0.088 J0.403 K0.000 F1800.000
G1 X-217.882 Y-56.664 Z-6.400 F1400.000
G3 X-218.265 Y-56.525 Z-6.400 I-0.314 J-0.268 K0.000 F1800.000
G1 X-224.210 Y-56.525 Z-6.400 F1800.000
G3 X-224.366 Y-57.335 Z-6.400 I-0.070 J-0.406 K0.000 F1800.000
G2 X-222.700 Y-58.938 Z-6.400 I0.051 J-1.615 K0.000 F1800.000
G1 X-222.700 Y-80.937 Z-6.400 F1800.000
G2 X-224.366 Y-82.540 Z-6.400 I-1.619 J0.015 K0.000 F1800.000
G3 X-224.210 Y-83.350 Z-6.400 I0.088 J-0.403 K0.000 F1800.000
G1 X-218.265 Y-83.350 Z-6.400 F1800.000
G3 X-218.109 Y-82.540 Z-6.400 I0.070 J0.406 K0.000 F1800.000
G2 X-219.775 Y-80.937 Z-6.400 I-0.051 J1.615 K0.000 F1800.000
G1 X-219.775 Y-58.938 Z-6.400 F1800.000
G2 X-218.109 Y-57.335 Z-6.400 I1.619 J-0.015 K0.000 F1800.000
G3 X-217.882 Y-56.664 Z-6.400 I-0.088 J0.403 K0.000 F1800.000
G0 Z5.000
G0 Z5.000
(Finish operation: Profile024)
(Begin operation: Profile025)
(Path: Profile025)
(Profile025)
(Compensated Tool Path. Diameter: 3.175)
G0 Z5.000
G0 X-0.762 Y-0.762
G0 Z3.000
G1 X-0.762 Y-0.762 Z-3.200 F1400.000
G2 X-0.000 Y-2.588 Z-3.200 I-1.839 J-1.839 K0.000 F1800.000
G1 X0.000 Y-123.587 Z-3.200 F1800.000
G2 X-2.588 Y-126.175 Z-3.200 I-2.600 J0.013 K0.000 F1800.000
G1 X-233.287 Y-126.175 Z-3.200 F1800.000
G2 X-235.875 Y-123.587 Z-3.200 I0.013 J2.600 K0.000 F1800.000
G1 X-235.875 Y-2.588 Z-3.200 F1800.000
G2 X-233.287 Y0.000 Z-3.200 I2.600 J-0.013 K0.000 F1800.000
G1 X-225.287 Y-0.000 Z-3.200 F1800.000
G2 X-222.700 Y-2.588 Z-3.200 I-0.013 J-2.600 K0.000 F1800.000
G1 X-222.700 Y-7.588 Z-3.200 F1800.000
G2 X-224.366 Y-9.190 Z-3.200 I-1.616 J0.012 K0.000 F1800.000
G3 X-224.210 Y-10.000 Z-3.200 I0.087 J-0.403 K0.000 F1800.000
G1 X-217.565 Y-10.000 Z-3.200 F1800.000
G3 X-217.409 Y-9.190 Z-3.200 I0.069 J0.407 K0.000 F1800.000
G2 X-219.075 Y-7.588 Z-3.200 I-0.048 J1.618 K0.000 F1800.000
G1 X-219.075 Y-2.588 Z-3.200 F1800.000
G2 X-216.488 Y-0.000 Z-3.200 I2.600 J-0.013 K0.000 F1800.000
G1 X-208.938 Y-0.000 Z-3.200 F1800.000
G2 X-206.350 Y-2.588 Z-3.200 I-0.013 J-2.600 K0.000 F1800.000
G1 X-206.350 Y-7.588 Z-3.200 F1800.000
G2 X-208.016 Y-9.190 Z-3.200 I-1.616 J0.012 K0.000 F1800.000
G3 X-207.860 Y-10.000 Z-3.200 I0.087 J-0.403 K0.000 F1800.000
G1 X-201.115 Y-10.000 Z-3.200 F1800.000
G3 X-200.959 Y-9.190 Z-3.200 I0.069 J0.407 K0.000 F1800.000
G2 X-202.625 Y-7.588 Z-3.200 I-0.048 J1.618 K0.000 F1800.000
G1 X-202.625 Y-2.588 Z-3.200 F1800.000
G2 X-200.037 Y0.000 Z-3.200 I2.600 J-0.013 K0.000 F1800.000
G1 X-158.938 Y-0.000 Z-3.200 F1800.000
G2 X-156.350 Y-2.588 Z-3.200 I-0.013 J-2.600 K0.000 F1800.000
G1 X-156.350 Y-19.588 Z-3.200 F1800.000
G2 X-158.938 Y-22.175 Z-3.200 I-2.600 J0.013 K0.000 F1800.000
G1 X-174.738 Y-22.175 Z-3.200 F1800.000
G2 X-176.333 Y-20.587 Z-3.200 I0.006 J1.601 K0.000 F1800.000
G3 X-176.338 Y-20.583 Z-3.200 I-0.005 J-0.001 K0.000 F1800.000
G3 X-176.350 Y-20.665 Z-3.200 I0.017 J-0.045 K0.000 F1800.000
G1 X-176.350 Y-27.504 Z-3.200 F1800.000
G1 X-176.341 Y-27.588 Z-3.200 F1800.000
G3 X-176.336 Y-27.591 Z-3.200 I0.004 J0.001 K0.000 F1800.000
G2 X-174.737 Y-26.000 Z-3.200 I1.641 J-0.050 K0.000 F1800.000
G1 X-61.138 Y-26.000 Z-3.200 F1800.000
G2 X-59.541 Y-27.588 Z-3.200 I-0.006 J-1.603 K0.000 F1800.000
G3 X-59.536 Y-27.591 Z-3.200 I0.004 J0.001 K0.000 F1800.000
G3 X-59.525 Y-27.504 Z-3.200 I-0.034 J0.049 K0.000 F1800.000
G1 X-59.525 Y-20.665 Z-3.200 F1800.000
G1 X-59.533 Y-20.587 Z-3.200 F1800.000
G3 X-59.540 Y-20.583 Z-3.200 I-0.005 J-0.001 K0.000 F1800.000
G2 X-61.138 Y-22.175 Z-3.200 I-1.637 J0.045 K0.000 F1800.000
G1 X-76.938 Y-22.175 Z-3.200 F1800.000
G2 X-79.525 Y-19.588 Z-3.200 I0.013 J2.600 K0.000 F1800.000
G1 X-79.525 Y-2.588 Z-3.200 F1800.000
G2 X-76.938 Y-0.000 Z-3.200 I2.600 J-0.013 K0.000 F1800.000
G1 X-35.838 Y-0.000 Z-3.200 F1800.000
G2 X-33.250 Y-2.588 Z-3.200 I-0.013 J-2.600 K0.000 F1800.000
G1 X-33.250 Y-7.588 Z-3.200 F1800.000
G2 X-34.916 Y-9.190 Z-3.200 I-1.616 J0.012 K0.000 F1800.000
G3 X-34.760 Y-10.000 Z-3.200 I0.087 J-0.403 K0.000 F1800.000
G1 X-28.015 Y-10.000 Z-3.200 F1800.000
G3 X-27.859 Y-9.190 Z-3.200 I0.069 J0.407 K0.000 F1800.000
G2 X-29.525 Y-7.588 Z-3.200 I-0.048 J1.618 K0.000 F1800.000
G1 X-29.525 Y-2.588 Z-3.200 F1800.000
G2 X-26.938 Y-0.000 Z-3.200 I2.600 J-0.013 K0.000 F1800.000
G1 X-19.388 Y-0.000 Z-3.200 F1800.000
G2 X-16.800 Y-2.588 Z-3.200 I-0.013 J-2.600 K0.000 F1800.000
G1 X-16.800 Y-7.588 Z-3.200 F1800.000
G2 X-18.466 Y-9.190 Z-3.200 I-1.616 J0.012 K0.000 F1800.000
G3 X-18.310 Y-10.000 Z-3.200 I0.087 J-0.403 K0.000 F1800.000
G1 X-11.665 Y-10.000 Z-3.200 F1800.000
G3 X-11.509 Y-9.190 Z-3.200 I0.069 J0.407 K0.000 F1800.000
G2 X-13.175 Y-7.588 Z-3.200 I-0.048 J1.618 K0.000 F1800.000
G1 X-13.175 Y-2.588 Z-3.200 F1800.000
G2 X-10.588 Y-0.000 Z-3.200 I2.600 J-0.013 K0.000 F1800.000
G1 X-2.588 Y-0.000 Z-3.200 F1800.000
G2 X-0.762 Y-0.762 Z-3.200 I-0.013 J-2.600 K0.000 F1800.000
G1 X-0.762 Y-0.762 Z-6.400 F1400.000
G2 X-0.000 Y-2.588 Z-6.400 I-1.839 J-1.839 K0.000 F1800.000
G1 X0.000 Y-123.587 Z-6.400 F1800.000
G2 X-2.588 Y-126.175 Z-6.400 I-2.600 J0.013 K0.000 F1800.000
G1 X-233.287 Y-126.175 Z-6.400 F1800.000
G2 X-235.875 Y-123.587 Z-6.400 I0.013 J2.600 K0.000 F1800.000
G1 X-235.875 Y-2.588 Z-6.400 F1800.000
G2 X-233.287 Y0.000 Z-6.400 I2.600 J-0.013 K0.000 F1800.000
G1 X-225.287 Y-0.000 Z-6.400 F1800.000
G2 X-222.700 Y-2.588 Z-6.400 I-0.013 J-2.600 K0.000 F1800.000
G1 X-222.700 Y-7.588 Z-6.400 F1800.000
G2 X-224.366 Y-9.190 Z-6.400 I-1.616 J0.012 K0.000 F1800.000
G3 X-224.210 Y-10.000 Z-6.400 I0.087 J-0.403 K0.000 F1800.000
G1 X-217.565 Y-10.000 Z-6.400 F1800.000
G3 X-217.409 Y-9.190 Z-6.400 I0.069 J0.407 K0.000 F1800.000
G2 X-219.075 Y-7.588 Z-6.400 I-0.048 J1.618 K0.000 F1800.000
G1 X-219.075 Y-2.588 Z-6.400 F1800.000
G2 X-216.488 Y-0.000 Z-6.400 I2.600 J-0.013 K0.000 F1800.000
G1 X-208.938 Y-0.000 Z-6.400 F1800.000
G2 X-206.350 Y-2.588 Z-6.400 I-0.013 J-2.600 K0.000 F1800.000
G1 X-206.350 Y-7.588 Z-6.400 F1800.000
G2 X-208.016 Y-9.190 Z-6.400 I-1.616 J0.012 K0.000 F1800.000
G3 X-207.860 Y-10.000 Z-6.400 I0.087 J-0.403 K0.000 F1800.000
G1 X-201.115 Y-10.000 Z-6.400 F1800.000
G3 X-200.959 Y-9.190 Z-6.400 I0.069 J0.407 K0.000 F1800.000
G2 X-202.625 Y-7.588 Z-6.400 I-0.048 J1.618 K0.000 F1800.000
G1 X-202.625 Y-2.588 Z-6.400 F1800.000
G2 X-200.037 Y0.000 Z-6.400 I2.600 J-0.013 K0.000 F1800.000
G1 X-158.938 Y-0.000 Z-6.400 F1800.000
G2 X-156.350 Y-2.588 Z-6.400 I-0.013 J-2.600 K0.000 F1800.000
G1 X-156.350 Y-19.588 Z-6.400 F1800.000
G2 X-158.938 Y-22.175 Z-6.400 I-2.600 J0.013 K0.000 F1800.000
G1 X-174.738 Y-22.175 Z-6.400 F1800.000
G2 X-176.333 Y-20.587 Z-6.400 I0.006 J1.601 K0.000 F1800.000
G3 X-176.338 Y-20.583 Z-6.400 I-0.005 J-0.001 K0.000 F1800.000
G3 X-176.350 Y-20.665 Z-6.400 I0.017 J-0.045 K0.000 F1800.000
G1 X-176.350 Y-27.504 Z-6.400 F1800.000
G1 X-176.341 Y-27.588 Z-6.400 F1800.000
G3 X-176.336 Y-27.591 Z-6.400 I0.004 J0.001 K0.000 F1800.000
G2 X-174.737 Y-26.000 Z-6.400 I1.641 J-0.050 K0.000 F1800.000
G1 X-61.138 Y-26.000 Z-6.400 F1800.000
G2 X-59.541 Y-27.588 Z-6.400 I-0.006 J-1.603 K0.000 F1800.000
G3 X-59.536 Y-27.591 Z-6.400 I0.004 J0.001 K0.000 F1800.000
G3 X-59.525 Y-27.504 Z-6.400 I-0.034 J0.049 K0.000 F1800.000
G1 X-59.525 Y-20.665 Z-6.400 F1800.000
G1 X-59.533 Y-20.587 Z-6.400 F1800.000
G3 X-59.540 Y-20.583 Z-6.400 I-0.005 J-0.001 K0.000 F1800.000
G2 X-61.138 Y-22.175 Z-6.400 I-1.637 J0.045 K0.000 F1800.000
G1 X-76.938 Y-22.175 Z-6.400 F1800.000
G2 X-79.525 Y-19.588 Z-6.400 I0.013 J2.600 K0.000 F1800.000
G1 X-79.525 Y-2.588 Z-6.400 F1800.000
G2 X-76.938 Y-0.000 Z-6.400 I2.600 J-0.013 K0.000 F1800.000
G1 X-35.838 Y-0.000 Z-6.400 F1800.000
G2 X-33.250 Y-2.588 Z-6.400 I-0.013 J-2.600 K0.000 F1800.000
G1 X-33.250 Y-7.588 Z-6.400 F1800.000
G2 X-34.916 Y-9.190 Z-6.400 I-1.616 J0.012 K0.000 F1800.000
G3 X-34.760 Y-10.000 Z-6.400 I0.087 J-0.403 K0.000 F1800.000
G1 X-28.015 Y-10.000 Z-6.400 F1800.000
G3 X-27.859 Y-9.190 Z-6.400 I0.069 J0.407 K0.000 F1800.000
G2 X-29.525 Y-7.588 Z-6.400 I-0.048 J1.618 K0.000 F1800.000
G1 X-29.525 Y-2.588 Z-6.400 F1800.000
G2 X-26.938 Y-0.000 Z-6.400 I2.600 J-0.013 K0.000 F1800.000
G1 X-19.388 Y-0.000 Z-6.400 F1800.000
G2 X-16.800 Y-2.588 Z-6.400 I-0.013 J-2.600 K0.000 F1800.000
G1 X-16.800 Y-7.588 Z-6.400 F1800.000
G2 X-18.466 Y-9.190 Z-6.400 I-1.616 J0.012 K0.000 F1800.000
G3 X-18.310 Y-10.000 Z-6.400 I0.087 J-0.403 K0.000 F1800.000
G1 X-11.665 Y-10.000 Z-6.400 F1800.000
G3 X-11.509 Y-9.190 Z-6.400 I0.069 J0.407 K0.000 F1800.000
G2 X-13.175 Y-7.588 Z-6.400 I-0.048 J1.618 K0.000 F1800.000
G1 X-13.175 Y-2.588 Z-6.400 F1800.000
G2 X-10.588 Y-0.000 Z-6.400 I2.600 J-0.013 K0.000 F1800.000
G1 X-2.588 Y-0.000 Z-6.400 F1800.000
G2 X-0.762 Y-0.762 Z-6.400 I-0.013 J-2.600 K0.000 F1800.000
G0 Z5.000
G0 Z5.000
(Finish operation: Profile025)
(Begin postamble)
M5
G17 G90
M2
