(Exported by FreeCAD)
(Post Processor: grbl_post)
(Output Time:2024-03-05 09:35:11.188952)
(Begin preamble)
G17 G90
G21
(Begin operation: Fixture)
(Path: Fixture)
G54
(Finish operation: Fixture)
(Begin operation: 1/8th in Endmill025)
(Path: 1/8th in Endmill025)
(1/8th in Endmill025)
(Begin toolchange)
( M6 T2 )
(Finish operation: 1/8th in Endmill025)
(Begin operation: Profile031)
(Path: Profile031)
(Profile031)
(Compensated Tool Path. Diameter: 3.175)
G0 Z5.000
G0 X-1.937 Y-1.686
G0 Z3.000
G1 X-1.937 Y-1.686 Z-3.200 F1400.000
G2 X-1.008 Y-3.782 Z-3.200 I-2.258 J-2.255 K0.000 F1800.000
G1 X-1.000 Y-52.638 Z-3.200 F1800.000
G2 X-4.032 Y-55.817 Z-3.200 I-3.191 J0.007 K0.000 F1800.000
G1 X-65.138 Y-55.825 Z-3.200 F1800.000
G2 X-66.975 Y-53.988 Z-3.200 I0.000 J1.838 K0.000 F1800.000
G1 X-66.975 Y-52.438 Z-3.200 F1800.000
G2 X-65.387 Y-50.842 Z-3.200 I1.601 J-0.006 K0.000 F1800.000
G3 X-65.383 Y-50.838 Z-3.200 I-0.001 J0.005 K0.000 F1800.000
G3 X-65.465 Y-50.825 Z-3.200 I-0.045 J-0.017 K0.000 F1800.000
G1 X-71.854 Y-50.825 Z-3.200 F1800.000
G1 X-71.938 Y-50.834 Z-3.200 F1800.000
G3 X-71.941 Y-50.839 Z-3.200 I0.001 J-0.004 K0.000 F1800.000
G2 X-70.350 Y-52.437 Z-3.200 I-0.050 J-1.641 K0.000 F1800.000
G1 X-70.350 Y-53.988 Z-3.200 F1800.000
G2 X-72.188 Y-55.825 Z-3.200 I-1.838 J0.000 K0.000 F1800.000
G1 X-260.487 Y-55.825 Z-3.200 F1800.000
G2 X-262.325 Y-53.987 Z-3.200 I0.000 J1.838 K0.000 F1800.000
G1 X-262.325 Y-52.437 Z-3.200 F1800.000
G2 X-260.737 Y-50.842 Z-3.200 I1.601 J-0.006 K0.000 F1800.000
G3 X-260.733 Y-50.837 Z-3.200 I-0.001 J0.005 K0.000 F1800.000
G3 X-260.815 Y-50.825 Z-3.200 I-0.045 J-0.017 K0.000 F1800.000
G1 X-267.204 Y-50.825 Z-3.200 F1800.000
G1 X-267.288 Y-50.834 Z-3.200 F1800.000
G3 X-267.291 Y-50.839 Z-3.200 I0.001 J-0.004 K0.000 F1800.000
G2 X-265.700 Y-52.437 Z-3.200 I-0.050 J-1.641 K0.000 F1800.000
G1 X-265.700 Y-53.987 Z-3.200 F1800.000
G2 X-267.537 Y-55.825 Z-3.200 I-1.838 J0.000 K0.000 F1800.000
G1 X-328.487 Y-55.825 Z-3.200 F1800.000
G2 X-331.667 Y-52.793 Z-3.200 I0.007 J3.191 K0.000 F1800.000
G1 X-331.675 Y-3.938 Z-3.200 F1800.000
G2 X-328.643 Y-0.758 Z-3.200 I3.191 J-0.007 K0.000 F1800.000
G1 X-4.188 Y-0.750 Z-3.200 F1800.000
G2 X-1.937 Y-1.686 Z-3.200 I-0.007 J-3.191 K0.000 F1800.000
G1 X-1.937 Y-1.686 Z-6.400 F1400.000
G2 X-1.008 Y-3.782 Z-6.400 I-2.258 J-2.255 K0.000 F1800.000
G1 X-1.000 Y-52.638 Z-6.400 F1800.000
G2 X-4.032 Y-55.817 Z-6.400 I-3.191 J0.007 K0.000 F1800.000
G1 X-65.138 Y-55.825 Z-6.400 F1800.000
G2 X-66.975 Y-53.988 Z-6.400 I0.000 J1.838 K0.000 F1800.000
G1 X-66.975 Y-52.438 Z-6.400 F1800.000
G2 X-65.387 Y-50.842 Z-6.400 I1.601 J-0.006 K0.000 F1800.000
G3 X-65.383 Y-50.838 Z-6.400 I-0.001 J0.005 K0.000 F1800.000
G3 X-65.465 Y-50.825 Z-6.400 I-0.045 J-0.017 K0.000 F1800.000
G1 X-71.854 Y-50.825 Z-6.400 F1800.000
G1 X-71.938 Y-50.834 Z-6.400 F1800.000
G3 X-71.941 Y-50.839 Z-6.400 I0.001 J-0.004 K0.000 F1800.000
G2 X-70.350 Y-52.437 Z-6.400 I-0.050 J-1.641 K0.000 F1800.000
G1 X-70.350 Y-53.988 Z-6.400 F1800.000
G2 X-72.188 Y-55.825 Z-6.400 I-1.838 J0.000 K0.000 F1800.000
G1 X-260.487 Y-55.825 Z-6.400 F1800.000
G2 X-262.325 Y-53.987 Z-6.400 I0.000 J1.838 K0.000 F1800.000
G1 X-262.325 Y-52.437 Z-6.400 F1800.000
G2 X-260.737 Y-50.842 Z-6.400 I1.601 J-0.006 K0.000 F1800.000
G3 X-260.733 Y-50.837 Z-6.400 I-0.001 J0.005 K0.000 F1800.000
G3 X-260.815 Y-50.825 Z-6.400 I-0.045 J-0.017 K0.000 F1800.000
G1 X-267.204 Y-50.825 Z-6.400 F1800.000
G1 X-267.288 Y-50.834 Z-6.400 F1800.000
G3 X-267.291 Y-50.839 Z-6.400 I0.001 J-0.004 K0.000 F1800.000
G2 X-265.700 Y-52.437 Z-6.400 I-0.050 J-1.641 K0.000 F1800.000
G1 X-265.700 Y-53.987 Z-6.400 F1800.000
G2 X-267.537 Y-55.825 Z-6.400 I-1.838 J0.000 K0.000 F1800.000
G1 X-328.487 Y-55.825 Z-6.400 F1800.000
G2 X-331.667 Y-52.793 Z-6.400 I0.007 J3.191 K0.000 F1800.000
G1 X-331.675 Y-3.938 Z-6.400 F1800.000
G2 X-328.643 Y-0.758 Z-6.400 I3.191 J-0.007 K0.000 F1800.000
G1 X-4.188 Y-0.750 Z-6.400 F1800.000
G2 X-1.937 Y-1.686 Z-6.400 I-0.007 J-3.191 K0.000 F1800.000
G0 Z5.000
G0 Z5.000
(Finish operation: Profile031)
(Begin postamble)
M5
G17 G90
M2
