(Exported by FreeCAD)
(Post Processor: grbl_post)
(Output Time:2024-02-24 21:10:16.376011)
(Begin preamble)
G17 G90
G21
(Begin operation: Fixture)
(Path: Fixture)
G54
(Finish operation: Fixture)
(Begin operation: 1/8th in Endmill009)
(Path: 1/8th in Endmill009)
(1/8th in Endmill009)
(Begin toolchange)
( M6 T2 )
(Finish operation: 1/8th in Endmill009)
(Begin operation: Drilling003)
(Path: Drilling003)
(Drilling003)
(Begin Drilling)
G0 Z5.000
G90
( G98 )
G0 X-18.938 Y-41.587
(G83 X-18.938 Y-41.587 Z-4.000 F1400.000 Q1.000 R3.000)
G0 X-18.938 Y-41.587
G0 Z3.000 F1400.00
G1 Z2.000 F1400.00
G0 Z3.000
G0 Z2.050
G1 Z1.000 F1400.00
G0 Z3.000
G0 Z1.050
G1 Z0.000 F1400.00
G0 Z3.000
G0 Z0.050
G1 Z-1.000 F1400.00
G0 Z3.000
G0 Z-0.950
G1 Z-2.000 F1400.00
G0 Z3.000
G0 Z-1.950
G1 Z-3.000 F1400.00
G0 Z3.000
G0 Z-2.950
G1 Z-4.000 F1400.00
G0 Z5.000
G0 X-41.587 Y-106.237
(G83 X-41.587 Y-106.237 Z-4.000 F1400.000 Q1.000 R3.000)
G0 X-41.587 Y-106.237
G0 Z3.000 F1400.00
G1 Z2.000 F1400.00
G0 Z3.000
G0 Z2.050
G1 Z1.000 F1400.00
G0 Z3.000
G0 Z1.050
G1 Z0.000 F1400.00
G0 Z3.000
G0 Z0.050
G1 Z-1.000 F1400.00
G0 Z3.000
G0 Z-0.950
G1 Z-2.000 F1400.00
G0 Z3.000
G0 Z-1.950
G1 Z-3.000 F1400.00
G0 Z3.000
G0 Z-2.950
G1 Z-4.000 F1400.00
G0 Z5.000
G0 X-174.287 Y-106.237
(G83 X-174.287 Y-106.237 Z-4.000 F1400.000 Q1.000 R3.000)
G0 X-174.287 Y-106.237
G0 Z3.000 F1400.00
G1 Z2.000 F1400.00
G0 Z3.000
G0 Z2.050
G1 Z1.000 F1400.00
G0 Z3.000
G0 Z1.050
G1 Z0.000 F1400.00
G0 Z3.000
G0 Z0.050
G1 Z-1.000 F1400.00
G0 Z3.000
G0 Z-0.950
G1 Z-2.000 F1400.00
G0 Z3.000
G0 Z-1.950
G1 Z-3.000 F1400.00
G0 Z3.000
G0 Z-2.950
G1 Z-4.000 F1400.00
G0 Z5.000
G0 X-196.938 Y-41.587
(G83 X-196.938 Y-41.587 Z-4.000 F1400.000 Q1.000 R3.000)
G0 X-196.938 Y-41.587
G0 Z3.000 F1400.00
G1 Z2.000 F1400.00
G0 Z3.000
G0 Z2.050
G1 Z1.000 F1400.00
G0 Z3.000
G0 Z1.050
G1 Z0.000 F1400.00
G0 Z3.000
G0 Z0.050
G1 Z-1.000 F1400.00
G0 Z3.000
G0 Z-0.950
G1 Z-2.000 F1400.00
G0 Z3.000
G0 Z-1.950
G1 Z-3.000 F1400.00
G0 Z3.000
G0 Z-2.950
G1 Z-4.000 F1400.00
G0 Z5.000
( G80 )
G0 Z3.000
G0 Z5.000
(Finish operation: Drilling003)
(Begin operation: Pocket_Shape002)
(Path: Pocket_Shape002)
(Pocket_Shape002)
G0 Z5.000
G0 X-18.474 Y-41.124
G0 Z3.000
G1 X-18.474 Y-41.124 Z-2.000 F1400.000
G2 X-18.645 Y-42.174 Z-2.000 I-0.464 J-0.464 K0.000 F1800.000
G2 X-19.524 Y-41.880 Z-2.000 I-0.292 J0.587 K0.000 F1800.000
G2 X-19.230 Y-41.001 Z-2.000 I0.587 J0.292 K0.000 F1800.000
G2 X-18.474 Y-41.124 Z-2.000 I0.292 J-0.587 K0.000 F1800.000
G1 X-18.474 Y-41.124 Z-4.000 F1400.000
G2 X-18.645 Y-42.174 Z-4.000 I-0.464 J-0.464 K0.000 F1800.000
G2 X-19.524 Y-41.880 Z-4.000 I-0.292 J0.587 K0.000 F1800.000
G2 X-19.230 Y-41.001 Z-4.000 I0.587 J0.292 K0.000 F1800.000
G2 X-18.474 Y-41.124 Z-4.000 I0.292 J-0.587 K0.000 F1800.000
G0 Z5.000
G0 Z5.000
G0 X-18.474 Y-41.124
G0 X-41.368 Y-105.620
G0 X-41.368 Y-105.620 Z3.000
G1 X-41.368 Y-105.620 Z-2.000 F1400.000
G2 X-41.295 Y-106.824 Z-2.000 I-0.219 J-0.618 K0.000 F1800.000
G2 X-42.174 Y-106.530 Z-2.000 I-0.292 J0.587 K0.000 F1800.000
G2 X-41.880 Y-105.651 Z-2.000 I0.587 J0.292 K0.000 F1800.000
G2 X-41.368 Y-105.620 Z-2.000 I0.292 J-0.587 K0.000 F1800.000
G1 X-41.368 Y-105.620 Z-4.000 F1400.000
G2 X-41.295 Y-106.824 Z-4.000 I-0.219 J-0.618 K0.000 F1800.000
G2 X-42.174 Y-106.530 Z-4.000 I-0.292 J0.587 K0.000 F1800.000
G2 X-41.880 Y-105.651 Z-4.000 I0.587 J0.292 K0.000 F1800.000
G2 X-41.368 Y-105.620 Z-4.000 I0.292 J-0.587 K0.000 F1800.000
G0 Z5.000
G0 Z5.000
G0 X-41.368 Y-105.620
G0 X-173.632 Y-106.234
G0 X-173.632 Y-106.234 Z3.000
G1 X-173.632 Y-106.234 Z-2.000 F1400.000
G2 X-173.995 Y-106.824 Z-2.000 I-0.656 J-0.003 K0.000 F1800.000
G2 X-174.874 Y-106.530 Z-2.000 I-0.292 J0.587 K0.000 F1800.000
G2 X-174.580 Y-105.651 Z-2.000 I0.587 J0.292 K0.000 F1800.000
G2 X-173.632 Y-106.234 Z-2.000 I0.292 J-0.587 K0.000 F1800.000
G1 X-173.632 Y-106.234 Z-4.000 F1400.000
G2 X-173.995 Y-106.824 Z-4.000 I-0.656 J-0.003 K0.000 F1800.000
G2 X-174.874 Y-106.530 Z-4.000 I-0.292 J0.587 K0.000 F1800.000
G2 X-174.580 Y-105.651 Z-4.000 I0.587 J0.292 K0.000 F1800.000
G2 X-173.632 Y-106.234 Z-4.000 I0.292 J-0.587 K0.000 F1800.000
G0 Z5.000
G0 Z5.000
G0 X-173.632 Y-106.234
G0 X-196.715 Y-42.204
G0 X-196.715 Y-42.204 Z3.000
G1 X-196.715 Y-42.204 Z-2.000 F1400.000
G2 X-197.230 Y-41.001 Z-2.000 I-0.222 J0.617 K0.000 F1800.000
G2 X-196.351 Y-41.295 Z-2.000 I0.292 J-0.587 K0.000 F1800.000
G2 X-196.645 Y-42.174 Z-2.000 I-0.587 J-0.292 K0.000 F1800.000
G2 X-196.715 Y-42.204 Z-2.000 I-0.292 J0.587 K0.000 F1800.000
G1 X-196.715 Y-42.204 Z-4.000 F1400.000
G2 X-197.230 Y-41.001 Z-4.000 I-0.222 J0.617 K0.000 F1800.000
G2 X-196.351 Y-41.295 Z-4.000 I0.292 J-0.587 K0.000 F1800.000
G2 X-196.645 Y-42.174 Z-4.000 I-0.587 J-0.292 K0.000 F1800.000
G2 X-196.715 Y-42.204 Z-4.000 I-0.292 J0.587 K0.000 F1800.000
G0 Z5.000
G0 Z5.000
(Finish operation: Pocket_Shape002)
(Begin operation: Profile006)
(Path: Profile006)
(Profile006)
(Compensated Tool Path. Diameter: 3.175)
G0 Z5.000
G0 X-17.942 Y-40.592
G0 Z3.000
G1 X-17.942 Y-40.592 Z-1.000 F1400.000
G2 X-18.503 Y-42.926 Z-1.000 I-0.995 J-0.995 K0.000 F1800.000
G2 X-19.372 Y-40.249 Z-1.000 I-0.435 J1.339 K0.000 F1800.000
G2 X-17.942 Y-40.592 Z-1.000 I0.435 J-1.339 K0.000 F1800.000
G0 Z5.000
G0 Z5.000
G0 X-17.942 Y-40.592
G0 X-41.110 Y-104.913
G0 X-41.110 Y-104.913 Z3.000
G1 X-41.110 Y-104.913 Z-1.000 F1400.000
G2 X-41.153 Y-107.576 Z-1.000 I-0.477 J-1.324 K0.000 F1800.000
G2 X-42.926 Y-106.672 Z-1.000 I-0.435 J1.339 K0.000 F1800.000
G2 X-42.022 Y-104.899 Z-1.000 I1.339 J0.435 K0.000 F1800.000
G2 X-41.110 Y-104.913 Z-1.000 I0.435 J-1.339 K0.000 F1800.000
G0 Z5.000
G0 Z5.000
G0 X-41.110 Y-104.913
G0 X-172.880 Y-106.224
G0 X-172.880 Y-106.224 Z3.000
G1 X-172.880 Y-106.224 Z-1.000 F1400.000
G2 X-173.853 Y-107.576 Z-1.000 I-1.408 J-0.014 K0.000 F1800.000
G2 X-175.626 Y-106.672 Z-1.000 I-0.435 J1.339 K0.000 F1800.000
G2 X-174.722 Y-104.899 Z-1.000 I1.339 J0.435 K0.000 F1800.000
G2 X-172.880 Y-106.224 Z-1.000 I0.435 J-1.339 K0.000 F1800.000
G0 Z5.000
G0 Z5.000
G0 X-172.880 Y-106.224
G0 X-196.447 Y-42.907
G0 X-196.447 Y-42.907 Z3.000
G1 X-196.447 Y-42.907 Z-1.000 F1400.000
G2 X-196.503 Y-42.926 Z-1.000 I-0.491 J1.319 K0.000 F1800.000
G2 X-197.372 Y-40.249 Z-1.000 I-0.435 J1.339 K0.000 F1800.000
G2 X-196.447 Y-42.907 Z-1.000 I0.435 J-1.339 K0.000 F1800.000
G0 Z5.000
G0 Z5.000
(Finish operation: Profile006)
(Begin operation: Profile007)
(Path: Profile007)
(Profile007)
(Compensated Tool Path. Diameter: 3.175)
G0 Z5.000
G0 X-49.537 Y-21.184
G0 X-49.536 Y-21.184
G0 X-49.536 Y-21.184 Z3.000
G1 X-49.536 Y-21.184 Z-3.200 F1400.000
G2 X-49.525 Y-21.271 Z-3.200 I-0.034 J-0.049 K0.000 F1800.000
G1 X-49.525 Y-27.504 Z-3.200 F1800.000
G1 X-49.534 Y-27.588 Z-3.200 F1800.000
G2 X-49.539 Y-27.591 Z-3.200 I-0.004 J0.001 K0.000 F1800.000
G3 X-51.138 Y-26.000 Z-3.200 I-1.641 J-0.050 K0.000 F1800.000
G1 X-89.737 Y-26.000 Z-3.200 F1800.000
G3 X-91.334 Y-27.588 Z-3.200 I0.006 J-1.603 K0.000 F1800.000
G2 X-91.336 Y-27.591 Z-3.200 I-0.004 J0.001 K0.000 F1800.000
G2 X-91.339 Y-27.591 Z-3.200 I-0.002 J0.003 K0.000 F1800.000
G2 X-91.350 Y-27.504 Z-3.200 I0.034 J0.049 K0.000 F1800.000
G1 X-91.350 Y-7.671 Z-3.200 F1800.000
G1 X-91.341 Y-7.587 Z-3.200 F1800.000
G2 X-91.336 Y-7.584 Z-3.200 I0.004 J-0.001 K0.000 F1800.000
G3 X-89.737 Y-9.175 Z-3.200 I1.641 J0.050 K0.000 F1800.000
G1 X-71.138 Y-9.175 Z-3.200 F1800.000
G3 X-69.541 Y-7.587 Z-3.200 I-0.006 J1.603 K0.000 F1800.000
G2 X-69.536 Y-7.584 Z-3.200 I0.004 J-0.001 K0.000 F1800.000
G2 X-69.525 Y-7.671 Z-3.200 I-0.034 J-0.049 K0.000 F1800.000
G1 X-69.525 Y-20.188 Z-3.200 F1800.000
G3 X-66.938 Y-22.775 Z-3.200 I2.600 J0.013 K0.000 F1800.000
G1 X-51.138 Y-22.775 Z-3.200 F1800.000
G3 X-49.541 Y-21.187 Z-3.200 I-0.006 J1.603 K0.000 F1800.000
G2 X-49.536 Y-21.184 Z-3.200 I0.004 J-0.001 K0.000 F1800.000
G1 X-49.536 Y-21.184 Z-6.400 F1400.000
G2 X-49.525 Y-21.271 Z-6.400 I-0.034 J-0.049 K0.000 F1800.000
G1 X-49.525 Y-27.504 Z-6.400 F1800.000
G1 X-49.534 Y-27.588 Z-6.400 F1800.000
G2 X-49.539 Y-27.591 Z-6.400 I-0.004 J0.001 K0.000 F1800.000
G3 X-51.138 Y-26.000 Z-6.400 I-1.641 J-0.050 K0.000 F1800.000
G1 X-89.737 Y-26.000 Z-6.400 F1800.000
G3 X-91.334 Y-27.588 Z-6.400 I0.006 J-1.603 K0.000 F1800.000
G2 X-91.336 Y-27.591 Z-6.400 I-0.004 J0.001 K0.000 F1800.000
G2 X-91.339 Y-27.591 Z-6.400 I-0.002 J0.003 K0.000 F1800.000
G2 X-91.350 Y-27.504 Z-6.400 I0.034 J0.049 K0.000 F1800.000
G1 X-91.350 Y-7.671 Z-6.400 F1800.000
G1 X-91.341 Y-7.587 Z-6.400 F1800.000
G2 X-91.336 Y-7.584 Z-6.400 I0.004 J-0.001 K0.000 F1800.000
G3 X-89.737 Y-9.175 Z-6.400 I1.641 J0.050 K0.000 F1800.000
G1 X-71.138 Y-9.175 Z-6.400 F1800.000
G3 X-69.541 Y-7.587 Z-6.400 I-0.006 J1.603 K0.000 F1800.000
G2 X-69.536 Y-7.584 Z-6.400 I0.004 J-0.001 K0.000 F1800.000
G2 X-69.525 Y-7.671 Z-6.400 I-0.034 J-0.049 K0.000 F1800.000
G1 X-69.525 Y-20.188 Z-6.400 F1800.000
G3 X-66.938 Y-22.775 Z-6.400 I2.600 J0.013 K0.000 F1800.000
G1 X-51.138 Y-22.775 Z-6.400 F1800.000
G3 X-49.541 Y-21.187 Z-6.400 I-0.006 J1.603 K0.000 F1800.000
G2 X-49.536 Y-21.184 Z-6.400 I0.004 J-0.001 K0.000 F1800.000
G0 Z5.000
G0 Z5.000
G0 X-49.536 Y-21.184
G0 X-24.325 Y-56.165
G0 X-24.325 Y-56.165 Z3.000
G1 X-24.325 Y-56.165 Z-3.200 F1400.000
G2 X-24.260 Y-56.175 Z-3.200 I0.028 J-0.039 K0.000 F1800.000
G1 X-18.015 Y-56.175 Z-3.200 F1800.000
G1 X-17.937 Y-56.183 Z-3.200 F1800.000
G2 X-17.933 Y-56.190 Z-3.200 I-0.001 J-0.005 K0.000 F1800.000
G3 X-19.525 Y-57.788 Z-3.200 I0.045 J-1.637 K0.000 F1800.000
G1 X-19.525 Y-81.388 Z-3.200 F1800.000
G3 X-17.937 Y-82.984 Z-3.200 I1.603 J0.006 K0.000 F1800.000
G2 X-17.934 Y-82.989 Z-3.200 I-0.001 J-0.004 K0.000 F1800.000
G2 X-18.021 Y-83.000 Z-3.200 I-0.049 J0.034 K0.000 F1800.000
G1 X-24.254 Y-83.000 Z-3.200 F1800.000
G1 X-24.338 Y-82.991 Z-3.200 F1800.000
G2 X-24.341 Y-82.986 Z-3.200 I0.001 J0.004 K0.000 F1800.000
G3 X-22.750 Y-81.388 Z-3.200 I-0.050 J1.641 K0.000 F1800.000
G1 X-22.750 Y-57.788 Z-3.200 F1800.000
G3 X-24.338 Y-56.192 Z-3.200 I-1.601 J-0.006 K0.000 F1800.000
G2 X-24.342 Y-56.188 Z-3.200 I0.001 J0.005 K0.000 F1800.000
G2 X-24.325 Y-56.165 Z-3.200 I0.045 J-0.017 K0.000 F1800.000
G1 X-24.325 Y-56.165 Z-6.400 F1400.000
G2 X-24.260 Y-56.175 Z-6.400 I0.028 J-0.039 K0.000 F1800.000
G1 X-18.015 Y-56.175 Z-6.400 F1800.000
G1 X-17.937 Y-56.183 Z-6.400 F1800.000
G2 X-17.933 Y-56.190 Z-6.400 I-0.001 J-0.005 K0.000 F1800.000
G3 X-19.525 Y-57.788 Z-6.400 I0.045 J-1.637 K0.000 F1800.000
G1 X-19.525 Y-81.388 Z-6.400 F1800.000
G3 X-17.937 Y-82.984 Z-6.400 I1.603 J0.006 K0.000 F1800.000
G2 X-17.934 Y-82.989 Z-6.400 I-0.001 J-0.004 K0.000 F1800.000
G2 X-18.021 Y-83.000 Z-6.400 I-0.049 J0.034 K0.000 F1800.000
G1 X-24.254 Y-83.000 Z-6.400 F1800.000
G1 X-24.338 Y-82.991 Z-6.400 F1800.000
G2 X-24.341 Y-82.986 Z-6.400 I0.001 J0.004 K0.000 F1800.000
G3 X-22.750 Y-81.388 Z-6.400 I-0.050 J1.641 K0.000 F1800.000
G1 X-22.750 Y-57.788 Z-6.400 F1800.000
G3 X-24.338 Y-56.192 Z-6.400 I-1.601 J-0.006 K0.000 F1800.000
G2 X-24.342 Y-56.188 Z-6.400 I0.001 J0.005 K0.000 F1800.000
G2 X-24.325 Y-56.165 Z-6.400 I0.045 J-0.017 K0.000 F1800.000
G0 Z5.000
G0 Z5.000
G0 X-24.325 Y-56.165
G0 X-124.515 Y-27.562
G0 X-124.515 Y-27.562 Z3.000
G1 X-124.515 Y-27.562 Z-3.200 F1400.000
G2 X-124.536 Y-27.592 Z-3.200 I-0.057 J0.016 K0.000 F1800.000
G2 X-124.540 Y-27.592 Z-3.200 I-0.002 J0.004 K0.000 F1800.000
G3 X-126.138 Y-26.000 Z-3.200 I-1.637 J-0.045 K0.000 F1800.000
G1 X-164.738 Y-26.000 Z-3.200 F1800.000
G3 X-166.334 Y-27.588 Z-3.200 I0.006 J-1.603 K0.000 F1800.000
G2 X-166.339 Y-27.591 Z-3.200 I-0.004 J0.001 K0.000 F1800.000
G2 X-166.350 Y-27.504 Z-3.200 I0.034 J0.049 K0.000 F1800.000
G1 X-166.350 Y-21.271 Z-3.200 F1800.000
G1 X-166.341 Y-21.187 Z-3.200 F1800.000
G2 X-166.336 Y-21.184 Z-3.200 I0.004 J-0.001 K0.000 F1800.000
G3 X-164.738 Y-22.775 Z-3.200 I1.641 J0.050 K0.000 F1800.000
G1 X-148.938 Y-22.775 Z-3.200 F1800.000
G3 X-146.350 Y-20.188 Z-3.200 I-0.013 J2.600 K0.000 F1800.000
G1 X-146.350 Y-7.665 Z-3.200 F1800.000
G1 X-146.342 Y-7.587 Z-3.200 F1800.000
G2 X-146.335 Y-7.583 Z-3.200 I0.005 J-0.001 K0.000 F1800.000
G3 X-144.738 Y-9.175 Z-3.200 I1.637 J0.045 K0.000 F1800.000
G1 X-126.138 Y-9.175 Z-3.200 F1800.000
G3 X-124.542 Y-7.587 Z-3.200 I-0.006 J1.601 K0.000 F1800.000
G2 X-124.537 Y-7.583 Z-3.200 I0.005 J-0.001 K0.000 F1800.000
G2 X-124.525 Y-7.665 Z-3.200 I-0.017 J-0.045 K0.000 F1800.000
G1 X-124.525 Y-27.510 Z-3.200 F1800.000
G2 X-124.515 Y-27.562 Z-3.200 I-0.047 J-0.036 K0.000 F1800.000
G1 X-124.515 Y-27.562 Z-6.400 F1400.000
G2 X-124.536 Y-27.592 Z-6.400 I-0.057 J0.016 K0.000 F1800.000
G2 X-124.540 Y-27.592 Z-6.400 I-0.002 J0.004 K0.000 F1800.000
G3 X-126.138 Y-26.000 Z-6.400 I-1.637 J-0.045 K0.000 F1800.000
G1 X-164.738 Y-26.000 Z-6.400 F1800.000
G3 X-166.334 Y-27.588 Z-6.400 I0.006 J-1.603 K0.000 F1800.000
G2 X-166.339 Y-27.591 Z-6.400 I-0.004 J0.001 K0.000 F1800.000
G2 X-166.350 Y-27.504 Z-6.400 I0.034 J0.049 K0.000 F1800.000
G1 X-166.350 Y-21.271 Z-6.400 F1800.000
G1 X-166.341 Y-21.187 Z-6.400 F1800.000
G2 X-166.336 Y-21.184 Z-6.400 I0.004 J-0.001 K0.000 F1800.000
G3 X-164.738 Y-22.775 Z-6.400 I1.641 J0.050 K0.000 F1800.000
G1 X-148.938 Y-22.775 Z-6.400 F1800.000
G3 X-146.350 Y-20.188 Z-6.400 I-0.013 J2.600 K0.000 F1800.000
G1 X-146.350 Y-7.665 Z-6.400 F1800.000
G1 X-146.342 Y-7.587 Z-6.400 F1800.000
G2 X-146.335 Y-7.583 Z-6.400 I0.005 J-0.001 K0.000 F1800.000
G3 X-144.738 Y-9.175 Z-6.400 I1.637 J0.045 K0.000 F1800.000
G1 X-126.138 Y-9.175 Z-6.400 F1800.000
G3 X-124.542 Y-7.587 Z-6.400 I-0.006 J1.601 K0.000 F1800.000
G2 X-124.537 Y-7.583 Z-6.400 I0.005 J-0.001 K0.000 F1800.000
G2 X-124.525 Y-7.665 Z-6.400 I-0.017 J-0.045 K0.000 F1800.000
G1 X-124.525 Y-27.510 Z-6.400 F1800.000
G2 X-124.515 Y-27.562 Z-6.400 I-0.047 J-0.036 K0.000 F1800.000
G0 Z5.000
G0 Z5.000
G0 X-124.515 Y-27.562
G0 X-191.534 Y-56.189
G0 X-191.534 Y-56.189 Z3.000
G1 X-191.534 Y-56.189 Z-3.200 F1400.000
G3 X-193.125 Y-57.788 Z-3.200 I0.050 J-1.641 K0.000 F1800.000
G1 X-193.125 Y-81.388 Z-3.200 F1800.000
G3 X-191.537 Y-82.984 Z-3.200 I1.603 J0.006 K0.000 F1800.000
G2 X-191.534 Y-82.989 Z-3.200 I-0.001 J-0.004 K0.000 F1800.000
G2 X-191.621 Y-83.000 Z-3.200 I-0.049 J0.034 K0.000 F1800.000
G1 X-197.854 Y-83.000 Z-3.200 F1800.000
G1 X-197.938 Y-82.991 Z-3.200 F1800.000
G2 X-197.941 Y-82.986 Z-3.200 I0.001 J0.004 K0.000 F1800.000
G3 X-196.350 Y-81.388 Z-3.200 I-0.050 J1.641 K0.000 F1800.000
G1 X-196.350 Y-57.788 Z-3.200 F1800.000
G3 X-197.938 Y-56.192 Z-3.200 I-1.601 J-0.006 K0.000 F1800.000
G2 X-197.942 Y-56.188 Z-3.200 I0.001 J0.005 K0.000 F1800.000
G2 X-197.860 Y-56.175 Z-3.200 I0.045 J-0.017 K0.000 F1800.000
G1 X-191.621 Y-56.175 Z-3.200 F1800.000
G1 X-191.537 Y-56.184 Z-3.200 F1800.000
G2 X-191.534 Y-56.189 Z-3.200 I-0.001 J-0.004 K0.000 F1800.000
G1 X-191.534 Y-56.189 Z-6.400 F1400.000
G3 X-193.125 Y-57.788 Z-6.400 I0.050 J-1.641 K0.000 F1800.000
G1 X-193.125 Y-81.388 Z-6.400 F1800.000
G3 X-191.537 Y-82.984 Z-6.400 I1.603 J0.006 K0.000 F1800.000
G2 X-191.534 Y-82.989 Z-6.400 I-0.001 J-0.004 K0.000 F1800.000
G2 X-191.621 Y-83.000 Z-6.400 I-0.049 J0.034 K0.000 F1800.000
G1 X-197.854 Y-83.000 Z-6.400 F1800.000
G1 X-197.938 Y-82.991 Z-6.400 F1800.000
G2 X-197.941 Y-82.986 Z-6.400 I0.001 J0.004 K0.000 F1800.000
G3 X-196.350 Y-81.388 Z-6.400 I-0.050 J1.641 K0.000 F1800.000
G1 X-196.350 Y-57.788 Z-6.400 F1800.000
G3 X-197.938 Y-56.192 Z-6.400 I-1.601 J-0.006 K0.000 F1800.000
G2 X-197.942 Y-56.188 Z-6.400 I0.001 J0.005 K0.000 F1800.000
G2 X-197.860 Y-56.175 Z-6.400 I0.045 J-0.017 K0.000 F1800.000
G1 X-191.621 Y-56.175 Z-6.400 F1800.000
G1 X-191.537 Y-56.184 Z-6.400 F1800.000
G2 X-191.534 Y-56.189 Z-6.400 I-0.001 J-0.004 K0.000 F1800.000
G0 Z5.000
G0 Z5.000
(Finish operation: Profile007)
(Begin operation: Profile008)
(Path: Profile008)
(Profile008)
(Compensated Tool Path. Diameter: 3.175)
G0 Z5.000
G0 X-0.762 Y-0.762
G0 Z3.000
G1 X-0.762 Y-0.762 Z-3.200 F1400.000
G2 X0.000 Y-2.587 Z-3.200 I-1.839 J-1.839 K0.000 F1800.000
G1 X0.000 Y-116.237 Z-3.200 F1800.000
G2 X-2.587 Y-118.825 Z-3.200 I-2.600 J0.013 K0.000 F1800.000
G1 X-213.287 Y-118.825 Z-3.200 F1800.000
G2 X-215.875 Y-116.237 Z-3.200 I0.013 J2.600 K0.000 F1800.000
G1 X-215.875 Y-2.587 Z-3.200 F1800.000
G2 X-213.287 Y0.000 Z-3.200 I2.600 J-0.013 K0.000 F1800.000
G1 X-198.938 Y0.000 Z-3.200 F1800.000
G2 X-196.350 Y-2.587 Z-3.200 I-0.013 J-2.600 K0.000 F1800.000
G1 X-196.350 Y-8.387 Z-3.200 F1800.000
G2 X-197.938 Y-9.984 Z-3.200 I-1.603 J0.006 K0.000 F1800.000
G3 X-197.941 Y-9.989 Z-3.200 I0.001 J-0.004 K0.000 F1800.000
G3 X-197.854 Y-10.000 Z-3.200 I0.049 J0.034 K0.000 F1800.000
G1 X-191.615 Y-10.000 Z-3.200 F1800.000
G1 X-191.537 Y-9.992 Z-3.200 F1800.000
G3 X-191.533 Y-9.985 Z-3.200 I-0.001 J0.005 K0.000 F1800.000
G2 X-193.125 Y-8.387 Z-3.200 I0.045 J1.637 K0.000 F1800.000
G1 X-193.125 Y-2.587 Z-3.200 F1800.000
G2 X-190.537 Y0.000 Z-3.200 I2.600 J-0.013 K0.000 F1800.000
G1 X-114.537 Y0.000 Z-3.200 F1800.000
G2 X-111.358 Y-3.032 Z-3.200 I-0.007 J-3.191 K0.000 F1800.000
G1 X-111.350 Y-19.909 Z-3.200 F1800.000
G3 X-111.260 Y-20.000 Z-3.200 I0.056 J-0.035 K0.000 F1800.000
G1 X-104.615 Y-20.000 Z-3.200 F1800.000
G3 X-104.525 Y-19.910 Z-3.200 I0.035 J0.055 K0.000 F1800.000
G1 X-104.525 Y-3.188 Z-3.200 F1800.000
G2 X-101.493 Y-0.008 Z-3.200 I3.191 J-0.007 K0.000 F1800.000
G1 X-25.337 Y0.000 Z-3.200 F1800.000
G2 X-22.750 Y-2.587 Z-3.200 I-0.013 J-2.600 K0.000 F1800.000
G1 X-22.750 Y-8.387 Z-3.200 F1800.000
G2 X-24.338 Y-9.984 Z-3.200 I-1.603 J0.006 K0.000 F1800.000
G3 X-24.341 Y-9.989 Z-3.200 I0.001 J-0.004 K0.000 F1800.000
G3 X-24.254 Y-10.000 Z-3.200 I0.049 J0.034 K0.000 F1800.000
G1 X-18.015 Y-10.000 Z-3.200 F1800.000
G1 X-17.937 Y-9.992 Z-3.200 F1800.000
G3 X-17.933 Y-9.985 Z-3.200 I-0.001 J0.005 K0.000 F1800.000
G2 X-19.525 Y-8.387 Z-3.200 I0.045 J1.637 K0.000 F1800.000
G1 X-19.525 Y-2.587 Z-3.200 F1800.000
G2 X-16.938 Y0.000 Z-3.200 I2.600 J-0.013 K0.000 F1800.000
G1 X-2.587 Y0.000 Z-3.200 F1800.000
G2 X-0.762 Y-0.762 Z-3.200 I-0.013 J-2.600 K0.000 F1800.000
G1 X-0.762 Y-0.762 Z-6.400 F1400.000
G2 X0.000 Y-2.587 Z-6.400 I-1.839 J-1.839 K0.000 F1800.000
G1 X0.000 Y-116.237 Z-6.400 F1800.000
G2 X-2.587 Y-118.825 Z-6.400 I-2.600 J0.013 K0.000 F1800.000
G1 X-213.287 Y-118.825 Z-6.400 F1800.000
G2 X-215.875 Y-116.237 Z-6.400 I0.013 J2.600 K0.000 F1800.000
G1 X-215.875 Y-2.587 Z-6.400 F1800.000
G2 X-213.287 Y0.000 Z-6.400 I2.600 J-0.013 K0.000 F1800.000
G1 X-198.938 Y0.000 Z-6.400 F1800.000
G2 X-196.350 Y-2.587 Z-6.400 I-0.013 J-2.600 K0.000 F1800.000
G1 X-196.350 Y-8.387 Z-6.400 F1800.000
G2 X-197.938 Y-9.984 Z-6.400 I-1.603 J0.006 K0.000 F1800.000
G3 X-197.941 Y-9.989 Z-6.400 I0.001 J-0.004 K0.000 F1800.000
G3 X-197.854 Y-10.000 Z-6.400 I0.049 J0.034 K0.000 F1800.000
G1 X-191.615 Y-10.000 Z-6.400 F1800.000
G1 X-191.537 Y-9.992 Z-6.400 F1800.000
G3 X-191.533 Y-9.985 Z-6.400 I-0.001 J0.005 K0.000 F1800.000
G2 X-193.125 Y-8.387 Z-6.400 I0.045 J1.637 K0.000 F1800.000
G1 X-193.125 Y-2.587 Z-6.400 F1800.000
G2 X-190.537 Y0.000 Z-6.400 I2.600 J-0.013 K0.000 F1800.000
G1 X-114.537 Y0.000 Z-6.400 F1800.000
G2 X-111.358 Y-3.032 Z-6.400 I-0.007 J-3.191 K0.000 F1800.000
G1 X-111.350 Y-19.909 Z-6.400 F1800.000
G3 X-111.260 Y-20.000 Z-6.400 I0.056 J-0.035 K0.000 F1800.000
G1 X-104.615 Y-20.000 Z-6.400 F1800.000
G3 X-104.525 Y-19.910 Z-6.400 I0.035 J0.055 K0.000 F1800.000
G1 X-104.525 Y-3.188 Z-6.400 F1800.000
G2 X-101.493 Y-0.008 Z-6.400 I3.191 J-0.007 K0.000 F1800.000
G1 X-25.337 Y0.000 Z-6.400 F1800.000
G2 X-22.750 Y-2.587 Z-6.400 I-0.013 J-2.600 K0.000 F1800.000
G1 X-22.750 Y-8.387 Z-6.400 F1800.000
G2 X-24.338 Y-9.984 Z-6.400 I-1.603 J0.006 K0.000 F1800.000
G3 X-24.341 Y-9.989 Z-6.400 I0.001 J-0.004 K0.000 F1800.000
G3 X-24.254 Y-10.000 Z-6.400 I0.049 J0.034 K0.000 F1800.000
G1 X-18.015 Y-10.000 Z-6.400 F1800.000
G1 X-17.937 Y-9.992 Z-6.400 F1800.000
G3 X-17.933 Y-9.985 Z-6.400 I-0.001 J0.005 K0.000 F1800.000
G2 X-19.525 Y-8.387 Z-6.400 I0.045 J1.637 K0.000 F1800.000
G1 X-19.525 Y-2.587 Z-6.400 F1800.000
G2 X-16.938 Y0.000 Z-6.400 I2.600 J-0.013 K0.000 F1800.000
G1 X-2.587 Y0.000 Z-6.400 F1800.000
G2 X-0.762 Y-0.762 Z-6.400 I-0.013 J-2.600 K0.000 F1800.000
G0 Z5.000
G0 Z5.000
(Finish operation: Profile008)
(Begin postamble)
M5
G17 G90
M2
