(Exported by FreeCAD)
(Post Processor: grbl_post)
(Output Time:2024-03-12 22:17:46.985290)
(Begin preamble)
G17 G90
G21
(Begin operation: Fixture)
(Path: Fixture)
G54
(Finish operation: Fixture)
(Begin operation: 1/8th in Endmill019)
(Path: 1/8th in Endmill019)
(1/8th in Endmill019)
(Begin toolchange)
( M6 T2 )
(Finish operation: 1/8th in Endmill019)
(Begin operation: Drilling006)
(Path: Drilling006)
(Drilling006)
(Begin Drilling)
G0 Z5.000
G90
( G98 )
G0 X-20.488 Y-63.088
(G83 X-20.488 Y-63.088 Z-4.000 F1400.000 Q2.381 R3.000)
G0 X-20.488 Y-63.088
G0 Z3.000 F1400.00
G1 Z0.619 F1400.00
G0 Z3.000
G0 Z0.738
G1 Z-1.762 F1400.00
G0 Z3.000
G0 Z-1.643
G1 Z-4.000 F1400.00
G0 Z5.000
G0 X-200.488 Y-63.088
(G83 X-200.488 Y-63.088 Z-4.000 F1400.000 Q2.381 R3.000)
G0 X-200.488 Y-63.088
G0 Z3.000 F1400.00
G1 Z0.619 F1400.00
G0 Z3.000
G0 Z0.738
G1 Z-1.762 F1400.00
G0 Z3.000
G0 Z-1.643
G1 Z-4.000 F1400.00
G0 Z5.000
( G80 )
G0 Z3.000
G0 Z5.000
(Finish operation: Drilling006)
(Begin operation: Pocket_Shape008)
(Path: Pocket_Shape008)
(Pocket_Shape008)
G0 Z5.000
G0 X-20.024 Y-62.624
G0 Z3.000
G1 X-20.024 Y-62.624 Z-2.000 F1400.000
G2 X-20.195 Y-63.674 Z-2.000 I-0.464 J-0.464 K0.000 F1800.000
G2 X-21.074 Y-63.380 Z-2.000 I-0.292 J0.587 K0.000 F1800.000
G2 X-20.780 Y-62.501 Z-2.000 I0.587 J0.292 K0.000 F1800.000
G2 X-20.024 Y-62.624 Z-2.000 I0.292 J-0.587 K0.000 F1800.000
G1 X-20.024 Y-62.624 Z-4.000 F1400.000
G2 X-20.195 Y-63.674 Z-4.000 I-0.464 J-0.464 K0.000 F1800.000
G2 X-21.074 Y-63.380 Z-4.000 I-0.292 J0.587 K0.000 F1800.000
G2 X-20.780 Y-62.501 Z-4.000 I0.587 J0.292 K0.000 F1800.000
G2 X-20.024 Y-62.624 Z-4.000 I0.292 J-0.587 K0.000 F1800.000
G0 Z5.000
G0 Z5.000
G0 X-20.024 Y-62.624
G0 X-199.832 Y-63.086
G0 X-199.832 Y-63.086 Z3.000
G1 X-199.832 Y-63.086 Z-2.000 F1400.000
G2 X-200.195 Y-63.674 Z-2.000 I-0.656 J-0.002 K0.000 F1800.000
G2 X-201.074 Y-63.380 Z-2.000 I-0.292 J0.587 K0.000 F1800.000
G2 X-200.780 Y-62.501 Z-2.000 I0.587 J0.292 K0.000 F1800.000
G2 X-199.832 Y-63.086 Z-2.000 I0.292 J-0.587 K0.000 F1800.000
G1 X-199.832 Y-63.086 Z-4.000 F1400.000
G2 X-200.195 Y-63.674 Z-4.000 I-0.656 J-0.002 K0.000 F1800.000
G2 X-201.074 Y-63.380 Z-4.000 I-0.292 J0.587 K0.000 F1800.000
G2 X-200.780 Y-62.501 Z-4.000 I0.587 J0.292 K0.000 F1800.000
G2 X-199.832 Y-63.086 Z-4.000 I0.292 J-0.587 K0.000 F1800.000
G0 Z5.000
G0 Z5.000
(Finish operation: Pocket_Shape008)
(Begin operation: Profile043)
(Path: Profile043)
(Profile043)
(Compensated Tool Path. Diameter: 3.175)
G0 Z5.000
G0 X-19.528 Y-62.128
G0 Z3.000
G1 X-19.528 Y-62.128 Z-1.000 F1400.000
G2 X-20.068 Y-64.379 Z-1.000 I-0.960 J-0.960 K0.000 F1800.000
G2 X-21.779 Y-63.507 Z-1.000 I-0.420 J1.291 K0.000 F1800.000
G2 X-20.907 Y-61.796 Z-1.000 I1.291 J0.420 K0.000 F1800.000
G2 X-19.528 Y-62.128 Z-1.000 I0.420 J-1.291 K0.000 F1800.000
G0 Z5.000
G0 Z5.000
G0 X-19.528 Y-62.128
G0 X-199.130 Y-63.080
G0 X-199.130 Y-63.080 Z3.000
G1 X-199.130 Y-63.080 Z-1.000 F1400.000
G2 X-200.068 Y-64.379 Z-1.000 I-1.358 J-0.007 K0.000 F1800.000
G2 X-201.779 Y-63.507 Z-1.000 I-0.420 J1.291 K0.000 F1800.000
G2 X-200.907 Y-61.796 Z-1.000 I1.291 J0.420 K0.000 F1800.000
G2 X-199.130 Y-63.080 Z-1.000 I0.420 J-1.291 K0.000 F1800.000
G0 Z5.000
G0 Z5.000
(Finish operation: Profile043)
(Begin operation: Profile044)
(Path: Profile044)
(Profile044)
(Compensated Tool Path. Diameter: 3.175)
G0 Z5.000
G0 X-39.069 Y-21.327
G0 Z3.000
G1 X-39.069 Y-21.327 Z-3.200 F1400.000
G2 X-39.075 Y-21.398 Z-3.200 I-0.035 J-0.033 K0.000 F1800.000
G1 X-39.075 Y-27.237 Z-3.200 F1800.000
G2 X-39.086 Y-27.323 Z-3.200 I-0.065 J-0.036 K0.000 F1800.000
G2 X-39.089 Y-27.323 Z-3.200 I-0.002 J0.003 K0.000 F1800.000
G3 X-40.688 Y-25.732 Z-3.200 I-1.641 J-0.050 K0.000 F1800.000
G1 X-60.287 Y-25.732 Z-3.200 F1800.000
G3 X-61.884 Y-27.320 Z-3.200 I0.006 J-1.603 K0.000 F1800.000
G2 X-61.889 Y-27.323 Z-3.200 I-0.004 J0.001 K0.000 F1800.000
G2 X-61.900 Y-27.237 Z-3.200 I0.034 J0.049 K0.000 F1800.000
G1 X-61.900 Y-21.398 Z-3.200 F1800.000
G1 X-61.892 Y-21.319 Z-3.200 F1800.000
G2 X-61.885 Y-21.316 Z-3.200 I0.005 J-0.001 K0.000 F1800.000
G3 X-60.287 Y-22.907 Z-3.200 I1.637 J0.045 K0.000 F1800.000
G1 X-40.688 Y-22.907 Z-3.200 F1800.000
G3 X-39.092 Y-21.319 Z-3.200 I-0.006 J1.601 K0.000 F1800.000
G2 X-39.088 Y-21.315 Z-3.200 I0.005 J-0.001 K0.000 F1800.000
G2 X-39.069 Y-21.327 Z-3.200 I-0.017 J-0.045 K0.000 F1800.000
G1 X-39.069 Y-21.327 Z-6.400 F1400.000
G2 X-39.075 Y-21.398 Z-6.400 I-0.035 J-0.033 K0.000 F1800.000
G1 X-39.075 Y-27.237 Z-6.400 F1800.000
G2 X-39.086 Y-27.323 Z-6.400 I-0.065 J-0.036 K0.000 F1800.000
G2 X-39.089 Y-27.323 Z-6.400 I-0.002 J0.003 K0.000 F1800.000
G3 X-40.688 Y-25.732 Z-6.400 I-1.641 J-0.050 K0.000 F1800.000
G1 X-60.287 Y-25.732 Z-6.400 F1800.000
G3 X-61.884 Y-27.320 Z-6.400 I0.006 J-1.603 K0.000 F1800.000
G2 X-61.889 Y-27.323 Z-6.400 I-0.004 J0.001 K0.000 F1800.000
G2 X-61.900 Y-27.237 Z-6.400 I0.034 J0.049 K0.000 F1800.000
G1 X-61.900 Y-21.398 Z-6.400 F1800.000
G1 X-61.892 Y-21.319 Z-6.400 F1800.000
G2 X-61.885 Y-21.316 Z-6.400 I0.005 J-0.001 K0.000 F1800.000
G3 X-60.287 Y-22.907 Z-6.400 I1.637 J0.045 K0.000 F1800.000
G1 X-40.688 Y-22.907 Z-6.400 F1800.000
G3 X-39.092 Y-21.319 Z-6.400 I-0.006 J1.601 K0.000 F1800.000
G2 X-39.088 Y-21.315 Z-6.400 I0.005 J-0.001 K0.000 F1800.000
G2 X-39.069 Y-21.327 Z-6.400 I-0.017 J-0.045 K0.000 F1800.000
G0 Z5.000
G0 Z5.000
G0 X-39.069 Y-21.327
G0 X-99.056 Y-21.360
G0 X-99.056 Y-21.360 Z3.000
G1 X-99.056 Y-21.360 Z-3.200 F1400.000
G2 X-99.075 Y-21.398 Z-3.200 I-0.048 J-0.000 K0.000 F1800.000
G1 X-99.075 Y-27.237 Z-3.200 F1800.000
G2 X-99.086 Y-27.323 Z-3.200 I-0.065 J-0.036 K0.000 F1800.000
G2 X-99.089 Y-27.323 Z-3.200 I-0.002 J0.003 K0.000 F1800.000
G3 X-100.688 Y-25.732 Z-3.200 I-1.641 J-0.050 K0.000 F1800.000
G1 X-120.287 Y-25.732 Z-3.200 F1800.000
G3 X-121.884 Y-27.320 Z-3.200 I0.006 J-1.603 K0.000 F1800.000
G2 X-121.889 Y-27.323 Z-3.200 I-0.004 J0.001 K0.000 F1800.000
G2 X-121.900 Y-27.237 Z-3.200 I0.034 J0.049 K0.000 F1800.000
G1 X-121.900 Y-21.398 Z-3.200 F1800.000
G1 X-121.892 Y-21.319 Z-3.200 F1800.000
G2 X-121.885 Y-21.316 Z-3.200 I0.005 J-0.001 K0.000 F1800.000
G3 X-120.287 Y-22.907 Z-3.200 I1.637 J0.045 K0.000 F1800.000
G1 X-100.688 Y-22.907 Z-3.200 F1800.000
G3 X-99.092 Y-21.319 Z-3.200 I-0.006 J1.601 K0.000 F1800.000
G2 X-99.088 Y-21.315 Z-3.200 I0.005 J-0.001 K0.000 F1800.000
G2 X-99.056 Y-21.360 Z-3.200 I-0.017 J-0.045 K0.000 F1800.000
G1 X-99.056 Y-21.360 Z-6.400 F1400.000
G2 X-99.075 Y-21.398 Z-6.400 I-0.048 J-0.000 K0.000 F1800.000
G1 X-99.075 Y-27.237 Z-6.400 F1800.000
G2 X-99.086 Y-27.323 Z-6.400 I-0.065 J-0.036 K0.000 F1800.000
G2 X-99.089 Y-27.323 Z-6.400 I-0.002 J0.003 K0.000 F1800.000
G3 X-100.688 Y-25.732 Z-6.400 I-1.641 J-0.050 K0.000 F1800.000
G1 X-120.287 Y-25.732 Z-6.400 F1800.000
G3 X-121.884 Y-27.320 Z-6.400 I0.006 J-1.603 K0.000 F1800.000
G2 X-121.889 Y-27.323 Z-6.400 I-0.004 J0.001 K0.000 F1800.000
G2 X-121.900 Y-27.237 Z-6.400 I0.034 J0.049 K0.000 F1800.000
G1 X-121.900 Y-21.398 Z-6.400 F1800.000
G1 X-121.892 Y-21.319 Z-6.400 F1800.000
G2 X-121.885 Y-21.316 Z-6.400 I0.005 J-0.001 K0.000 F1800.000
G3 X-120.287 Y-22.907 Z-6.400 I1.637 J0.045 K0.000 F1800.000
G1 X-100.688 Y-22.907 Z-6.400 F1800.000
G3 X-99.092 Y-21.319 Z-6.400 I-0.006 J1.601 K0.000 F1800.000
G2 X-99.088 Y-21.315 Z-6.400 I0.005 J-0.001 K0.000 F1800.000
G2 X-99.056 Y-21.360 Z-6.400 I-0.017 J-0.045 K0.000 F1800.000
G0 Z5.000
G0 Z5.000
G0 X-99.056 Y-21.360
G0 X-159.061 Y-21.365
G0 X-159.061 Y-21.365 Z3.000
G1 X-159.061 Y-21.365 Z-3.200 F1400.000
G2 X-159.075 Y-21.403 Z-3.200 I-0.059 J-0.000 K0.000 F1800.000
G1 X-159.075 Y-27.237 Z-3.200 F1800.000
G2 X-159.086 Y-27.323 Z-3.200 I-0.065 J-0.036 K0.000 F1800.000
G2 X-159.089 Y-27.323 Z-3.200 I-0.002 J0.003 K0.000 F1800.000
G3 X-160.688 Y-25.732 Z-3.200 I-1.641 J-0.050 K0.000 F1800.000
G1 X-180.287 Y-25.732 Z-3.200 F1800.000
G3 X-181.884 Y-27.320 Z-3.200 I0.006 J-1.603 K0.000 F1800.000
G2 X-181.889 Y-27.323 Z-3.200 I-0.004 J0.001 K0.000 F1800.000
G2 X-181.900 Y-27.237 Z-3.200 I0.034 J0.049 K0.000 F1800.000
G1 X-181.900 Y-21.403 Z-3.200 F1800.000
G1 X-181.891 Y-21.319 Z-3.200 F1800.000
G2 X-181.886 Y-21.316 Z-3.200 I0.004 J-0.001 K0.000 F1800.000
G3 X-180.287 Y-22.907 Z-3.200 I1.641 J0.050 K0.000 F1800.000
G1 X-160.688 Y-22.907 Z-3.200 F1800.000
G3 X-159.091 Y-21.319 Z-3.200 I-0.006 J1.603 K0.000 F1800.000
G2 X-159.086 Y-21.316 Z-3.200 I0.004 J-0.001 K0.000 F1800.000
G2 X-159.061 Y-21.365 Z-3.200 I-0.034 J-0.049 K0.000 F1800.000
G1 X-159.061 Y-21.365 Z-6.400 F1400.000
G2 X-159.075 Y-21.403 Z-6.400 I-0.059 J-0.000 K0.000 F1800.000
G1 X-159.075 Y-27.237 Z-6.400 F1800.000
G2 X-159.086 Y-27.323 Z-6.400 I-0.065 J-0.036 K0.000 F1800.000
G2 X-159.089 Y-27.323 Z-6.400 I-0.002 J0.003 K0.000 F1800.000
G3 X-160.688 Y-25.732 Z-6.400 I-1.641 J-0.050 K0.000 F1800.000
G1 X-180.287 Y-25.732 Z-6.400 F1800.000
G3 X-181.884 Y-27.320 Z-6.400 I0.006 J-1.603 K0.000 F1800.000
G2 X-181.889 Y-27.323 Z-6.400 I-0.004 J0.001 K0.000 F1800.000
G2 X-181.900 Y-27.237 Z-6.400 I0.034 J0.049 K0.000 F1800.000
G1 X-181.900 Y-21.403 Z-6.400 F1800.000
G1 X-181.891 Y-21.319 Z-6.400 F1800.000
G2 X-181.886 Y-21.316 Z-6.400 I0.004 J-0.001 K0.000 F1800.000
G3 X-180.287 Y-22.907 Z-6.400 I1.641 J0.050 K0.000 F1800.000
G1 X-160.688 Y-22.907 Z-6.400 F1800.000
G3 X-159.091 Y-21.319 Z-6.400 I-0.006 J1.603 K0.000 F1800.000
G2 X-159.086 Y-21.316 Z-6.400 I0.004 J-0.001 K0.000 F1800.000
G2 X-159.061 Y-21.365 Z-6.400 I-0.034 J-0.049 K0.000 F1800.000
G0 Z5.000
G0 Z5.000
(Finish operation: Profile044)
(Begin operation: Profile045)
(Path: Profile045)
(Profile045)
(Compensated Tool Path. Diameter: 3.175)
G0 Z5.000
G0 X-39.069 Y-21.327
G0 Z3.000
G1 X-39.069 Y-21.327 Z-3.200 F1400.000
G3 X-39.088 Y-21.315 Z-3.200 I-0.035 J-0.033 K0.000 F1800.000
G3 X-39.092 Y-21.319 Z-3.200 I0.000 J-0.005 K0.000 F1800.000
G2 X-40.688 Y-22.907 Z-3.200 I-1.601 J0.013 K0.000 F1800.000
G1 X-60.287 Y-22.907 Z-3.200 F1800.000
G2 X-61.885 Y-21.316 Z-3.200 I0.039 J1.637 K0.000 F1800.000
G3 X-61.892 Y-21.319 Z-3.200 I-0.003 J-0.004 K0.000 F1800.000
G1 X-61.900 Y-21.398 Z-3.200 F1800.000
G1 X-61.900 Y-27.237 Z-3.200 F1800.000
G3 X-61.889 Y-27.323 Z-3.200 I0.045 J-0.038 K0.000 F1800.000
G3 X-61.884 Y-27.320 Z-3.200 I0.001 J0.004 K0.000 F1800.000
G2 X-60.287 Y-25.732 Z-3.200 I1.603 J-0.014 K0.000 F1800.000
G1 X-40.688 Y-25.732 Z-3.200 F1800.000
G2 X-39.089 Y-27.323 Z-3.200 I-0.043 J-1.641 K0.000 F1800.000
G3 X-39.086 Y-27.323 Z-3.200 I0.002 J0.003 K0.000 F1800.000
G3 X-39.075 Y-27.237 Z-3.200 I-0.054 J0.051 K0.000 F1800.000
G1 X-39.075 Y-21.398 Z-3.200 F1800.000
G3 X-39.069 Y-21.327 Z-3.200 I-0.029 J0.038 K0.000 F1800.000
G1 X-39.069 Y-21.327 Z-6.400 F1400.000
G3 X-39.088 Y-21.315 Z-6.400 I-0.035 J-0.033 K0.000 F1800.000
G3 X-39.092 Y-21.319 Z-6.400 I0.000 J-0.005 K0.000 F1800.000
G2 X-40.688 Y-22.907 Z-6.400 I-1.601 J0.013 K0.000 F1800.000
G1 X-60.287 Y-22.907 Z-6.400 F1800.000
G2 X-61.885 Y-21.316 Z-6.400 I0.039 J1.637 K0.000 F1800.000
G3 X-61.892 Y-21.319 Z-6.400 I-0.003 J-0.004 K0.000 F1800.000
G1 X-61.900 Y-21.398 Z-6.400 F1800.000
G1 X-61.900 Y-27.237 Z-6.400 F1800.000
G3 X-61.889 Y-27.323 Z-6.400 I0.045 J-0.038 K0.000 F1800.000
G3 X-61.884 Y-27.320 Z-6.400 I0.001 J0.004 K0.000 F1800.000
G2 X-60.287 Y-25.732 Z-6.400 I1.603 J-0.014 K0.000 F1800.000
G1 X-40.688 Y-25.732 Z-6.400 F1800.000
G2 X-39.089 Y-27.323 Z-6.400 I-0.043 J-1.641 K0.000 F1800.000
G3 X-39.086 Y-27.323 Z-6.400 I0.002 J0.003 K0.000 F1800.000
G3 X-39.075 Y-27.237 Z-6.400 I-0.054 J0.051 K0.000 F1800.000
G1 X-39.075 Y-21.398 Z-6.400 F1800.000
G3 X-39.069 Y-21.327 Z-6.400 I-0.029 J0.038 K0.000 F1800.000
G0 Z5.000
G0 Z5.000
G0 X-39.069 Y-21.327
G0 X-99.056 Y-21.360
G0 X-99.056 Y-21.360 Z3.000
G1 X-99.056 Y-21.360 Z-3.200 F1400.000
G3 X-99.088 Y-21.315 Z-3.200 I-0.048 J-0.000 K0.000 F1800.000
G3 X-99.092 Y-21.319 Z-3.200 I0.000 J-0.005 K0.000 F1800.000
G2 X-100.688 Y-22.907 Z-3.200 I-1.601 J0.013 K0.000 F1800.000
G1 X-120.287 Y-22.907 Z-3.200 F1800.000
G2 X-121.885 Y-21.316 Z-3.200 I0.039 J1.637 K0.000 F1800.000
G3 X-121.892 Y-21.319 Z-3.200 I-0.003 J-0.004 K0.000 F1800.000
G1 X-121.900 Y-21.398 Z-3.200 F1800.000
G1 X-121.900 Y-27.237 Z-3.200 F1800.000
G3 X-121.889 Y-27.323 Z-3.200 I0.045 J-0.038 K0.000 F1800.000
G3 X-121.884 Y-27.320 Z-3.200 I0.001 J0.004 K0.000 F1800.000
G2 X-120.287 Y-25.732 Z-3.200 I1.603 J-0.014 K0.000 F1800.000
G1 X-100.688 Y-25.732 Z-3.200 F1800.000
G2 X-99.089 Y-27.323 Z-3.200 I-0.043 J-1.641 K0.000 F1800.000
G3 X-99.086 Y-27.323 Z-3.200 I0.002 J0.003 K0.000 F1800.000
G3 X-99.075 Y-27.237 Z-3.200 I-0.054 J0.051 K0.000 F1800.000
G1 X-99.075 Y-21.398 Z-3.200 F1800.000
G3 X-99.056 Y-21.360 Z-3.200 I-0.029 J0.038 K0.000 F1800.000
G1 X-99.056 Y-21.360 Z-6.400 F1400.000
G3 X-99.088 Y-21.315 Z-6.400 I-0.048 J-0.000 K0.000 F1800.000
G3 X-99.092 Y-21.319 Z-6.400 I0.000 J-0.005 K0.000 F1800.000
G2 X-100.688 Y-22.907 Z-6.400 I-1.601 J0.013 K0.000 F1800.000
G1 X-120.287 Y-22.907 Z-6.400 F1800.000
G2 X-121.885 Y-21.316 Z-6.400 I0.039 J1.637 K0.000 F1800.000
G3 X-121.892 Y-21.319 Z-6.400 I-0.003 J-0.004 K0.000 F1800.000
G1 X-121.900 Y-21.398 Z-6.400 F1800.000
G1 X-121.900 Y-27.237 Z-6.400 F1800.000
G3 X-121.889 Y-27.323 Z-6.400 I0.045 J-0.038 K0.000 F1800.000
G3 X-121.884 Y-27.320 Z-6.400 I0.001 J0.004 K0.000 F1800.000
G2 X-120.287 Y-25.732 Z-6.400 I1.603 J-0.014 K0.000 F1800.000
G1 X-100.688 Y-25.732 Z-6.400 F1800.000
G2 X-99.089 Y-27.323 Z-6.400 I-0.043 J-1.641 K0.000 F1800.000
G3 X-99.086 Y-27.323 Z-6.400 I0.002 J0.003 K0.000 F1800.000
G3 X-99.075 Y-27.237 Z-6.400 I-0.054 J0.051 K0.000 F1800.000
G1 X-99.075 Y-21.398 Z-6.400 F1800.000
G3 X-99.056 Y-21.360 Z-6.400 I-0.029 J0.038 K0.000 F1800.000
G0 Z5.000
G0 Z5.000
G0 X-99.056 Y-21.360
G0 X-159.061 Y-21.365
G0 X-159.061 Y-21.365 Z3.000
G1 X-159.061 Y-21.365 Z-3.200 F1400.000
G3 X-159.086 Y-21.316 Z-3.200 I-0.059 J-0.000 K0.000 F1800.000
G3 X-159.091 Y-21.319 Z-3.200 I-0.001 J-0.004 K0.000 F1800.000
G2 X-160.688 Y-22.907 Z-3.200 I-1.603 J0.014 K0.000 F1800.000
G1 X-180.287 Y-22.907 Z-3.200 F1800.000
G2 X-181.886 Y-21.316 Z-3.200 I0.043 J1.641 K0.000 F1800.000
G3 X-181.891 Y-21.319 Z-3.200 I-0.002 J-0.003 K0.000 F1800.000
G1 X-181.900 Y-21.403 Z-3.200 F1800.000
G1 X-181.900 Y-27.237 Z-3.200 F1800.000
G3 X-181.889 Y-27.323 Z-3.200 I0.045 J-0.038 K0.000 F1800.000
G3 X-181.884 Y-27.320 Z-3.200 I0.001 J0.004 K0.000 F1800.000
G2 X-180.287 Y-25.732 Z-3.200 I1.603 J-0.014 K0.000 F1800.000
G1 X-160.688 Y-25.732 Z-3.200 F1800.000
G2 X-159.089 Y-27.323 Z-3.200 I-0.043 J-1.641 K0.000 F1800.000
G3 X-159.086 Y-27.323 Z-3.200 I0.002 J0.003 K0.000 F1800.000
G3 X-159.075 Y-27.237 Z-3.200 I-0.054 J0.051 K0.000 F1800.000
G1 X-159.075 Y-21.403 Z-3.200 F1800.000
G3 X-159.061 Y-21.365 Z-3.200 I-0.045 J0.038 K0.000 F1800.000
G1 X-159.061 Y-21.365 Z-6.400 F1400.000
G3 X-159.086 Y-21.316 Z-6.400 I-0.059 J-0.000 K0.000 F1800.000
G3 X-159.091 Y-21.319 Z-6.400 I-0.001 J-0.004 K0.000 F1800.000
G2 X-160.688 Y-22.907 Z-6.400 I-1.603 J0.014 K0.000 F1800.000
G1 X-180.287 Y-22.907 Z-6.400 F1800.000
G2 X-181.886 Y-21.316 Z-6.400 I0.043 J1.641 K0.000 F1800.000
G3 X-181.891 Y-21.319 Z-6.400 I-0.002 J-0.003 K0.000 F1800.000
G1 X-181.900 Y-21.403 Z-6.400 F1800.000
G1 X-181.900 Y-27.237 Z-6.400 F1800.000
G3 X-181.889 Y-27.323 Z-6.400 I0.045 J-0.038 K0.000 F1800.000
G3 X-181.884 Y-27.320 Z-6.400 I0.001 J0.004 K0.000 F1800.000
G2 X-180.287 Y-25.732 Z-6.400 I1.603 J-0.014 K0.000 F1800.000
G1 X-160.688 Y-25.732 Z-6.400 F1800.000
G2 X-159.089 Y-27.323 Z-6.400 I-0.043 J-1.641 K0.000 F1800.000
G3 X-159.086 Y-27.323 Z-6.400 I0.002 J0.003 K0.000 F1800.000
G3 X-159.075 Y-27.237 Z-6.400 I-0.054 J0.051 K0.000 F1800.000
G1 X-159.075 Y-21.403 Z-6.400 F1800.000
G3 X-159.061 Y-21.365 Z-6.400 I-0.045 J0.038 K0.000 F1800.000
G0 Z5.000
G0 Z5.000
(Finish operation: Profile045)
(Begin operation: Profile046)
(Path: Profile046)
(Profile046)
(Compensated Tool Path. Diameter: 3.175)
G0 Z5.000
G0 X-1.054 Y-1.053
G0 Z3.000
G1 X-1.054 Y-1.053 Z-3.200 F1400.000
G2 X-0.008 Y-3.432 Z-3.200 I-2.541 J-2.538 K0.000 F1800.000
G1 X-0.000 Y-16.588 Z-3.200 F1800.000
G2 X-3.432 Y-20.167 Z-3.200 I-3.591 J0.008 K0.000 F1800.000
G1 X-7.588 Y-20.175 Z-3.200 F1800.000
G2 X-11.167 Y-16.743 Z-3.200 I0.008 J3.591 K0.000 F1800.000
G1 X-11.175 Y-14.288 Z-3.200 F1800.000
G2 X-9.100 Y-12.196 Z-3.200 I2.094 J-0.003 K0.000 F1800.000
G3 X-9.083 Y-12.188 Z-3.200 I0.005 J0.012 K0.000 F1800.000
G3 X-9.165 Y-12.175 Z-3.200 I-0.045 J-0.017 K0.000 F1800.000
G1 X-16.404 Y-12.175 Z-3.200 F1800.000
G1 X-16.488 Y-12.184 Z-3.200 F1800.000
G3 X-16.491 Y-12.188 Z-3.200 I0.001 J-0.004 K0.000 F1800.000
G2 X-14.400 Y-14.288 Z-3.200 I-0.035 J-2.127 K0.000 F1800.000
G1 X-14.400 Y-70.737 Z-3.200 F1800.000
G2 X-15.988 Y-72.333 Z-3.200 I-1.601 J0.006 K0.000 F1800.000
G3 X-15.992 Y-72.338 Z-3.200 I0.001 J-0.005 K0.000 F1800.000
G3 X-15.910 Y-72.350 Z-3.200 I0.045 J0.017 K0.000 F1800.000
G1 X-3.588 Y-72.350 Z-3.200 F1800.000
G2 X-0.008 Y-75.782 Z-3.200 I-0.008 J-3.591 K0.000 F1800.000
G1 X-0.000 Y-89.937 Z-3.200 F1800.000
G2 X-3.432 Y-93.517 Z-3.200 I-3.591 J0.008 K0.000 F1800.000
G1 X-7.588 Y-93.525 Z-3.200 F1800.000
G2 X-11.167 Y-90.093 Z-3.200 I0.008 J3.591 K0.000 F1800.000
G1 X-11.175 Y-87.637 Z-3.200 F1800.000
G2 X-9.100 Y-85.546 Z-3.200 I2.094 J-0.003 K0.000 F1800.000
G3 X-9.083 Y-85.537 Z-3.200 I0.005 J0.012 K0.000 F1800.000
G3 X-9.165 Y-85.525 Z-3.200 I-0.045 J-0.017 K0.000 F1800.000
G1 X-16.404 Y-85.525 Z-3.200 F1800.000
G1 X-16.488 Y-85.534 Z-3.200 F1800.000
G3 X-16.491 Y-85.538 Z-3.200 I0.001 J-0.004 K0.000 F1800.000
G2 X-14.400 Y-87.637 Z-3.200 I-0.035 J-2.127 K0.000 F1800.000
G1 X-14.400 Y-123.587 Z-3.200 F1800.000
G2 X-16.988 Y-126.175 Z-3.200 I-2.600 J0.013 K0.000 F1800.000
G1 X-203.987 Y-126.175 Z-3.200 F1800.000
G2 X-206.575 Y-123.587 Z-3.200 I0.013 J2.600 K0.000 F1800.000
G1 X-206.575 Y-87.637 Z-3.200 F1800.000
G2 X-204.500 Y-85.546 Z-3.200 I2.094 J-0.003 K0.000 F1800.000
G3 X-204.483 Y-85.537 Z-3.200 I0.005 J0.012 K0.000 F1800.000
G3 X-204.565 Y-85.525 Z-3.200 I-0.045 J-0.017 K0.000 F1800.000
G1 X-211.804 Y-85.525 Z-3.200 F1800.000
G1 X-211.888 Y-85.534 Z-3.200 F1800.000
G3 X-211.891 Y-85.538 Z-3.200 I0.001 J-0.004 K0.000 F1800.000
G2 X-209.800 Y-87.637 Z-3.200 I-0.035 J-2.127 K0.000 F1800.000
G1 X-209.800 Y-89.937 Z-3.200 F1800.000
G2 X-213.232 Y-93.517 Z-3.200 I-3.591 J0.008 K0.000 F1800.000
G1 X-217.387 Y-93.525 Z-3.200 F1800.000
G2 X-220.967 Y-90.093 Z-3.200 I0.008 J3.591 K0.000 F1800.000
G1 X-220.975 Y-75.937 Z-3.200 F1800.000
G2 X-217.543 Y-72.358 Z-3.200 I3.591 J-0.008 K0.000 F1800.000
G1 X-205.066 Y-72.350 Z-3.200 F1800.000
G1 X-204.987 Y-72.342 Z-3.200 F1800.000
G3 X-204.983 Y-72.335 Z-3.200 I-0.001 J0.005 K0.000 F1800.000
G2 X-206.575 Y-70.737 Z-3.200 I0.045 J1.637 K0.000 F1800.000
G1 X-206.575 Y-14.288 Z-3.200 F1800.000
G2 X-204.500 Y-12.196 Z-3.200 I2.094 J-0.003 K0.000 F1800.000
G3 X-204.483 Y-12.188 Z-3.200 I0.005 J0.012 K0.000 F1800.000
G3 X-204.565 Y-12.175 Z-3.200 I-0.045 J-0.017 K0.000 F1800.000
G1 X-211.804 Y-12.175 Z-3.200 F1800.000
G1 X-211.888 Y-12.184 Z-3.200 F1800.000
G3 X-211.891 Y-12.188 Z-3.200 I0.001 J-0.004 K0.000 F1800.000
G2 X-209.800 Y-14.288 Z-3.200 I-0.035 J-2.127 K0.000 F1800.000
G1 X-209.800 Y-16.588 Z-3.200 F1800.000
G2 X-213.232 Y-20.167 Z-3.200 I-3.591 J0.008 K0.000 F1800.000
G1 X-217.387 Y-20.175 Z-3.200 F1800.000
G2 X-220.967 Y-16.743 Z-3.200 I0.008 J3.591 K0.000 F1800.000
G1 X-220.975 Y-3.588 Z-3.200 F1800.000
G2 X-217.543 Y-0.008 Z-3.200 I3.591 J-0.008 K0.000 F1800.000
G1 X-182.887 Y-0.000 Z-3.200 F1800.000
G2 X-179.708 Y-3.032 Z-3.200 I-0.007 J-3.191 K0.000 F1800.000
G1 X-179.700 Y-12.409 Z-3.200 F1800.000
G3 X-179.610 Y-12.500 Z-3.200 I0.056 J-0.035 K0.000 F1800.000
G1 X-162.965 Y-12.500 Z-3.200 F1800.000
G3 X-162.875 Y-12.410 Z-3.200 I0.035 J0.055 K0.000 F1800.000
G1 X-162.875 Y-3.188 Z-3.200 F1800.000
G2 X-159.843 Y-0.008 Z-3.200 I3.191 J-0.007 K0.000 F1800.000
G1 X-61.288 Y-0.000 Z-3.200 F1800.000
G2 X-58.108 Y-3.032 Z-3.200 I-0.007 J-3.191 K0.000 F1800.000
G1 X-58.100 Y-12.409 Z-3.200 F1800.000
G3 X-58.010 Y-12.500 Z-3.200 I0.056 J-0.035 K0.000 F1800.000
G1 X-41.365 Y-12.500 Z-3.200 F1800.000
G3 X-41.275 Y-12.410 Z-3.200 I0.035 J0.055 K0.000 F1800.000
G1 X-41.275 Y-3.188 Z-3.200 F1800.000
G2 X-38.243 Y-0.008 Z-3.200 I3.191 J-0.007 K0.000 F1800.000
G1 X-3.588 Y-0.000 Z-3.200 F1800.000
G2 X-1.054 Y-1.053 Z-3.200 I-0.008 J-3.591 K0.000 F1800.000
G1 X-1.054 Y-1.053 Z-6.400 F1400.000
G2 X-0.008 Y-3.432 Z-6.400 I-2.541 J-2.538 K0.000 F1800.000
G1 X-0.000 Y-16.588 Z-6.400 F1800.000
G2 X-3.432 Y-20.167 Z-6.400 I-3.591 J0.008 K0.000 F1800.000
G1 X-7.588 Y-20.175 Z-6.400 F1800.000
G2 X-11.167 Y-16.743 Z-6.400 I0.008 J3.591 K0.000 F1800.000
G1 X-11.175 Y-14.288 Z-6.400 F1800.000
G2 X-9.100 Y-12.196 Z-6.400 I2.094 J-0.003 K0.000 F1800.000
G3 X-9.083 Y-12.188 Z-6.400 I0.005 J0.012 K0.000 F1800.000
G3 X-9.165 Y-12.175 Z-6.400 I-0.045 J-0.017 K0.000 F1800.000
G1 X-16.404 Y-12.175 Z-6.400 F1800.000
G1 X-16.488 Y-12.184 Z-6.400 F1800.000
G3 X-16.491 Y-12.188 Z-6.400 I0.001 J-0.004 K0.000 F1800.000
G2 X-14.400 Y-14.288 Z-6.400 I-0.035 J-2.127 K0.000 F1800.000
G1 X-14.400 Y-70.737 Z-6.400 F1800.000
G2 X-15.988 Y-72.333 Z-6.400 I-1.601 J0.006 K0.000 F1800.000
G3 X-15.992 Y-72.338 Z-6.400 I0.001 J-0.005 K0.000 F1800.000
G3 X-15.910 Y-72.350 Z-6.400 I0.045 J0.017 K0.000 F1800.000
G1 X-3.588 Y-72.350 Z-6.400 F1800.000
G2 X-0.008 Y-75.782 Z-6.400 I-0.008 J-3.591 K0.000 F1800.000
G1 X-0.000 Y-89.937 Z-6.400 F1800.000
G2 X-3.432 Y-93.517 Z-6.400 I-3.591 J0.008 K0.000 F1800.000
G1 X-7.588 Y-93.525 Z-6.400 F1800.000
G2 X-11.167 Y-90.093 Z-6.400 I0.008 J3.591 K0.000 F1800.000
G1 X-11.175 Y-87.637 Z-6.400 F1800.000
G2 X-9.100 Y-85.546 Z-6.400 I2.094 J-0.003 K0.000 F1800.000
G3 X-9.083 Y-85.537 Z-6.400 I0.005 J0.012 K0.000 F1800.000
G3 X-9.165 Y-85.525 Z-6.400 I-0.045 J-0.017 K0.000 F1800.000
G1 X-16.404 Y-85.525 Z-6.400 F1800.000
G1 X-16.488 Y-85.534 Z-6.400 F1800.000
G3 X-16.491 Y-85.538 Z-6.400 I0.001 J-0.004 K0.000 F1800.000
G2 X-14.400 Y-87.637 Z-6.400 I-0.035 J-2.127 K0.000 F1800.000
G1 X-14.400 Y-123.587 Z-6.400 F1800.000
G2 X-16.988 Y-126.175 Z-6.400 I-2.600 J0.013 K0.000 F1800.000
G1 X-203.987 Y-126.175 Z-6.400 F1800.000
G2 X-206.575 Y-123.587 Z-6.400 I0.013 J2.600 K0.000 F1800.000
G1 X-206.575 Y-87.637 Z-6.400 F1800.000
G2 X-204.500 Y-85.546 Z-6.400 I2.094 J-0.003 K0.000 F1800.000
G3 X-204.483 Y-85.537 Z-6.400 I0.005 J0.012 K0.000 F1800.000
G3 X-204.565 Y-85.525 Z-6.400 I-0.045 J-0.017 K0.000 F1800.000
G1 X-211.804 Y-85.525 Z-6.400 F1800.000
G1 X-211.888 Y-85.534 Z-6.400 F1800.000
G3 X-211.891 Y-85.538 Z-6.400 I0.001 J-0.004 K0.000 F1800.000
G2 X-209.800 Y-87.637 Z-6.400 I-0.035 J-2.127 K0.000 F1800.000
G1 X-209.800 Y-89.937 Z-6.400 F1800.000
G2 X-213.232 Y-93.517 Z-6.400 I-3.591 J0.008 K0.000 F1800.000
G1 X-217.387 Y-93.525 Z-6.400 F1800.000
G2 X-220.967 Y-90.093 Z-6.400 I0.008 J3.591 K0.000 F1800.000
G1 X-220.975 Y-75.937 Z-6.400 F1800.000
G2 X-217.543 Y-72.358 Z-6.400 I3.591 J-0.008 K0.000 F1800.000
G1 X-205.066 Y-72.350 Z-6.400 F1800.000
G1 X-204.987 Y-72.342 Z-6.400 F1800.000
G3 X-204.983 Y-72.335 Z-6.400 I-0.001 J0.005 K0.000 F1800.000
G2 X-206.575 Y-70.737 Z-6.400 I0.045 J1.637 K0.000 F1800.000
G1 X-206.575 Y-14.288 Z-6.400 F1800.000
G2 X-204.500 Y-12.196 Z-6.400 I2.094 J-0.003 K0.000 F1800.000
G3 X-204.483 Y-12.188 Z-6.400 I0.005 J0.012 K0.000 F1800.000
G3 X-204.565 Y-12.175 Z-6.400 I-0.045 J-0.017 K0.000 F1800.000
G1 X-211.804 Y-12.175 Z-6.400 F1800.000
G1 X-211.888 Y-12.184 Z-6.400 F1800.000
G3 X-211.891 Y-12.188 Z-6.400 I0.001 J-0.004 K0.000 F1800.000
G2 X-209.800 Y-14.288 Z-6.400 I-0.035 J-2.127 K0.000 F1800.000
G1 X-209.800 Y-16.588 Z-6.400 F1800.000
G2 X-213.232 Y-20.167 Z-6.400 I-3.591 J0.008 K0.000 F1800.000
G1 X-217.387 Y-20.175 Z-6.400 F1800.000
G2 X-220.967 Y-16.743 Z-6.400 I0.008 J3.591 K0.000 F1800.000
G1 X-220.975 Y-3.588 Z-6.400 F1800.000
G2 X-217.543 Y-0.008 Z-6.400 I3.591 J-0.008 K0.000 F1800.000
G1 X-182.887 Y-0.000 Z-6.400 F1800.000
G2 X-179.708 Y-3.032 Z-6.400 I-0.007 J-3.191 K0.000 F1800.000
G1 X-179.700 Y-12.409 Z-6.400 F1800.000
G3 X-179.610 Y-12.500 Z-6.400 I0.056 J-0.035 K0.000 F1800.000
G1 X-162.965 Y-12.500 Z-6.400 F1800.000
G3 X-162.875 Y-12.410 Z-6.400 I0.035 J0.055 K0.000 F1800.000
G1 X-162.875 Y-3.188 Z-6.400 F1800.000
G2 X-159.843 Y-0.008 Z-6.400 I3.191 J-0.007 K0.000 F1800.000
G1 X-61.288 Y-0.000 Z-6.400 F1800.000
G2 X-58.108 Y-3.032 Z-6.400 I-0.007 J-3.191 K0.000 F1800.000
G1 X-58.100 Y-12.409 Z-6.400 F1800.000
G3 X-58.010 Y-12.500 Z-6.400 I0.056 J-0.035 K0.000 F1800.000
G1 X-41.365 Y-12.500 Z-6.400 F1800.000
G3 X-41.275 Y-12.410 Z-6.400 I0.035 J0.055 K0.000 F1800.000
G1 X-41.275 Y-3.188 Z-6.400 F1800.000
G2 X-38.243 Y-0.008 Z-6.400 I3.191 J-0.007 K0.000 F1800.000
G1 X-3.588 Y-0.000 Z-6.400 F1800.000
G2 X-1.054 Y-1.053 Z-6.400 I-0.008 J-3.591 K0.000 F1800.000
G0 Z5.000
G0 Z5.000
(Finish operation: Profile046)
(Begin postamble)
M5
G17 G90
M2
