(Exported by FreeCAD)
(Post Processor: grbl_post)
(Output Time:2024-03-01 21:27:03.985870)
(Begin preamble)
G17 G90
G21
(Begin operation: Fixture)
(Path: Fixture)
G54
(Finish operation: Fixture)
(Begin operation: 1/8th in Endmill007)
(Path: 1/8th in Endmill007)
(1/8th in Endmill007)
(Begin toolchange)
( M6 T2 )
(Finish operation: 1/8th in Endmill007)
(Begin operation: Drilling002)
(Path: Drilling002)
(Drilling002)
(Begin Drilling)
G0 Z5.000
G90
( G98 )
G0 X-15.222 Y-60.487
(G83 X-15.222 Y-60.487 Z-6.400 F1400.000 Q2.381 R3.000)
G0 X-15.222 Y-60.487
G0 Z3.000 F1400.00
G1 Z0.619 F1400.00
G0 Z3.000
G0 Z0.738
G1 Z-1.763 F1400.00
G0 Z3.000
G0 Z-1.643
G1 Z-4.144 F1400.00
G0 Z3.000
G0 Z-4.025
G1 Z-6.400 F1400.00
G0 Z5.000
G0 X-189.654 Y-60.487
(G83 X-189.654 Y-60.487 Z-6.400 F1400.000 Q2.381 R3.000)
G0 X-189.654 Y-60.487
G0 Z3.000 F1400.00
G1 Z0.619 F1400.00
G0 Z3.000
G0 Z0.738
G1 Z-1.763 F1400.00
G0 Z3.000
G0 Z-1.643
G1 Z-4.144 F1400.00
G0 Z3.000
G0 Z-4.025
G1 Z-6.400 F1400.00
G0 Z5.000
( G80 )
G0 Z3.000
G0 Z5.000
(Finish operation: Drilling002)
(Begin operation: Profile005)
(Path: Profile005)
(Profile005)
(Compensated Tool Path. Diameter: 3.175)
G0 Z5.000
G0 X-6.453 Y-1.875
G0 Z3.000
G1 X-6.453 Y-1.875 Z-3.200 F1400.000
G2 X-6.350 Y-2.587 Z-3.200 I-2.497 J-0.726 K0.000 F1800.000
G1 X-6.350 Y-8.387 Z-3.200 F1800.000
G2 X-7.938 Y-9.983 Z-3.200 I-1.601 J0.006 K0.000 F1800.000
G3 X-7.942 Y-9.988 Z-3.200 I0.001 J-0.005 K0.000 F1800.000
G3 X-7.860 Y-10.000 Z-3.200 I0.045 J0.017 K0.000 F1800.000
G1 X-2.587 Y-10.000 Z-3.200 F1800.000
G2 X0.000 Y-12.588 Z-3.200 I-0.013 J-2.600 K0.000 F1800.000
G1 X0.000 Y-30.587 Z-3.200 F1800.000
G2 X-2.587 Y-33.175 Z-3.200 I-2.600 J0.013 K0.000 F1800.000
G1 X-7.860 Y-33.175 Z-3.200 F1800.000
G1 X-7.938 Y-33.183 Z-3.200 F1800.000
G3 X-7.942 Y-33.190 Z-3.200 I0.001 J-0.005 K0.000 F1800.000
G2 X-6.350 Y-34.788 Z-3.200 I-0.045 J-1.637 K0.000 F1800.000
G1 X-6.350 Y-70.588 Z-3.200 F1800.000
G2 X-8.938 Y-73.175 Z-3.200 I-2.600 J0.013 K0.000 F1800.000
G1 X-26.738 Y-73.175 Z-3.200 F1800.000
G2 X-28.333 Y-71.587 Z-3.200 I0.006 J1.601 K0.000 F1800.000
G3 X-28.337 Y-71.583 Z-3.200 I-0.005 J-0.001 K0.000 F1800.000
G3 X-28.350 Y-71.665 Z-3.200 I0.017 J-0.045 K0.000 F1800.000
G1 X-28.350 Y-76.938 Z-3.200 F1800.000
G2 X-30.938 Y-79.525 Z-3.200 I-2.600 J0.013 K0.000 F1800.000
G1 X-53.938 Y-79.525 Z-3.200 F1800.000
G2 X-56.525 Y-76.938 Z-3.200 I0.013 J2.600 K0.000 F1800.000
G1 X-56.525 Y-71.665 Z-3.200 F1800.000
G1 X-56.533 Y-71.587 Z-3.200 F1800.000
G3 X-56.540 Y-71.583 Z-3.200 I-0.005 J-0.001 K0.000 F1800.000
G2 X-58.138 Y-73.175 Z-3.200 I-1.637 J0.045 K0.000 F1800.000
G1 X-86.737 Y-73.175 Z-3.200 F1800.000
G2 X-88.334 Y-71.587 Z-3.200 I0.006 J1.603 K0.000 F1800.000
G3 X-88.339 Y-71.584 Z-3.200 I-0.004 J-0.001 K0.000 F1800.000
G3 X-88.350 Y-71.671 Z-3.200 I0.034 J-0.049 K0.000 F1800.000
G1 X-88.350 Y-76.938 Z-3.200 F1800.000
G2 X-90.938 Y-79.525 Z-3.200 I-2.600 J0.013 K0.000 F1800.000
G1 X-113.938 Y-79.525 Z-3.200 F1800.000
G2 X-116.525 Y-76.938 Z-3.200 I0.013 J2.600 K0.000 F1800.000
G1 X-116.525 Y-71.665 Z-3.200 F1800.000
G1 X-116.533 Y-71.587 Z-3.200 F1800.000
G3 X-116.540 Y-71.583 Z-3.200 I-0.005 J-0.001 K0.000 F1800.000
G2 X-118.138 Y-73.175 Z-3.200 I-1.637 J0.045 K0.000 F1800.000
G1 X-146.738 Y-73.175 Z-3.200 F1800.000
G2 X-148.333 Y-71.587 Z-3.200 I0.006 J1.601 K0.000 F1800.000
G3 X-148.338 Y-71.583 Z-3.200 I-0.005 J-0.001 K0.000 F1800.000
G3 X-148.350 Y-71.665 Z-3.200 I0.017 J-0.045 K0.000 F1800.000
G1 X-148.350 Y-76.938 Z-3.200 F1800.000
G2 X-150.938 Y-79.525 Z-3.200 I-2.600 J0.013 K0.000 F1800.000
G1 X-173.938 Y-79.525 Z-3.200 F1800.000
G2 X-176.525 Y-76.938 Z-3.200 I0.013 J2.600 K0.000 F1800.000
G1 X-176.525 Y-71.665 Z-3.200 F1800.000
G1 X-176.533 Y-71.587 Z-3.200 F1800.000
G3 X-176.540 Y-71.583 Z-3.200 I-0.005 J-0.001 K0.000 F1800.000
G2 X-178.137 Y-73.175 Z-3.200 I-1.637 J0.045 K0.000 F1800.000
G1 X-195.938 Y-73.175 Z-3.200 F1800.000
G2 X-198.525 Y-70.588 Z-3.200 I0.013 J2.600 K0.000 F1800.000
G1 X-198.525 Y-34.788 Z-3.200 F1800.000
G2 X-196.937 Y-33.192 Z-3.200 I1.601 J-0.006 K0.000 F1800.000
G3 X-196.933 Y-33.188 Z-3.200 I-0.001 J0.005 K0.000 F1800.000
G3 X-197.015 Y-33.175 Z-3.200 I-0.045 J-0.017 K0.000 F1800.000
G1 X-202.287 Y-33.175 Z-3.200 F1800.000
G2 X-204.875 Y-30.587 Z-3.200 I0.013 J2.600 K0.000 F1800.000
G1 X-204.875 Y-12.588 Z-3.200 F1800.000
G2 X-202.287 Y-10.000 Z-3.200 I2.600 J-0.013 K0.000 F1800.000
G1 X-197.015 Y-10.000 Z-3.200 F1800.000
G1 X-196.937 Y-9.992 Z-3.200 F1800.000
G3 X-196.933 Y-9.985 Z-3.200 I-0.001 J0.005 K0.000 F1800.000
G2 X-198.525 Y-8.387 Z-3.200 I0.045 J1.637 K0.000 F1800.000
G1 X-198.525 Y-2.587 Z-3.200 F1800.000
G2 X-195.938 Y0.000 Z-3.200 I2.600 J-0.013 K0.000 F1800.000
G1 X-8.938 Y0.000 Z-3.200 F1800.000
G2 X-6.453 Y-1.875 Z-3.200 I-0.013 J-2.600 K0.000 F1800.000
G1 X-6.453 Y-1.875 Z-6.400 F1400.000
G2 X-6.350 Y-2.587 Z-6.400 I-2.497 J-0.726 K0.000 F1800.000
G1 X-6.350 Y-8.387 Z-6.400 F1800.000
G2 X-7.938 Y-9.983 Z-6.400 I-1.601 J0.006 K0.000 F1800.000
G3 X-7.942 Y-9.988 Z-6.400 I0.001 J-0.005 K0.000 F1800.000
G3 X-7.860 Y-10.000 Z-6.400 I0.045 J0.017 K0.000 F1800.000
G1 X-2.587 Y-10.000 Z-6.400 F1800.000
G2 X0.000 Y-12.588 Z-6.400 I-0.013 J-2.600 K0.000 F1800.000
G1 X0.000 Y-30.587 Z-6.400 F1800.000
G2 X-2.587 Y-33.175 Z-6.400 I-2.600 J0.013 K0.000 F1800.000
G1 X-7.860 Y-33.175 Z-6.400 F1800.000
G1 X-7.938 Y-33.183 Z-6.400 F1800.000
G3 X-7.942 Y-33.190 Z-6.400 I0.001 J-0.005 K0.000 F1800.000
G2 X-6.350 Y-34.788 Z-6.400 I-0.045 J-1.637 K0.000 F1800.000
G1 X-6.350 Y-70.588 Z-6.400 F1800.000
G2 X-8.938 Y-73.175 Z-6.400 I-2.600 J0.013 K0.000 F1800.000
G1 X-26.738 Y-73.175 Z-6.400 F1800.000
G2 X-28.333 Y-71.587 Z-6.400 I0.006 J1.601 K0.000 F1800.000
G3 X-28.337 Y-71.583 Z-6.400 I-0.005 J-0.001 K0.000 F1800.000
G3 X-28.350 Y-71.665 Z-6.400 I0.017 J-0.045 K0.000 F1800.000
G1 X-28.350 Y-76.938 Z-6.400 F1800.000
G2 X-30.938 Y-79.525 Z-6.400 I-2.600 J0.013 K0.000 F1800.000
G1 X-53.938 Y-79.525 Z-6.400 F1800.000
G2 X-56.525 Y-76.938 Z-6.400 I0.013 J2.600 K0.000 F1800.000
G1 X-56.525 Y-71.665 Z-6.400 F1800.000
G1 X-56.533 Y-71.587 Z-6.400 F1800.000
G3 X-56.540 Y-71.583 Z-6.400 I-0.005 J-0.001 K0.000 F1800.000
G2 X-58.138 Y-73.175 Z-6.400 I-1.637 J0.045 K0.000 F1800.000
G1 X-86.737 Y-73.175 Z-6.400 F1800.000
G2 X-88.334 Y-71.587 Z-6.400 I0.006 J1.603 K0.000 F1800.000
G3 X-88.339 Y-71.584 Z-6.400 I-0.004 J-0.001 K0.000 F1800.000
G3 X-88.350 Y-71.671 Z-6.400 I0.034 J-0.049 K0.000 F1800.000
G1 X-88.350 Y-76.938 Z-6.400 F1800.000
G2 X-90.938 Y-79.525 Z-6.400 I-2.600 J0.013 K0.000 F1800.000
G1 X-113.938 Y-79.525 Z-6.400 F1800.000
G2 X-116.525 Y-76.938 Z-6.400 I0.013 J2.600 K0.000 F1800.000
G1 X-116.525 Y-71.665 Z-6.400 F1800.000
G1 X-116.533 Y-71.587 Z-6.400 F1800.000
G3 X-116.540 Y-71.583 Z-6.400 I-0.005 J-0.001 K0.000 F1800.000
G2 X-118.138 Y-73.175 Z-6.400 I-1.637 J0.045 K0.000 F1800.000
G1 X-146.738 Y-73.175 Z-6.400 F1800.000
G2 X-148.333 Y-71.587 Z-6.400 I0.006 J1.601 K0.000 F1800.000
G3 X-148.338 Y-71.583 Z-6.400 I-0.005 J-0.001 K0.000 F1800.000
G3 X-148.350 Y-71.665 Z-6.400 I0.017 J-0.045 K0.000 F1800.000
G1 X-148.350 Y-76.938 Z-6.400 F1800.000
G2 X-150.938 Y-79.525 Z-6.400 I-2.600 J0.013 K0.000 F1800.000
G1 X-173.938 Y-79.525 Z-6.400 F1800.000
G2 X-176.525 Y-76.938 Z-6.400 I0.013 J2.600 K0.000 F1800.000
G1 X-176.525 Y-71.665 Z-6.400 F1800.000
G1 X-176.533 Y-71.587 Z-6.400 F1800.000
G3 X-176.540 Y-71.583 Z-6.400 I-0.005 J-0.001 K0.000 F1800.000
G2 X-178.137 Y-73.175 Z-6.400 I-1.637 J0.045 K0.000 F1800.000
G1 X-195.938 Y-73.175 Z-6.400 F1800.000
G2 X-198.525 Y-70.588 Z-6.400 I0.013 J2.600 K0.000 F1800.000
G1 X-198.525 Y-34.788 Z-6.400 F1800.000
G2 X-196.937 Y-33.192 Z-6.400 I1.601 J-0.006 K0.000 F1800.000
G3 X-196.933 Y-33.188 Z-6.400 I-0.001 J0.005 K0.000 F1800.000
G3 X-197.015 Y-33.175 Z-6.400 I-0.045 J-0.017 K0.000 F1800.000
G1 X-202.287 Y-33.175 Z-6.400 F1800.000
G2 X-204.875 Y-30.587 Z-6.400 I0.013 J2.600 K0.000 F1800.000
G1 X-204.875 Y-12.588 Z-6.400 F1800.000
G2 X-202.287 Y-10.000 Z-6.400 I2.600 J-0.013 K0.000 F1800.000
G1 X-197.015 Y-10.000 Z-6.400 F1800.000
G1 X-196.937 Y-9.992 Z-6.400 F1800.000
G3 X-196.933 Y-9.985 Z-6.400 I-0.001 J0.005 K0.000 F1800.000
G2 X-198.525 Y-8.387 Z-6.400 I0.045 J1.637 K0.000 F1800.000
G1 X-198.525 Y-2.587 Z-6.400 F1800.000
G2 X-195.938 Y0.000 Z-6.400 I2.600 J-0.013 K0.000 F1800.000
G1 X-8.938 Y0.000 Z-6.400 F1800.000
G2 X-6.453 Y-1.875 Z-6.400 I-0.013 J-2.600 K0.000 F1800.000
G0 Z5.000
G0 Z5.000
(Finish operation: Profile005)
(Begin postamble)
M5
G17 G90
M2
