(Exported by FreeCAD)
(Post Processor: grbl_post)
(Output Time:2024-02-25 11:49:26.183661)
(Begin preamble)
G17 G90
G21
(Begin operation: Fixture)
(Path: Fixture)
G54
(Finish operation: Fixture)
(Begin operation: 1/8th in Endmill013)
(Path: 1/8th in Endmill013)
(1/8th in Endmill013)
(Begin toolchange)
( M6 T2 )
(Finish operation: 1/8th in Endmill013)
(Begin operation: Drilling005)
(Path: Drilling005)
(Drilling005)
(Begin Drilling)
G0 Z5.000
G90
( G98 )
G0 X-18.938 Y-41.588
(G83 X-18.938 Y-41.588 Z-4.000 F1400.000 Q1.000 R3.000)
G0 X-18.938 Y-41.588
G0 Z3.000 F1400.00
G1 Z2.000 F1400.00
G0 Z3.000
G0 Z2.050
G1 Z1.000 F1400.00
G0 Z3.000
G0 Z1.050
G1 Z0.000 F1400.00
G0 Z3.000
G0 Z0.050
G1 Z-1.000 F1400.00
G0 Z3.000
G0 Z-0.950
G1 Z-2.000 F1400.00
G0 Z3.000
G0 Z-1.950
G1 Z-3.000 F1400.00
G0 Z3.000
G0 Z-2.950
G1 Z-4.000 F1400.00
G0 Z5.000
G0 X-41.588 Y-106.238
(G83 X-41.588 Y-106.238 Z-4.000 F1400.000 Q1.000 R3.000)
G0 X-41.588 Y-106.238
G0 Z3.000 F1400.00
G1 Z2.000 F1400.00
G0 Z3.000
G0 Z2.050
G1 Z1.000 F1400.00
G0 Z3.000
G0 Z1.050
G1 Z0.000 F1400.00
G0 Z3.000
G0 Z0.050
G1 Z-1.000 F1400.00
G0 Z3.000
G0 Z-0.950
G1 Z-2.000 F1400.00
G0 Z3.000
G0 Z-1.950
G1 Z-3.000 F1400.00
G0 Z3.000
G0 Z-2.950
G1 Z-4.000 F1400.00
G0 Z5.000
G0 X-174.287 Y-106.238
(G83 X-174.287 Y-106.238 Z-4.000 F1400.000 Q1.000 R3.000)
G0 X-174.287 Y-106.238
G0 Z3.000 F1400.00
G1 Z2.000 F1400.00
G0 Z3.000
G0 Z2.050
G1 Z1.000 F1400.00
G0 Z3.000
G0 Z1.050
G1 Z0.000 F1400.00
G0 Z3.000
G0 Z0.050
G1 Z-1.000 F1400.00
G0 Z3.000
G0 Z-0.950
G1 Z-2.000 F1400.00
G0 Z3.000
G0 Z-1.950
G1 Z-3.000 F1400.00
G0 Z3.000
G0 Z-2.950
G1 Z-4.000 F1400.00
G0 Z5.000
G0 X-196.938 Y-41.588
(G83 X-196.938 Y-41.588 Z-4.000 F1400.000 Q1.000 R3.000)
G0 X-196.938 Y-41.588
G0 Z3.000 F1400.00
G1 Z2.000 F1400.00
G0 Z3.000
G0 Z2.050
G1 Z1.000 F1400.00
G0 Z3.000
G0 Z1.050
G1 Z0.000 F1400.00
G0 Z3.000
G0 Z0.050
G1 Z-1.000 F1400.00
G0 Z3.000
G0 Z-0.950
G1 Z-2.000 F1400.00
G0 Z3.000
G0 Z-1.950
G1 Z-3.000 F1400.00
G0 Z3.000
G0 Z-2.950
G1 Z-4.000 F1400.00
G0 Z5.000
( G80 )
G0 Z3.000
G0 Z5.000
(Finish operation: Drilling005)
(Begin operation: Pocket_Shape004)
(Path: Pocket_Shape004)
(Pocket_Shape004)
G0 Z5.000
G0 X-18.474 Y-41.124
G0 Z3.000
G1 X-18.474 Y-41.124 Z-2.000 F1400.000
G2 X-18.645 Y-42.174 Z-2.000 I-0.464 J-0.464 K0.000 F1800.000
G2 X-19.524 Y-41.880 Z-2.000 I-0.292 J0.587 K0.000 F1800.000
G2 X-19.230 Y-41.001 Z-2.000 I0.587 J0.292 K0.000 F1800.000
G2 X-18.474 Y-41.124 Z-2.000 I0.292 J-0.587 K0.000 F1800.000
G1 X-18.474 Y-41.124 Z-4.000 F1400.000
G2 X-18.645 Y-42.174 Z-4.000 I-0.464 J-0.464 K0.000 F1800.000
G2 X-19.524 Y-41.880 Z-4.000 I-0.292 J0.587 K0.000 F1800.000
G2 X-19.230 Y-41.001 Z-4.000 I0.587 J0.292 K0.000 F1800.000
G2 X-18.474 Y-41.124 Z-4.000 I0.292 J-0.587 K0.000 F1800.000
G0 Z5.000
G0 Z5.000
G0 X-18.474 Y-41.124
G0 X-41.368 Y-105.620
G0 X-41.368 Y-105.620 Z3.000
G1 X-41.368 Y-105.620 Z-2.000 F1400.000
G2 X-41.295 Y-106.824 Z-2.000 I-0.219 J-0.618 K0.000 F1800.000
G2 X-42.174 Y-106.530 Z-2.000 I-0.292 J0.587 K0.000 F1800.000
G2 X-41.880 Y-105.651 Z-2.000 I0.587 J0.292 K0.000 F1800.000
G2 X-41.368 Y-105.620 Z-2.000 I0.292 J-0.587 K0.000 F1800.000
G1 X-41.368 Y-105.620 Z-4.000 F1400.000
G2 X-41.295 Y-106.824 Z-4.000 I-0.219 J-0.618 K0.000 F1800.000
G2 X-42.174 Y-106.530 Z-4.000 I-0.292 J0.587 K0.000 F1800.000
G2 X-41.880 Y-105.651 Z-4.000 I0.587 J0.292 K0.000 F1800.000
G2 X-41.368 Y-105.620 Z-4.000 I0.292 J-0.587 K0.000 F1800.000
G0 Z5.000
G0 Z5.000
G0 X-41.368 Y-105.620
G0 X-173.632 Y-106.234
G0 X-173.632 Y-106.234 Z3.000
G1 X-173.632 Y-106.234 Z-2.000 F1400.000
G2 X-173.995 Y-106.824 Z-2.000 I-0.656 J-0.003 K0.000 F1800.000
G2 X-174.874 Y-106.530 Z-2.000 I-0.292 J0.587 K0.000 F1800.000
G2 X-174.580 Y-105.651 Z-2.000 I0.587 J0.292 K0.000 F1800.000
G2 X-173.632 Y-106.234 Z-2.000 I0.292 J-0.587 K0.000 F1800.000
G1 X-173.632 Y-106.234 Z-4.000 F1400.000
G2 X-173.995 Y-106.824 Z-4.000 I-0.656 J-0.003 K0.000 F1800.000
G2 X-174.874 Y-106.530 Z-4.000 I-0.292 J0.587 K0.000 F1800.000
G2 X-174.580 Y-105.651 Z-4.000 I0.587 J0.292 K0.000 F1800.000
G2 X-173.632 Y-106.234 Z-4.000 I0.292 J-0.587 K0.000 F1800.000
G0 Z5.000
G0 Z5.000
G0 X-173.632 Y-106.234
G0 X-196.715 Y-42.204
G0 X-196.715 Y-42.204 Z3.000
G1 X-196.715 Y-42.204 Z-2.000 F1400.000
G2 X-197.230 Y-41.001 Z-2.000 I-0.222 J0.617 K0.000 F1800.000
G2 X-196.351 Y-41.295 Z-2.000 I0.292 J-0.587 K0.000 F1800.000
G2 X-196.645 Y-42.174 Z-2.000 I-0.587 J-0.292 K0.000 F1800.000
G2 X-196.715 Y-42.204 Z-2.000 I-0.292 J0.587 K0.000 F1800.000
G1 X-196.715 Y-42.204 Z-4.000 F1400.000
G2 X-197.230 Y-41.001 Z-4.000 I-0.222 J0.617 K0.000 F1800.000
G2 X-196.351 Y-41.295 Z-4.000 I0.292 J-0.587 K0.000 F1800.000
G2 X-196.645 Y-42.174 Z-4.000 I-0.587 J-0.292 K0.000 F1800.000
G2 X-196.715 Y-42.204 Z-4.000 I-0.292 J0.587 K0.000 F1800.000
G0 Z5.000
G0 Z5.000
(Finish operation: Pocket_Shape004)
(Begin operation: Profile012)
(Path: Profile012)
(Profile012)
(Compensated Tool Path. Diameter: 3.175)
G0 Z5.000
G0 X-17.942 Y-40.592
G0 Z3.000
G1 X-17.942 Y-40.592 Z-1.000 F1400.000
G2 X-18.503 Y-42.926 Z-1.000 I-0.995 J-0.995 K0.000 F1800.000
G2 X-19.372 Y-40.249 Z-1.000 I-0.435 J1.339 K0.000 F1800.000
G2 X-17.942 Y-40.592 Z-1.000 I0.435 J-1.339 K0.000 F1800.000
G0 Z5.000
G0 Z5.000
G0 X-17.942 Y-40.592
G0 X-41.110 Y-104.913
G0 X-41.110 Y-104.913 Z3.000
G1 X-41.110 Y-104.913 Z-1.000 F1400.000
G2 X-41.153 Y-107.576 Z-1.000 I-0.477 J-1.324 K0.000 F1800.000
G2 X-42.926 Y-106.672 Z-1.000 I-0.435 J1.339 K0.000 F1800.000
G2 X-42.022 Y-104.899 Z-1.000 I1.339 J0.435 K0.000 F1800.000
G2 X-41.110 Y-104.913 Z-1.000 I0.435 J-1.339 K0.000 F1800.000
G0 Z5.000
G0 Z5.000
G0 X-41.110 Y-104.913
G0 X-172.880 Y-106.224
G0 X-172.880 Y-106.224 Z3.000
G1 X-172.880 Y-106.224 Z-1.000 F1400.000
G2 X-173.853 Y-107.576 Z-1.000 I-1.408 J-0.014 K0.000 F1800.000
G2 X-174.722 Y-104.899 Z-1.000 I-0.435 J1.339 K0.000 F1800.000
G2 X-172.880 Y-106.224 Z-1.000 I0.435 J-1.339 K0.000 F1800.000
G0 Z5.000
G0 Z5.000
G0 X-172.880 Y-106.224
G0 X-196.447 Y-42.907
G0 X-196.447 Y-42.907 Z3.000
G1 X-196.447 Y-42.907 Z-1.000 F1400.000
G2 X-196.503 Y-42.926 Z-1.000 I-0.491 J1.319 K0.000 F1800.000
G2 X-197.372 Y-40.249 Z-1.000 I-0.435 J1.339 K0.000 F1800.000
G2 X-196.447 Y-42.907 Z-1.000 I0.435 J-1.339 K0.000 F1800.000
G0 Z5.000
G0 Z5.000
(Finish operation: Profile012)
(Begin operation: Profile013)
(Path: Profile013)
(Profile013)
(Compensated Tool Path. Diameter: 3.175)
G0 Z5.000
G0 X-49.538 Y-21.183
G0 Z3.000
G1 X-49.538 Y-21.183 Z-3.200 F1400.000
G2 X-49.525 Y-21.265 Z-3.200 I-0.017 J-0.045 K0.000 F1800.000
G1 X-49.525 Y-27.504 Z-3.200 F1800.000
G2 X-49.536 Y-27.591 Z-3.200 I-0.065 J-0.036 K0.000 F1800.000
G2 X-49.539 Y-27.591 Z-3.200 I-0.002 J0.003 K0.000 F1800.000
G3 X-51.138 Y-26.000 Z-3.200 I-1.641 J-0.050 K0.000 F1800.000
G1 X-89.737 Y-26.000 Z-3.200 F1800.000
G3 X-91.334 Y-27.588 Z-3.200 I0.006 J-1.603 K0.000 F1800.000
G2 X-91.339 Y-27.591 Z-3.200 I-0.004 J0.001 K0.000 F1800.000
G2 X-91.350 Y-27.504 Z-3.200 I0.034 J0.049 K0.000 F1800.000
G1 X-91.350 Y-7.671 Z-3.200 F1800.000
G1 X-91.341 Y-7.587 Z-3.200 F1800.000
G2 X-91.336 Y-7.584 Z-3.200 I0.004 J-0.001 K0.000 F1800.000
G3 X-89.737 Y-9.175 Z-3.200 I1.641 J0.050 K0.000 F1800.000
G1 X-71.137 Y-9.175 Z-3.200 F1800.000
G3 X-69.541 Y-7.587 Z-3.200 I-0.006 J1.603 K0.000 F1800.000
G2 X-69.536 Y-7.584 Z-3.200 I0.004 J-0.001 K0.000 F1800.000
G2 X-69.525 Y-7.671 Z-3.200 I-0.034 J-0.049 K0.000 F1800.000
G1 X-69.525 Y-20.187 Z-3.200 F1800.000
G3 X-66.938 Y-22.775 Z-3.200 I2.600 J0.013 K0.000 F1800.000
G1 X-51.138 Y-22.775 Z-3.200 F1800.000
G3 X-49.542 Y-21.187 Z-3.200 I-0.006 J1.601 K0.000 F1800.000
G2 X-49.538 Y-21.183 Z-3.200 I0.005 J-0.001 K0.000 F1800.000
G1 X-49.538 Y-21.183 Z-6.400 F1400.000
G2 X-49.525 Y-21.265 Z-6.400 I-0.017 J-0.045 K0.000 F1800.000
G1 X-49.525 Y-27.504 Z-6.400 F1800.000
G2 X-49.536 Y-27.591 Z-6.400 I-0.065 J-0.036 K0.000 F1800.000
G2 X-49.539 Y-27.591 Z-6.400 I-0.002 J0.003 K0.000 F1800.000
G3 X-51.138 Y-26.000 Z-6.400 I-1.641 J-0.050 K0.000 F1800.000
G1 X-89.737 Y-26.000 Z-6.400 F1800.000
G3 X-91.334 Y-27.588 Z-6.400 I0.006 J-1.603 K0.000 F1800.000
G2 X-91.339 Y-27.591 Z-6.400 I-0.004 J0.001 K0.000 F1800.000
G2 X-91.350 Y-27.504 Z-6.400 I0.034 J0.049 K0.000 F1800.000
G1 X-91.350 Y-7.671 Z-6.400 F1800.000
G1 X-91.341 Y-7.587 Z-6.400 F1800.000
G2 X-91.336 Y-7.584 Z-6.400 I0.004 J-0.001 K0.000 F1800.000
G3 X-89.737 Y-9.175 Z-6.400 I1.641 J0.050 K0.000 F1800.000
G1 X-71.137 Y-9.175 Z-6.400 F1800.000
G3 X-69.541 Y-7.587 Z-6.400 I-0.006 J1.603 K0.000 F1800.000
G2 X-69.536 Y-7.584 Z-6.400 I0.004 J-0.001 K0.000 F1800.000
G2 X-69.525 Y-7.671 Z-6.400 I-0.034 J-0.049 K0.000 F1800.000
G1 X-69.525 Y-20.187 Z-6.400 F1800.000
G3 X-66.938 Y-22.775 Z-6.400 I2.600 J0.013 K0.000 F1800.000
G1 X-51.138 Y-22.775 Z-6.400 F1800.000
G3 X-49.542 Y-21.187 Z-6.400 I-0.006 J1.601 K0.000 F1800.000
G2 X-49.538 Y-21.183 Z-6.400 I0.005 J-0.001 K0.000 F1800.000
G0 Z5.000
G0 Z5.000
G0 X-49.538 Y-21.183
G0 X-99.025
G0 X-99.025 Z3.000
G1 X-99.025 Y-21.183 Z-3.200 F1400.000
G1 X-99.025 Y-21.675 Z-3.200 F1800.000
G2 X-100.123 Y-23.243 Z-3.200 I-1.597 J-0.050 K0.000 F1800.000
G2 X-102.205 Y-21.613 Z-3.200 I-0.486 J1.523 K0.000 F1800.000
G3 X-104.288 Y-19.650 Z-3.200 I-2.082 J-0.123 K0.000 F1800.000
G1 X-111.587 Y-19.650 Z-3.200 F1800.000
G3 X-113.261 Y-20.502 Z-3.200 I-0.005 J-2.060 K0.000 F1800.000
G3 X-113.699 Y-21.985 Z-3.200 I2.048 J-1.412 K0.000 F1800.000
G2 X-116.850 Y-21.675 Z-3.200 I-1.566 J0.251 K0.000 F1800.000
G1 X-116.850 Y-14.450 Z-3.200 F1800.000
G1 X-116.826 Y-14.140 Z-3.200 F1800.000
G2 X-113.670 Y-14.512 Z-3.200 I1.570 J-0.255 K0.000 F1800.000
G3 X-111.587 Y-16.475 Z-3.200 I2.082 J0.123 K0.000 F1800.000
G1 X-104.288 Y-16.475 Z-3.200 F1800.000
G3 X-102.614 Y-15.623 Z-3.200 I0.005 J2.060 K0.000 F1800.000
G3 X-102.176 Y-14.140 Z-3.200 I-2.048 J1.412 K0.000 F1800.000
G2 X-99.025 Y-14.450 Z-3.200 I1.566 J-0.251 K0.000 F1800.000
G1 X-99.025 Y-21.183 Z-3.200 F1800.000
G1 X-99.025 Y-21.183 Z-6.400 F1400.000
G1 X-99.025 Y-21.675 Z-6.400 F1800.000
G2 X-100.123 Y-23.243 Z-6.400 I-1.597 J-0.050 K0.000 F1800.000
G2 X-102.205 Y-21.613 Z-6.400 I-0.486 J1.523 K0.000 F1800.000
G3 X-104.288 Y-19.650 Z-6.400 I-2.082 J-0.123 K0.000 F1800.000
G1 X-111.587 Y-19.650 Z-6.400 F1800.000
G3 X-113.261 Y-20.502 Z-6.400 I-0.005 J-2.060 K0.000 F1800.000
G3 X-113.699 Y-21.985 Z-6.400 I2.048 J-1.412 K0.000 F1800.000
G2 X-116.850 Y-21.675 Z-6.400 I-1.566 J0.251 K0.000 F1800.000
G1 X-116.850 Y-14.450 Z-6.400 F1800.000
G1 X-116.826 Y-14.140 Z-6.400 F1800.000
G2 X-113.670 Y-14.512 Z-6.400 I1.570 J-0.255 K0.000 F1800.000
G3 X-111.587 Y-16.475 Z-6.400 I2.082 J0.123 K0.000 F1800.000
G1 X-104.288 Y-16.475 Z-6.400 F1800.000
G3 X-102.614 Y-15.623 Z-6.400 I0.005 J2.060 K0.000 F1800.000
G3 X-102.176 Y-14.140 Z-6.400 I-2.048 J1.412 K0.000 F1800.000
G2 X-99.025 Y-14.450 Z-6.400 I1.566 J-0.251 K0.000 F1800.000
G1 X-99.025 Y-21.183 Z-6.400 F1800.000
G0 Z5.000
G0 Z5.000
G0 X-99.025 Y-21.183
G0 X-124.525 Y-21.183
G0 X-124.525 Y-21.183 Z3.000
G1 X-124.525 Y-21.183 Z-3.200 F1400.000
G1 X-124.525 Y-27.510 Z-3.200 F1800.000
G2 X-124.536 Y-27.592 Z-3.200 I-0.047 J-0.036 K0.000 F1800.000
G2 X-124.540 Y-27.592 Z-3.200 I-0.002 J0.004 K0.000 F1800.000
G3 X-126.138 Y-26.000 Z-3.200 I-1.637 J-0.045 K0.000 F1800.000
G1 X-164.738 Y-26.000 Z-3.200 F1800.000
G3 X-166.334 Y-27.588 Z-3.200 I0.006 J-1.603 K0.000 F1800.000
G2 X-166.339 Y-27.591 Z-3.200 I-0.004 J0.001 K0.000 F1800.000
G2 X-166.350 Y-27.504 Z-3.200 I0.034 J0.049 K0.000 F1800.000
G1 X-166.350 Y-21.265 Z-3.200 F1800.000
G1 X-166.342 Y-21.187 Z-3.200 F1800.000
G2 X-166.335 Y-21.183 Z-3.200 I0.005 J-0.001 K0.000 F1800.000
G3 X-164.738 Y-22.775 Z-3.200 I1.637 J0.045 K0.000 F1800.000
G1 X-148.938 Y-22.775 Z-3.200 F1800.000
G3 X-146.350 Y-20.187 Z-3.200 I-0.013 J2.600 K0.000 F1800.000
G1 X-146.350 Y-7.665 Z-3.200 F1800.000
G1 X-146.342 Y-7.587 Z-3.200 F1800.000
G2 X-146.335 Y-7.583 Z-3.200 I0.005 J-0.001 K0.000 F1800.000
G3 X-144.738 Y-9.175 Z-3.200 I1.637 J0.045 K0.000 F1800.000
G1 X-126.138 Y-9.175 Z-3.200 F1800.000
G3 X-124.542 Y-7.587 Z-3.200 I-0.006 J1.601 K0.000 F1800.000
G2 X-124.537 Y-7.583 Z-3.200 I0.005 J-0.001 K0.000 F1800.000
G2 X-124.525 Y-7.665 Z-3.200 I-0.017 J-0.045 K0.000 F1800.000
G1 X-124.525 Y-21.183 Z-3.200 F1800.000
G1 X-124.525 Y-21.183 Z-6.400 F1400.000
G1 X-124.525 Y-27.510 Z-6.400 F1800.000
G2 X-124.536 Y-27.592 Z-6.400 I-0.047 J-0.036 K0.000 F1800.000
G2 X-124.540 Y-27.592 Z-6.400 I-0.002 J0.004 K0.000 F1800.000
G3 X-126.138 Y-26.000 Z-6.400 I-1.637 J-0.045 K0.000 F1800.000
G1 X-164.738 Y-26.000 Z-6.400 F1800.000
G3 X-166.334 Y-27.588 Z-6.400 I0.006 J-1.603 K0.000 F1800.000
G2 X-166.339 Y-27.591 Z-6.400 I-0.004 J0.001 K0.000 F1800.000
G2 X-166.350 Y-27.504 Z-6.400 I0.034 J0.049 K0.000 F1800.000
G1 X-166.350 Y-21.265 Z-6.400 F1800.000
G1 X-166.342 Y-21.187 Z-6.400 F1800.000
G2 X-166.335 Y-21.183 Z-6.400 I0.005 J-0.001 K0.000 F1800.000
G3 X-164.738 Y-22.775 Z-6.400 I1.637 J0.045 K0.000 F1800.000
G1 X-148.938 Y-22.775 Z-6.400 F1800.000
G3 X-146.350 Y-20.187 Z-6.400 I-0.013 J2.600 K0.000 F1800.000
G1 X-146.350 Y-7.665 Z-6.400 F1800.000
G1 X-146.342 Y-7.587 Z-6.400 F1800.000
G2 X-146.335 Y-7.583 Z-6.400 I0.005 J-0.001 K0.000 F1800.000
G3 X-144.738 Y-9.175 Z-6.400 I1.637 J0.045 K0.000 F1800.000
G1 X-126.138 Y-9.175 Z-6.400 F1800.000
G3 X-124.542 Y-7.587 Z-6.400 I-0.006 J1.601 K0.000 F1800.000
G2 X-124.537 Y-7.583 Z-6.400 I0.005 J-0.001 K0.000 F1800.000
G2 X-124.525 Y-7.665 Z-6.400 I-0.017 J-0.045 K0.000 F1800.000
G1 X-124.525 Y-21.183 Z-6.400 F1800.000
G0 Z5.000
G0 Z5.000
(Finish operation: Profile013)
(Begin operation: Profile014)
(Path: Profile014)
(Profile014)
(Compensated Tool Path. Diameter: 3.175)
G0 Z5.000
G0 X-0.762 Y-0.762
G0 Z3.000
G1 X-0.762 Y-0.762 Z-3.200 F1400.000
G2 X-0.000 Y-2.587 Z-3.200 I-1.839 J-1.839 K0.000 F1800.000
G1 X-0.000 Y-116.238 Z-3.200 F1800.000
G2 X-2.588 Y-118.825 Z-3.200 I-2.600 J0.013 K0.000 F1800.000
G1 X-213.287 Y-118.825 Z-3.200 F1800.000
G2 X-215.875 Y-116.238 Z-3.200 I0.013 J2.600 K0.000 F1800.000
G1 X-215.875 Y-2.587 Z-3.200 F1800.000
G2 X-213.287 Y-0.000 Z-3.200 I2.600 J-0.013 K0.000 F1800.000
G1 X-2.588 Y0.000 Z-3.200 F1800.000
G2 X-0.762 Y-0.762 Z-3.200 I-0.013 J-2.600 K0.000 F1800.000
G1 X-0.762 Y-0.762 Z-6.400 F1400.000
G2 X-0.000 Y-2.587 Z-6.400 I-1.839 J-1.839 K0.000 F1800.000
G1 X-0.000 Y-116.238 Z-6.400 F1800.000
G2 X-2.588 Y-118.825 Z-6.400 I-2.600 J0.013 K0.000 F1800.000
G1 X-213.287 Y-118.825 Z-6.400 F1800.000
G2 X-215.875 Y-116.238 Z-6.400 I0.013 J2.600 K0.000 F1800.000
G1 X-215.875 Y-2.587 Z-6.400 F1800.000
G2 X-213.287 Y-0.000 Z-6.400 I2.600 J-0.013 K0.000 F1800.000
G1 X-2.588 Y0.000 Z-6.400 F1800.000
G2 X-0.762 Y-0.762 Z-6.400 I-0.013 J-2.600 K0.000 F1800.000
G0 Z5.000
G0 Z5.000
(Finish operation: Profile014)
(Begin postamble)
M5
G17 G90
M2
