(Exported by FreeCAD)
(Post Processor: grbl_post)
(Output Time:2024-02-24 21:24:10.412610)
(Begin preamble)
G17 G90
G21
(Begin operation: Fixture)
(Path: Fixture)
G54
(Finish operation: Fixture)
(Begin operation: 1/8th in Endmill011)
(Path: 1/8th in Endmill011)
(1/8th in Endmill011)
(Begin toolchange)
( M6 T2 )
(Finish operation: 1/8th in Endmill011)
(Begin operation: Drilling004)
(Path: Drilling004)
(Drilling004)
(Begin Drilling)
G0 Z5.000
G90
( G98 )
G0 X-12.588 Y-41.587
(G83 X-12.588 Y-41.587 Z-4.000 F1400.000 Q1.000 R3.000)
G0 X-12.588 Y-41.587
G0 Z3.000 F1400.00
G1 Z2.000 F1400.00
G0 Z3.000
G0 Z2.050
G1 Z1.000 F1400.00
G0 Z3.000
G0 Z1.050
G1 Z0.000 F1400.00
G0 Z3.000
G0 Z0.050
G1 Z-1.000 F1400.00
G0 Z3.000
G0 Z-0.950
G1 Z-2.000 F1400.00
G0 Z3.000
G0 Z-1.950
G1 Z-3.000 F1400.00
G0 Z3.000
G0 Z-2.950
G1 Z-4.000 F1400.00
G0 Z5.000
G0 X-41.587 Y-106.502
(G83 X-41.587 Y-106.502 Z-4.000 F1400.000 Q1.000 R3.000)
G0 X-41.587 Y-106.502
G0 Z3.000 F1400.00
G1 Z2.000 F1400.00
G0 Z3.000
G0 Z2.050
G1 Z1.000 F1400.00
G0 Z3.000
G0 Z1.050
G1 Z0.000 F1400.00
G0 Z3.000
G0 Z0.050
G1 Z-1.000 F1400.00
G0 Z3.000
G0 Z-0.950
G1 Z-2.000 F1400.00
G0 Z3.000
G0 Z-1.950
G1 Z-3.000 F1400.00
G0 Z3.000
G0 Z-2.950
G1 Z-4.000 F1400.00
G0 Z5.000
G0 X-150.588 Y-106.502
(G83 X-150.588 Y-106.502 Z-4.000 F1400.000 Q1.000 R3.000)
G0 X-150.588 Y-106.502
G0 Z3.000 F1400.00
G1 Z2.000 F1400.00
G0 Z3.000
G0 Z2.050
G1 Z1.000 F1400.00
G0 Z3.000
G0 Z1.050
G1 Z0.000 F1400.00
G0 Z3.000
G0 Z0.050
G1 Z-1.000 F1400.00
G0 Z3.000
G0 Z-0.950
G1 Z-2.000 F1400.00
G0 Z3.000
G0 Z-1.950
G1 Z-3.000 F1400.00
G0 Z3.000
G0 Z-2.950
G1 Z-4.000 F1400.00
G0 Z5.000
G0 X-179.588 Y-41.587
(G83 X-179.588 Y-41.587 Z-4.000 F1400.000 Q1.000 R3.000)
G0 X-179.588 Y-41.587
G0 Z3.000 F1400.00
G1 Z2.000 F1400.00
G0 Z3.000
G0 Z2.050
G1 Z1.000 F1400.00
G0 Z3.000
G0 Z1.050
G1 Z0.000 F1400.00
G0 Z3.000
G0 Z0.050
G1 Z-1.000 F1400.00
G0 Z3.000
G0 Z-0.950
G1 Z-2.000 F1400.00
G0 Z3.000
G0 Z-1.950
G1 Z-3.000 F1400.00
G0 Z3.000
G0 Z-2.950
G1 Z-4.000 F1400.00
G0 Z5.000
( G80 )
G0 Z3.000
G0 Z5.000
(Finish operation: Drilling004)
(Begin operation: Pocket_Shape003)
(Path: Pocket_Shape003)
(Pocket_Shape003)
G0 Z5.000
G0 X-12.124 Y-41.124
G0 Z3.000
G1 X-12.124 Y-41.124 Z-2.000 F1400.000
G2 X-12.295 Y-42.174 Z-2.000 I-0.464 J-0.464 K0.000 F1800.000
G2 X-13.174 Y-41.880 Z-2.000 I-0.292 J0.587 K0.000 F1800.000
G2 X-12.880 Y-41.001 Z-2.000 I0.587 J0.292 K0.000 F1800.000
G2 X-12.124 Y-41.124 Z-2.000 I0.292 J-0.587 K0.000 F1800.000
G1 X-12.124 Y-41.124 Z-4.000 F1400.000
G2 X-12.295 Y-42.174 Z-4.000 I-0.464 J-0.464 K0.000 F1800.000
G2 X-13.174 Y-41.880 Z-4.000 I-0.292 J0.587 K0.000 F1800.000
G2 X-12.880 Y-41.001 Z-4.000 I0.587 J0.292 K0.000 F1800.000
G2 X-12.124 Y-41.124 Z-4.000 I0.292 J-0.587 K0.000 F1800.000
G0 Z5.000
G0 Z5.000
G0 X-12.124 Y-41.124
G0 X-41.318 Y-105.904
G0 X-41.318 Y-105.904 Z3.000
G1 X-41.318 Y-105.904 Z-2.000 F1400.000
G2 X-41.295 Y-107.089 Z-2.000 I-0.269 J-0.598 K0.000 F1800.000
G2 X-42.174 Y-106.794 Z-2.000 I-0.292 J0.587 K0.000 F1800.000
G2 X-41.880 Y-105.915 Z-2.000 I0.587 J0.292 K0.000 F1800.000
G2 X-41.318 Y-105.904 Z-2.000 I0.292 J-0.587 K0.000 F1800.000
G1 X-41.318 Y-105.904 Z-4.000 F1400.000
G2 X-41.295 Y-107.089 Z-4.000 I-0.269 J-0.598 K0.000 F1800.000
G2 X-42.174 Y-106.794 Z-4.000 I-0.292 J0.587 K0.000 F1800.000
G2 X-41.880 Y-105.915 Z-4.000 I0.587 J0.292 K0.000 F1800.000
G2 X-41.318 Y-105.904 Z-4.000 I0.292 J-0.587 K0.000 F1800.000
G0 Z5.000
G0 Z5.000
G0 X-41.318 Y-105.904
G0 X-149.932 Y-106.498
G0 X-149.932 Y-106.498 Z3.000
G1 X-149.932 Y-106.498 Z-2.000 F1400.000
G2 X-150.295 Y-107.089 Z-2.000 I-0.656 J-0.004 K0.000 F1800.000
G2 X-151.174 Y-106.794 Z-2.000 I-0.292 J0.587 K0.000 F1800.000
G2 X-150.880 Y-105.915 Z-2.000 I0.587 J0.292 K0.000 F1800.000
G2 X-149.932 Y-106.498 Z-2.000 I0.292 J-0.587 K0.000 F1800.000
G1 X-149.932 Y-106.498 Z-4.000 F1400.000
G2 X-150.295 Y-107.089 Z-4.000 I-0.656 J-0.004 K0.000 F1800.000
G2 X-151.174 Y-106.794 Z-4.000 I-0.292 J0.587 K0.000 F1800.000
G2 X-150.880 Y-105.915 Z-4.000 I0.587 J0.292 K0.000 F1800.000
G2 X-149.932 Y-106.498 Z-4.000 I0.292 J-0.587 K0.000 F1800.000
G0 Z5.000
G0 Z5.000
G0 X-149.932 Y-106.498
G0 X-179.315 Y-42.184
G0 X-179.315 Y-42.184 Z3.000
G1 X-179.315 Y-42.184 Z-2.000 F1400.000
G2 X-179.880 Y-41.001 Z-2.000 I-0.272 J0.596 K0.000 F1800.000
G2 X-179.001 Y-41.295 Z-2.000 I0.292 J-0.587 K0.000 F1800.000
G2 X-179.295 Y-42.174 Z-2.000 I-0.587 J-0.292 K0.000 F1800.000
G2 X-179.315 Y-42.184 Z-2.000 I-0.292 J0.587 K0.000 F1800.000
G1 X-179.315 Y-42.184 Z-4.000 F1400.000
G2 X-179.880 Y-41.001 Z-4.000 I-0.272 J0.596 K0.000 F1800.000
G2 X-179.001 Y-41.295 Z-4.000 I0.292 J-0.587 K0.000 F1800.000
G2 X-179.295 Y-42.174 Z-4.000 I-0.587 J-0.292 K0.000 F1800.000
G2 X-179.315 Y-42.184 Z-4.000 I-0.292 J0.587 K0.000 F1800.000
G0 Z5.000
G0 Z5.000
(Finish operation: Pocket_Shape003)
(Begin operation: Profile009)
(Path: Profile009)
(Profile009)
(Compensated Tool Path. Diameter: 3.175)
G0 Z5.000
G0 X-11.592 Y-40.592
G0 Z3.000
G1 X-11.592 Y-40.592 Z-1.000 F1400.000
G2 X-12.153 Y-42.926 Z-1.000 I-0.995 J-0.995 K0.000 F1800.000
G2 X-13.926 Y-42.022 Z-1.000 I-0.435 J1.339 K0.000 F1800.000
G2 X-13.022 Y-40.249 Z-1.000 I1.339 J0.435 K0.000 F1800.000
G2 X-11.592 Y-40.592 Z-1.000 I0.435 J-1.339 K0.000 F1800.000
G0 Z5.000
G0 Z5.000
G0 X-11.592 Y-40.592
G0 X-41.004 Y-105.221
G0 X-41.004 Y-105.221 Z3.000
G1 X-41.004 Y-105.221 Z-1.000 F1400.000
G2 X-41.153 Y-107.841 Z-1.000 I-0.583 J-1.281 K0.000 F1800.000
G2 X-42.926 Y-106.937 Z-1.000 I-0.435 J1.339 K0.000 F1800.000
G2 X-42.022 Y-105.163 Z-1.000 I1.339 J0.435 K0.000 F1800.000
G2 X-41.004 Y-105.221 Z-1.000 I0.435 J-1.339 K0.000 F1800.000
G0 Z5.000
G0 Z5.000
G0 X-41.004 Y-105.221
G0 X-149.180 Y-106.485
G0 X-149.180 Y-106.485 Z3.000
G1 X-149.180 Y-106.485 Z-1.000 F1400.000
G2 X-150.153 Y-107.841 Z-1.000 I-1.407 J-0.016 K0.000 F1800.000
G2 X-151.022 Y-105.163 Z-1.000 I-0.435 J1.339 K0.000 F1800.000
G2 X-149.180 Y-106.485 Z-1.000 I0.435 J-1.339 K0.000 F1800.000
G0 Z5.000
G0 Z5.000
G0 X-149.180 Y-106.485
G0 X-178.990 Y-42.862
G0 X-178.990 Y-42.862 Z3.000
G1 X-178.990 Y-42.862 Z-1.000 F1400.000
G2 X-179.153 Y-42.926 Z-1.000 I-0.597 J1.275 K0.000 F1800.000
G2 X-180.022 Y-40.249 Z-1.000 I-0.435 J1.339 K0.000 F1800.000
G2 X-178.990 Y-42.862 Z-1.000 I0.435 J-1.339 K0.000 F1800.000
G0 Z5.000
G0 Z5.000
(Finish operation: Profile009)
(Begin operation: Profile010)
(Path: Profile010)
(Profile010)
(Compensated Tool Path. Diameter: 3.175)
G0 Z5.000
G0 X-25.174 Y-21.327
G0 Z3.000
G1 X-25.174 Y-21.327 Z-3.200 F1400.000
G2 X-25.175 Y-21.403 Z-3.200 I-0.046 J-0.038 K0.000 F1800.000
G1 X-25.175 Y-27.642 Z-3.200 F1800.000
G2 X-25.186 Y-27.724 Z-3.200 I-0.047 J-0.036 K0.000 F1800.000
G2 X-25.190 Y-27.724 Z-3.200 I-0.002 J0.004 K0.000 F1800.000
G3 X-26.788 Y-26.132 Z-3.200 I-1.637 J-0.045 K0.000 F1800.000
G1 X-45.388 Y-26.132 Z-3.200 F1800.000
G3 X-46.984 Y-27.720 Z-3.200 I0.006 J-1.603 K0.000 F1800.000
G2 X-46.989 Y-27.723 Z-3.200 I-0.004 J0.001 K0.000 F1800.000
G2 X-47.000 Y-27.637 Z-3.200 I0.034 J0.049 K0.000 F1800.000
G1 X-47.000 Y-21.403 Z-3.200 F1800.000
G1 X-46.991 Y-21.319 Z-3.200 F1800.000
G2 X-46.986 Y-21.316 Z-3.200 I0.004 J-0.001 K0.000 F1800.000
G3 X-45.388 Y-22.907 Z-3.200 I1.641 J0.050 K0.000 F1800.000
G1 X-26.788 Y-22.907 Z-3.200 F1800.000
G3 X-25.191 Y-21.319 Z-3.200 I-0.006 J1.603 K0.000 F1800.000
G2 X-25.186 Y-21.316 Z-3.200 I0.004 J-0.001 K0.000 F1800.000
G2 X-25.174 Y-21.327 Z-3.200 I-0.034 J-0.049 K0.000 F1800.000
G1 X-25.174 Y-21.327 Z-6.400 F1400.000
G2 X-25.175 Y-21.403 Z-6.400 I-0.046 J-0.038 K0.000 F1800.000
G1 X-25.175 Y-27.642 Z-6.400 F1800.000
G2 X-25.186 Y-27.724 Z-6.400 I-0.047 J-0.036 K0.000 F1800.000
G2 X-25.190 Y-27.724 Z-6.400 I-0.002 J0.004 K0.000 F1800.000
G3 X-26.788 Y-26.132 Z-6.400 I-1.637 J-0.045 K0.000 F1800.000
G1 X-45.388 Y-26.132 Z-6.400 F1800.000
G3 X-46.984 Y-27.720 Z-6.400 I0.006 J-1.603 K0.000 F1800.000
G2 X-46.989 Y-27.723 Z-6.400 I-0.004 J0.001 K0.000 F1800.000
G2 X-47.000 Y-27.637 Z-6.400 I0.034 J0.049 K0.000 F1800.000
G1 X-47.000 Y-21.403 Z-6.400 F1800.000
G1 X-46.991 Y-21.319 Z-6.400 F1800.000
G2 X-46.986 Y-21.316 Z-6.400 I0.004 J-0.001 K0.000 F1800.000
G3 X-45.388 Y-22.907 Z-6.400 I1.641 J0.050 K0.000 F1800.000
G1 X-26.788 Y-22.907 Z-6.400 F1800.000
G3 X-25.191 Y-21.319 Z-6.400 I-0.006 J1.603 K0.000 F1800.000
G2 X-25.186 Y-21.316 Z-6.400 I0.004 J-0.001 K0.000 F1800.000
G2 X-25.174 Y-21.327 Z-6.400 I-0.034 J-0.049 K0.000 F1800.000
G0 Z5.000
G0 Z5.000
G0 X-25.174 Y-21.327
G0 X-85.156 Y-21.360
G0 X-85.156 Y-21.360 Z3.000
G1 X-85.156 Y-21.360 Z-3.200 F1400.000
G2 X-85.175 Y-21.398 Z-3.200 I-0.048 J-0.000 K0.000 F1800.000
G1 X-85.175 Y-27.637 Z-3.200 F1800.000
G2 X-85.186 Y-27.723 Z-3.200 I-0.065 J-0.036 K0.000 F1800.000
G2 X-85.189 Y-27.723 Z-3.200 I-0.002 J0.003 K0.000 F1800.000
G3 X-86.787 Y-26.132 Z-3.200 I-1.641 J-0.050 K0.000 F1800.000
G1 X-105.388 Y-26.132 Z-3.200 F1800.000
G3 X-106.984 Y-27.720 Z-3.200 I0.006 J-1.603 K0.000 F1800.000
G2 X-106.989 Y-27.723 Z-3.200 I-0.004 J0.001 K0.000 F1800.000
G2 X-107.000 Y-27.637 Z-3.200 I0.034 J0.049 K0.000 F1800.000
G1 X-107.000 Y-21.398 Z-3.200 F1800.000
G1 X-106.992 Y-21.319 Z-3.200 F1800.000
G2 X-106.985 Y-21.316 Z-3.200 I0.005 J-0.001 K0.000 F1800.000
G3 X-105.388 Y-22.907 Z-3.200 I1.637 J0.045 K0.000 F1800.000
G1 X-86.787 Y-22.907 Z-3.200 F1800.000
G3 X-85.192 Y-21.319 Z-3.200 I-0.006 J1.601 K0.000 F1800.000
G2 X-85.188 Y-21.315 Z-3.200 I0.005 J-0.001 K0.000 F1800.000
G2 X-85.156 Y-21.360 Z-3.200 I-0.017 J-0.045 K0.000 F1800.000
G1 X-85.156 Y-21.360 Z-6.400 F1400.000
G2 X-85.175 Y-21.398 Z-6.400 I-0.048 J-0.000 K0.000 F1800.000
G1 X-85.175 Y-27.637 Z-6.400 F1800.000
G2 X-85.186 Y-27.723 Z-6.400 I-0.065 J-0.036 K0.000 F1800.000
G2 X-85.189 Y-27.723 Z-6.400 I-0.002 J0.003 K0.000 F1800.000
G3 X-86.787 Y-26.132 Z-6.400 I-1.641 J-0.050 K0.000 F1800.000
G1 X-105.388 Y-26.132 Z-6.400 F1800.000
G3 X-106.984 Y-27.720 Z-6.400 I0.006 J-1.603 K0.000 F1800.000
G2 X-106.989 Y-27.723 Z-6.400 I-0.004 J0.001 K0.000 F1800.000
G2 X-107.000 Y-27.637 Z-6.400 I0.034 J0.049 K0.000 F1800.000
G1 X-107.000 Y-21.398 Z-6.400 F1800.000
G1 X-106.992 Y-21.319 Z-6.400 F1800.000
G2 X-106.985 Y-21.316 Z-6.400 I0.005 J-0.001 K0.000 F1800.000
G3 X-105.388 Y-22.907 Z-6.400 I1.637 J0.045 K0.000 F1800.000
G1 X-86.787 Y-22.907 Z-6.400 F1800.000
G3 X-85.192 Y-21.319 Z-6.400 I-0.006 J1.601 K0.000 F1800.000
G2 X-85.188 Y-21.315 Z-6.400 I0.005 J-0.001 K0.000 F1800.000
G2 X-85.156 Y-21.360 Z-6.400 I-0.017 J-0.045 K0.000 F1800.000
G0 Z5.000
G0 Z5.000
G0 X-85.156 Y-21.360
G0 Y-46.325
G0 Y-46.325 Z3.000
G1 X-85.156 Y-46.325 Z-3.200 F1400.000
G1 X-82.765 Y-46.325 Z-3.200 F1800.000
G2 X-82.675 Y-46.415 Z-3.200 I0.035 J-0.055 K0.000 F1800.000
G1 X-82.675 Y-93.059 Z-3.200 F1800.000
G2 X-82.765 Y-93.150 Z-3.200 I-0.055 J-0.035 K0.000 F1800.000
G1 X-109.410 Y-93.150 Z-3.200 F1800.000
G2 X-109.500 Y-93.059 Z-3.200 I-0.035 J0.055 K0.000 F1800.000
G1 X-109.500 Y-46.415 Z-3.200 F1800.000
G2 X-109.410 Y-46.325 Z-3.200 I0.055 J0.035 K0.000 F1800.000
G1 X-85.156 Y-46.325 Z-3.200 F1800.000
G1 X-85.156 Y-46.325 Z-6.400 F1400.000
G1 X-82.765 Y-46.325 Z-6.400 F1800.000
G2 X-82.675 Y-46.415 Z-6.400 I0.035 J-0.055 K0.000 F1800.000
G1 X-82.675 Y-93.059 Z-6.400 F1800.000
G2 X-82.765 Y-93.150 Z-6.400 I-0.055 J-0.035 K0.000 F1800.000
G1 X-109.410 Y-93.150 Z-6.400 F1800.000
G2 X-109.500 Y-93.059 Z-6.400 I-0.035 J0.055 K0.000 F1800.000
G1 X-109.500 Y-46.415 Z-6.400 F1800.000
G2 X-109.410 Y-46.325 Z-6.400 I0.055 J0.035 K0.000 F1800.000
G1 X-85.156 Y-46.325 Z-6.400 F1800.000
G0 Z5.000
G0 Z5.000
G0 X-85.156 Y-46.325
G0 X-145.169 Y-27.694
G0 X-145.169 Y-27.694 Z3.000
G1 X-145.169 Y-27.694 Z-3.200 F1400.000
G2 X-145.186 Y-27.723 Z-3.200 I-0.071 J0.022 K0.000 F1800.000
G2 X-145.189 Y-27.723 Z-3.200 I-0.002 J0.003 K0.000 F1800.000
G3 X-146.787 Y-26.132 Z-3.200 I-1.641 J-0.050 K0.000 F1800.000
G1 X-165.387 Y-26.132 Z-3.200 F1800.000
G3 X-166.984 Y-27.720 Z-3.200 I0.006 J-1.603 K0.000 F1800.000
G2 X-166.989 Y-27.723 Z-3.200 I-0.004 J0.001 K0.000 F1800.000
G2 X-167.000 Y-27.637 Z-3.200 I0.034 J0.049 K0.000 F1800.000
G1 X-167.000 Y-21.403 Z-3.200 F1800.000
G1 X-166.991 Y-21.319 Z-3.200 F1800.000
G2 X-166.986 Y-21.316 Z-3.200 I0.004 J-0.001 K0.000 F1800.000
G3 X-165.387 Y-22.907 Z-3.200 I1.641 J0.050 K0.000 F1800.000
G1 X-146.787 Y-22.907 Z-3.200 F1800.000
G3 X-145.191 Y-21.319 Z-3.200 I-0.006 J1.603 K0.000 F1800.000
G2 X-145.186 Y-21.316 Z-3.200 I0.004 J-0.001 K0.000 F1800.000
G2 X-145.175 Y-21.403 Z-3.200 I-0.034 J-0.049 K0.000 F1800.000
G1 X-145.175 Y-27.637 Z-3.200 F1800.000
G2 X-145.169 Y-27.694 Z-3.200 I-0.065 J-0.036 K0.000 F1800.000
G1 X-145.169 Y-27.694 Z-6.400 F1400.000
G2 X-145.186 Y-27.723 Z-6.400 I-0.071 J0.022 K0.000 F1800.000
G2 X-145.189 Y-27.723 Z-6.400 I-0.002 J0.003 K0.000 F1800.000
G3 X-146.787 Y-26.132 Z-6.400 I-1.641 J-0.050 K0.000 F1800.000
G1 X-165.387 Y-26.132 Z-6.400 F1800.000
G3 X-166.984 Y-27.720 Z-6.400 I0.006 J-1.603 K0.000 F1800.000
G2 X-166.989 Y-27.723 Z-6.400 I-0.004 J0.001 K0.000 F1800.000
G2 X-167.000 Y-27.637 Z-6.400 I0.034 J0.049 K0.000 F1800.000
G1 X-167.000 Y-21.403 Z-6.400 F1800.000
G1 X-166.991 Y-21.319 Z-6.400 F1800.000
G2 X-166.986 Y-21.316 Z-6.400 I0.004 J-0.001 K0.000 F1800.000
G3 X-165.387 Y-22.907 Z-6.400 I1.641 J0.050 K0.000 F1800.000
G1 X-146.787 Y-22.907 Z-6.400 F1800.000
G3 X-145.191 Y-21.319 Z-6.400 I-0.006 J1.603 K0.000 F1800.000
G2 X-145.186 Y-21.316 Z-6.400 I0.004 J-0.001 K0.000 F1800.000
G2 X-145.175 Y-21.403 Z-6.400 I-0.034 J-0.049 K0.000 F1800.000
G1 X-145.175 Y-27.637 Z-6.400 F1800.000
G2 X-145.169 Y-27.694 Z-6.400 I-0.065 J-0.036 K0.000 F1800.000
G0 Z5.000
G0 Z5.000
(Finish operation: Profile010)
(Begin operation: Profile011)
(Path: Profile011)
(Profile011)
(Compensated Tool Path. Diameter: 3.175)
G0 Z5.000
G0 X-0.762 Y-0.762
G0 Z3.000
G1 X-0.762 Y-0.762 Z-3.200 F1400.000
G2 X0.000 Y-2.587 Z-3.200 I-1.839 J-1.839 K0.000 F1800.000
G1 X0.000 Y-116.502 Z-3.200 F1800.000
G2 X-2.587 Y-119.089 Z-3.200 I-2.600 J0.013 K0.000 F1800.000
G1 X-189.588 Y-119.089 Z-3.200 F1800.000
G2 X-192.175 Y-116.502 Z-3.200 I0.013 J2.600 K0.000 F1800.000
G1 X-192.175 Y-2.587 Z-3.200 F1800.000
G2 X-189.588 Y0.000 Z-3.200 I2.600 J-0.013 K0.000 F1800.000
G1 X-168.488 Y0.000 Z-3.200 F1800.000
G2 X-165.308 Y-3.032 Z-3.200 I-0.007 J-3.191 K0.000 F1800.000
G1 X-165.300 Y-12.409 Z-3.200 F1800.000
G3 X-165.210 Y-12.500 Z-3.200 I0.056 J-0.035 K0.000 F1800.000
G1 X-148.565 Y-12.500 Z-3.200 F1800.000
G3 X-148.475 Y-12.410 Z-3.200 I0.035 J0.055 K0.000 F1800.000
G1 X-148.475 Y-3.188 Z-3.200 F1800.000
G2 X-145.443 Y-0.008 Z-3.200 I3.191 J-0.007 K0.000 F1800.000
G1 X-46.888 Y0.000 Z-3.200 F1800.000
G2 X-43.708 Y-3.032 Z-3.200 I-0.007 J-3.191 K0.000 F1800.000
G1 X-43.700 Y-12.409 Z-3.200 F1800.000
G3 X-43.610 Y-12.500 Z-3.200 I0.056 J-0.035 K0.000 F1800.000
G1 X-26.965 Y-12.500 Z-3.200 F1800.000
G3 X-26.875 Y-12.410 Z-3.200 I0.035 J0.055 K0.000 F1800.000
G1 X-26.875 Y-3.188 Z-3.200 F1800.000
G2 X-23.843 Y-0.008 Z-3.200 I3.191 J-0.007 K0.000 F1800.000
G1 X-2.587 Y0.000 Z-3.200 F1800.000
G2 X-0.762 Y-0.762 Z-3.200 I-0.013 J-2.600 K0.000 F1800.000
G1 X-0.762 Y-0.762 Z-6.400 F1400.000
G2 X0.000 Y-2.587 Z-6.400 I-1.839 J-1.839 K0.000 F1800.000
G1 X0.000 Y-116.502 Z-6.400 F1800.000
G2 X-2.587 Y-119.089 Z-6.400 I-2.600 J0.013 K0.000 F1800.000
G1 X-189.588 Y-119.089 Z-6.400 F1800.000
G2 X-192.175 Y-116.502 Z-6.400 I0.013 J2.600 K0.000 F1800.000
G1 X-192.175 Y-2.587 Z-6.400 F1800.000
G2 X-189.588 Y0.000 Z-6.400 I2.600 J-0.013 K0.000 F1800.000
G1 X-168.488 Y0.000 Z-6.400 F1800.000
G2 X-165.308 Y-3.032 Z-6.400 I-0.007 J-3.191 K0.000 F1800.000
G1 X-165.300 Y-12.409 Z-6.400 F1800.000
G3 X-165.210 Y-12.500 Z-6.400 I0.056 J-0.035 K0.000 F1800.000
G1 X-148.565 Y-12.500 Z-6.400 F1800.000
G3 X-148.475 Y-12.410 Z-6.400 I0.035 J0.055 K0.000 F1800.000
G1 X-148.475 Y-3.188 Z-6.400 F1800.000
G2 X-145.443 Y-0.008 Z-6.400 I3.191 J-0.007 K0.000 F1800.000
G1 X-46.888 Y0.000 Z-6.400 F1800.000
G2 X-43.708 Y-3.032 Z-6.400 I-0.007 J-3.191 K0.000 F1800.000
G1 X-43.700 Y-12.409 Z-6.400 F1800.000
G3 X-43.610 Y-12.500 Z-6.400 I0.056 J-0.035 K0.000 F1800.000
G1 X-26.965 Y-12.500 Z-6.400 F1800.000
G3 X-26.875 Y-12.410 Z-6.400 I0.035 J0.055 K0.000 F1800.000
G1 X-26.875 Y-3.188 Z-6.400 F1800.000
G2 X-23.843 Y-0.008 Z-6.400 I3.191 J-0.007 K0.000 F1800.000
G1 X-2.587 Y0.000 Z-6.400 F1800.000
G2 X-0.762 Y-0.762 Z-6.400 I-0.013 J-2.600 K0.000 F1800.000
G0 Z5.000
G0 Z5.000
(Finish operation: Profile011)
(Begin postamble)
M5
G17 G90
M2
