(Exported by FreeCAD)
(Post Processor: grbl_post)
(Output Time:2024-03-01 21:15:53.410723)
(Begin preamble)
G17 G90
G21
(Begin operation: Fixture)
(Path: Fixture)
G54
(Finish operation: Fixture)
(Begin operation: 1/8th in Endmill021)
(Path: 1/8th in Endmill021)
(1/8th in Endmill021)
(Begin toolchange)
( M6 T2 )
(Finish operation: 1/8th in Endmill021)
(Begin operation: Profile027)
(Path: Profile027)
(Profile027)
(Compensated Tool Path. Diameter: 3.175)
G0 Z5.000
G0 X-11.304 Y-56.640
G0 Z3.000
G1 X-11.304 Y-56.640 Z-3.200 F1400.000
G2 X-11.509 Y-57.335 Z-3.200 I-0.292 J-0.291 K0.000 F1800.000
G3 X-13.175 Y-58.938 Z-3.200 I-0.048 J-1.618 K0.000 F1800.000
G1 X-13.175 Y-80.937 Z-3.200 F1800.000
G3 X-11.509 Y-82.540 Z-3.200 I1.616 J0.012 K0.000 F1800.000
G2 X-11.665 Y-83.350 Z-3.200 I-0.087 J-0.403 K0.000 F1800.000
G1 X-17.610 Y-83.350 Z-3.200 F1800.000
G2 X-17.766 Y-82.540 Z-3.200 I-0.069 J0.407 K0.000 F1800.000
G3 X-16.100 Y-80.937 Z-3.200 I0.048 J1.618 K0.000 F1800.000
G1 X-16.100 Y-58.938 Z-3.200 F1800.000
G3 X-17.766 Y-57.335 Z-3.200 I-1.616 J-0.012 K0.000 F1800.000
G2 X-17.610 Y-56.525 Z-3.200 I0.087 J0.403 K0.000 F1800.000
G1 X-11.665 Y-56.525 Z-3.200 F1800.000
G2 X-11.304 Y-56.640 Z-3.200 I0.069 J-0.407 K0.000 F1800.000
G1 X-11.304 Y-56.640 Z-6.400 F1400.000
G2 X-11.509 Y-57.335 Z-6.400 I-0.292 J-0.291 K0.000 F1800.000
G3 X-13.175 Y-58.938 Z-6.400 I-0.048 J-1.618 K0.000 F1800.000
G1 X-13.175 Y-80.937 Z-6.400 F1800.000
G3 X-11.509 Y-82.540 Z-6.400 I1.616 J0.012 K0.000 F1800.000
G2 X-11.665 Y-83.350 Z-6.400 I-0.087 J-0.403 K0.000 F1800.000
G1 X-17.610 Y-83.350 Z-6.400 F1800.000
G2 X-17.766 Y-82.540 Z-6.400 I-0.069 J0.407 K0.000 F1800.000
G3 X-16.100 Y-80.937 Z-6.400 I0.048 J1.618 K0.000 F1800.000
G1 X-16.100 Y-58.938 Z-6.400 F1800.000
G3 X-17.766 Y-57.335 Z-6.400 I-1.616 J-0.012 K0.000 F1800.000
G2 X-17.610 Y-56.525 Z-6.400 I0.087 J0.403 K0.000 F1800.000
G1 X-11.665 Y-56.525 Z-6.400 F1800.000
G2 X-11.304 Y-56.640 Z-6.400 I0.069 J-0.407 K0.000 F1800.000
G0 Z5.000
G0 Z5.000
G0 X-11.304 Y-56.640
G0 X-59.534 Y-27.588
G0 X-59.534 Y-27.588 Z3.000
G1 X-59.534 Y-27.588 Z-3.200 F1400.000
G2 X-59.539 Y-27.591 Z-3.200 I-0.004 J0.001 K0.000 F1800.000
G3 X-61.138 Y-26.000 Z-3.200 I-1.641 J-0.050 K0.000 F1800.000
G1 X-99.737 Y-26.000 Z-3.200 F1800.000
G3 X-101.334 Y-27.588 Z-3.200 I0.006 J-1.603 K0.000 F1800.000
G2 X-101.336 Y-27.591 Z-3.200 I-0.004 J0.001 K0.000 F1800.000
G2 X-101.339 Y-27.591 Z-3.200 I-0.002 J0.003 K0.000 F1800.000
G2 X-101.350 Y-27.504 Z-3.200 I0.034 J0.049 K0.000 F1800.000
G1 X-101.350 Y-7.671 Z-3.200 F1800.000
G1 X-101.341 Y-7.587 Z-3.200 F1800.000
G2 X-101.336 Y-7.584 Z-3.200 I0.004 J-0.001 K0.000 F1800.000
G3 X-99.737 Y-9.175 Z-3.200 I1.641 J0.050 K0.000 F1800.000
G1 X-81.137 Y-9.175 Z-3.200 F1800.000
G3 X-79.542 Y-7.587 Z-3.200 I-0.006 J1.601 K0.000 F1800.000
G2 X-79.538 Y-7.583 Z-3.200 I0.005 J-0.001 K0.000 F1800.000
G2 X-79.525 Y-7.665 Z-3.200 I-0.017 J-0.045 K0.000 F1800.000
G1 X-79.525 Y-20.687 Z-3.200 F1800.000
G3 X-76.938 Y-23.275 Z-3.200 I2.600 J0.013 K0.000 F1800.000
G1 X-61.138 Y-23.275 Z-3.200 F1800.000
G3 X-59.542 Y-21.687 Z-3.200 I-0.006 J1.601 K0.000 F1800.000
G2 X-59.538 Y-21.683 Z-3.200 I0.005 J-0.001 K0.000 F1800.000
G2 X-59.525 Y-21.765 Z-3.200 I-0.017 J-0.045 K0.000 F1800.000
G1 X-59.525 Y-27.504 Z-3.200 F1800.000
G1 X-59.534 Y-27.588 Z-3.200 F1800.000
G1 X-59.534 Y-27.588 Z-6.400 F1400.000
G2 X-59.539 Y-27.591 Z-6.400 I-0.004 J0.001 K0.000 F1800.000
G3 X-61.138 Y-26.000 Z-6.400 I-1.641 J-0.050 K0.000 F1800.000
G1 X-99.737 Y-26.000 Z-6.400 F1800.000
G3 X-101.334 Y-27.588 Z-6.400 I0.006 J-1.603 K0.000 F1800.000
G2 X-101.336 Y-27.591 Z-6.400 I-0.004 J0.001 K0.000 F1800.000
G2 X-101.339 Y-27.591 Z-6.400 I-0.002 J0.003 K0.000 F1800.000
G2 X-101.350 Y-27.504 Z-6.400 I0.034 J0.049 K0.000 F1800.000
G1 X-101.350 Y-7.671 Z-6.400 F1800.000
G1 X-101.341 Y-7.587 Z-6.400 F1800.000
G2 X-101.336 Y-7.584 Z-6.400 I0.004 J-0.001 K0.000 F1800.000
G3 X-99.737 Y-9.175 Z-6.400 I1.641 J0.050 K0.000 F1800.000
G1 X-81.137 Y-9.175 Z-6.400 F1800.000
G3 X-79.542 Y-7.587 Z-6.400 I-0.006 J1.601 K0.000 F1800.000
G2 X-79.538 Y-7.583 Z-6.400 I0.005 J-0.001 K0.000 F1800.000
G2 X-79.525 Y-7.665 Z-6.400 I-0.017 J-0.045 K0.000 F1800.000
G1 X-79.525 Y-20.687 Z-6.400 F1800.000
G3 X-76.938 Y-23.275 Z-6.400 I2.600 J0.013 K0.000 F1800.000
G1 X-61.138 Y-23.275 Z-6.400 F1800.000
G3 X-59.542 Y-21.687 Z-6.400 I-0.006 J1.601 K0.000 F1800.000
G2 X-59.538 Y-21.683 Z-6.400 I0.005 J-0.001 K0.000 F1800.000
G2 X-59.525 Y-21.765 Z-6.400 I-0.017 J-0.045 K0.000 F1800.000
G1 X-59.525 Y-27.504 Z-6.400 F1800.000
G1 X-59.534 Y-27.588 Z-6.400 F1800.000
G0 Z5.000
G0 Z5.000
G0 X-59.534 Y-27.588
G0 X-109.036 Y-21.495
G0 X-109.036 Y-21.495 Z3.000
G1 X-109.036 Y-21.495 Z-3.200 F1400.000
G2 X-110.123 Y-22.818 Z-3.200 I-1.585 J0.195 K0.000 F1800.000
G2 X-112.205 Y-21.188 Z-3.200 I-0.486 J1.523 K0.000 F1800.000
G3 X-114.288 Y-19.225 Z-3.200 I-2.082 J-0.123 K0.000 F1800.000
G1 X-121.587 Y-19.225 Z-3.200 F1800.000
G3 X-123.261 Y-20.077 Z-3.200 I-0.005 J-2.060 K0.000 F1800.000
G3 X-123.699 Y-21.560 Z-3.200 I2.048 J-1.412 K0.000 F1800.000
G2 X-126.850 Y-21.250 Z-3.200 I-1.566 J0.251 K0.000 F1800.000
G1 X-126.850 Y-14.875 Z-3.200 F1800.000
G1 X-126.826 Y-14.565 Z-3.200 F1800.000
G2 X-123.670 Y-14.937 Z-3.200 I1.570 J-0.255 K0.000 F1800.000
G3 X-121.587 Y-16.900 Z-3.200 I2.082 J0.123 K0.000 F1800.000
G1 X-114.288 Y-16.900 Z-3.200 F1800.000
G3 X-112.614 Y-16.048 Z-3.200 I0.005 J2.060 K0.000 F1800.000
G3 X-112.176 Y-14.565 Z-3.200 I-2.048 J1.412 K0.000 F1800.000
G2 X-109.025 Y-14.875 Z-3.200 I1.566 J-0.251 K0.000 F1800.000
G1 X-109.025 Y-21.250 Z-3.200 F1800.000
G2 X-109.036 Y-21.495 Z-3.200 I-1.597 J-0.050 K0.000 F1800.000
G1 X-109.036 Y-21.495 Z-6.400 F1400.000
G2 X-110.123 Y-22.818 Z-6.400 I-1.585 J0.195 K0.000 F1800.000
G2 X-112.205 Y-21.188 Z-6.400 I-0.486 J1.523 K0.000 F1800.000
G3 X-114.288 Y-19.225 Z-6.400 I-2.082 J-0.123 K0.000 F1800.000
G1 X-121.587 Y-19.225 Z-6.400 F1800.000
G3 X-123.261 Y-20.077 Z-6.400 I-0.005 J-2.060 K0.000 F1800.000
G3 X-123.699 Y-21.560 Z-6.400 I2.048 J-1.412 K0.000 F1800.000
G2 X-126.850 Y-21.250 Z-6.400 I-1.566 J0.251 K0.000 F1800.000
G1 X-126.850 Y-14.875 Z-6.400 F1800.000
G1 X-126.826 Y-14.565 Z-6.400 F1800.000
G2 X-123.670 Y-14.937 Z-6.400 I1.570 J-0.255 K0.000 F1800.000
G3 X-121.587 Y-16.900 Z-6.400 I2.082 J0.123 K0.000 F1800.000
G1 X-114.288 Y-16.900 Z-6.400 F1800.000
G3 X-112.614 Y-16.048 Z-6.400 I0.005 J2.060 K0.000 F1800.000
G3 X-112.176 Y-14.565 Z-6.400 I-2.048 J1.412 K0.000 F1800.000
G2 X-109.025 Y-14.875 Z-6.400 I1.566 J-0.251 K0.000 F1800.000
G1 X-109.025 Y-21.250 Z-6.400 F1800.000
G2 X-109.036 Y-21.495 Z-6.400 I-1.597 J-0.050 K0.000 F1800.000
G0 Z5.000
G0 Z5.000
G0 X-109.036 Y-21.495
G0 X-134.525
G0 X-134.525 Z3.000
G1 X-134.525 Y-21.495 Z-3.200 F1400.000
G1 X-134.525 Y-27.504 Z-3.200 F1800.000
G2 X-134.536 Y-27.591 Z-3.200 I-0.065 J-0.036 K0.000 F1800.000
G2 X-134.539 Y-27.591 Z-3.200 I-0.002 J0.003 K0.000 F1800.000
G3 X-136.138 Y-26.000 Z-3.200 I-1.641 J-0.050 K0.000 F1800.000
G1 X-174.737 Y-26.000 Z-3.200 F1800.000
G3 X-176.334 Y-27.588 Z-3.200 I0.006 J-1.603 K0.000 F1800.000
G2 X-176.339 Y-27.591 Z-3.200 I-0.004 J0.001 K0.000 F1800.000
G2 X-176.350 Y-27.504 Z-3.200 I0.034 J0.049 K0.000 F1800.000
G1 X-176.350 Y-21.765 Z-3.200 F1800.000
G1 X-176.342 Y-21.687 Z-3.200 F1800.000
G2 X-176.335 Y-21.683 Z-3.200 I0.005 J-0.001 K0.000 F1800.000
G3 X-174.737 Y-23.275 Z-3.200 I1.637 J0.045 K0.000 F1800.000
G1 X-158.937 Y-23.275 Z-3.200 F1800.000
G3 X-156.350 Y-20.687 Z-3.200 I-0.013 J2.600 K0.000 F1800.000
G1 X-156.350 Y-7.665 Z-3.200 F1800.000
G1 X-156.342 Y-7.587 Z-3.200 F1800.000
G2 X-156.335 Y-7.583 Z-3.200 I0.005 J-0.001 K0.000 F1800.000
G3 X-154.738 Y-9.175 Z-3.200 I1.637 J0.045 K0.000 F1800.000
G1 X-136.138 Y-9.175 Z-3.200 F1800.000
G3 X-134.541 Y-7.587 Z-3.200 I-0.006 J1.603 K0.000 F1800.000
G2 X-134.536 Y-7.584 Z-3.200 I0.004 J-0.001 K0.000 F1800.000
G2 X-134.525 Y-7.671 Z-3.200 I-0.034 J-0.049 K0.000 F1800.000
G1 X-134.525 Y-21.495 Z-3.200 F1800.000
G1 X-134.525 Y-21.495 Z-6.400 F1400.000
G1 X-134.525 Y-27.504 Z-6.400 F1800.000
G2 X-134.536 Y-27.591 Z-6.400 I-0.065 J-0.036 K0.000 F1800.000
G2 X-134.539 Y-27.591 Z-6.400 I-0.002 J0.003 K0.000 F1800.000
G3 X-136.138 Y-26.000 Z-6.400 I-1.641 J-0.050 K0.000 F1800.000
G1 X-174.737 Y-26.000 Z-6.400 F1800.000
G3 X-176.334 Y-27.588 Z-6.400 I0.006 J-1.603 K0.000 F1800.000
G2 X-176.339 Y-27.591 Z-6.400 I-0.004 J0.001 K0.000 F1800.000
G2 X-176.350 Y-27.504 Z-6.400 I0.034 J0.049 K0.000 F1800.000
G1 X-176.350 Y-21.765 Z-6.400 F1800.000
G1 X-176.342 Y-21.687 Z-6.400 F1800.000
G2 X-176.335 Y-21.683 Z-6.400 I0.005 J-0.001 K0.000 F1800.000
G3 X-174.737 Y-23.275 Z-6.400 I1.637 J0.045 K0.000 F1800.000
G1 X-158.937 Y-23.275 Z-6.400 F1800.000
G3 X-156.350 Y-20.687 Z-6.400 I-0.013 J2.600 K0.000 F1800.000
G1 X-156.350 Y-7.665 Z-6.400 F1800.000
G1 X-156.342 Y-7.587 Z-6.400 F1800.000
G2 X-156.335 Y-7.583 Z-6.400 I0.005 J-0.001 K0.000 F1800.000
G3 X-154.738 Y-9.175 Z-6.400 I1.637 J0.045 K0.000 F1800.000
G1 X-136.138 Y-9.175 Z-6.400 F1800.000
G3 X-134.541 Y-7.587 Z-6.400 I-0.006 J1.603 K0.000 F1800.000
G2 X-134.536 Y-7.584 Z-6.400 I0.004 J-0.001 K0.000 F1800.000
G2 X-134.525 Y-7.671 Z-6.400 I-0.034 J-0.049 K0.000 F1800.000
G1 X-134.525 Y-21.495 Z-6.400 F1800.000
G0 Z5.000
G0 Z5.000
G0 X-134.525 Y-21.495
G0 X-217.817 Y-56.771
G0 X-217.817 Y-56.771 Z3.000
G1 X-217.817 Y-56.771 Z-3.200 F1400.000
G2 X-218.109 Y-57.335 Z-3.200 I-0.380 J-0.161 K0.000 F1800.000
G3 X-219.775 Y-58.938 Z-3.200 I-0.048 J-1.618 K0.000 F1800.000
G1 X-219.775 Y-80.937 Z-3.200 F1800.000
G3 X-218.109 Y-82.540 Z-3.200 I1.616 J0.012 K0.000 F1800.000
G2 X-218.265 Y-83.350 Z-3.200 I-0.087 J-0.403 K0.000 F1800.000
G1 X-224.210 Y-83.350 Z-3.200 F1800.000
G2 X-224.366 Y-82.540 Z-3.200 I-0.069 J0.407 K0.000 F1800.000
G3 X-222.700 Y-80.937 Z-3.200 I0.048 J1.618 K0.000 F1800.000
G1 X-222.700 Y-58.938 Z-3.200 F1800.000
G3 X-224.366 Y-57.335 Z-3.200 I-1.616 J-0.012 K0.000 F1800.000
G2 X-224.210 Y-56.525 Z-3.200 I0.087 J0.403 K0.000 F1800.000
G1 X-218.265 Y-56.525 Z-3.200 F1800.000
G2 X-217.817 Y-56.771 Z-3.200 I0.069 J-0.407 K0.000 F1800.000
G1 X-217.817 Y-56.771 Z-6.400 F1400.000
G2 X-218.109 Y-57.335 Z-6.400 I-0.380 J-0.161 K0.000 F1800.000
G3 X-219.775 Y-58.938 Z-6.400 I-0.048 J-1.618 K0.000 F1800.000
G1 X-219.775 Y-80.937 Z-6.400 F1800.000
G3 X-218.109 Y-82.540 Z-6.400 I1.616 J0.012 K0.000 F1800.000
G2 X-218.265 Y-83.350 Z-6.400 I-0.087 J-0.403 K0.000 F1800.000
G1 X-224.210 Y-83.350 Z-6.400 F1800.000
G2 X-224.366 Y-82.540 Z-6.400 I-0.069 J0.407 K0.000 F1800.000
G3 X-222.700 Y-80.937 Z-6.400 I0.048 J1.618 K0.000 F1800.000
G1 X-222.700 Y-58.938 Z-6.400 F1800.000
G3 X-224.366 Y-57.335 Z-6.400 I-1.616 J-0.012 K0.000 F1800.000
G2 X-224.210 Y-56.525 Z-6.400 I0.087 J0.403 K0.000 F1800.000
G1 X-218.265 Y-56.525 Z-6.400 F1800.000
G2 X-217.817 Y-56.771 Z-6.400 I0.069 J-0.407 K0.000 F1800.000
G0 Z5.000
G0 Z5.000
(Finish operation: Profile027)
(Begin operation: Profile028)
(Path: Profile028)
(Profile028)
(Compensated Tool Path. Diameter: 3.175)
G0 Z5.000
G0 X-11.304 Y-56.640
G0 Z3.000
G1 X-11.304 Y-56.640 Z-3.200 F1400.000
G3 X-11.665 Y-56.525 Z-3.200 I-0.292 J-0.291 K0.000 F1800.000
G1 X-17.610 Y-56.525 Z-3.200 F1800.000
G3 X-17.766 Y-57.335 Z-3.200 I-0.070 J-0.406 K0.000 F1800.000
G2 X-16.100 Y-58.938 Z-3.200 I0.051 J-1.615 K0.000 F1800.000
G1 X-16.100 Y-80.937 Z-3.200 F1800.000
G2 X-17.766 Y-82.540 Z-3.200 I-1.619 J0.015 K0.000 F1800.000
G3 X-17.610 Y-83.350 Z-3.200 I0.088 J-0.403 K0.000 F1800.000
G1 X-11.665 Y-83.350 Z-3.200 F1800.000
G3 X-11.509 Y-82.540 Z-3.200 I0.070 J0.406 K0.000 F1800.000
G2 X-13.175 Y-80.937 Z-3.200 I-0.051 J1.615 K0.000 F1800.000
G1 X-13.175 Y-58.938 Z-3.200 F1800.000
G2 X-11.509 Y-57.335 Z-3.200 I1.619 J-0.015 K0.000 F1800.000
G3 X-11.304 Y-56.640 Z-3.200 I-0.088 J0.403 K0.000 F1800.000
G1 X-11.304 Y-56.640 Z-6.400 F1400.000
G3 X-11.665 Y-56.525 Z-6.400 I-0.292 J-0.291 K0.000 F1800.000
G1 X-17.610 Y-56.525 Z-6.400 F1800.000
G3 X-17.766 Y-57.335 Z-6.400 I-0.070 J-0.406 K0.000 F1800.000
G2 X-16.100 Y-58.938 Z-6.400 I0.051 J-1.615 K0.000 F1800.000
G1 X-16.100 Y-80.937 Z-6.400 F1800.000
G2 X-17.766 Y-82.540 Z-6.400 I-1.619 J0.015 K0.000 F1800.000
G3 X-17.610 Y-83.350 Z-6.400 I0.088 J-0.403 K0.000 F1800.000
G1 X-11.665 Y-83.350 Z-6.400 F1800.000
G3 X-11.509 Y-82.540 Z-6.400 I0.070 J0.406 K0.000 F1800.000
G2 X-13.175 Y-80.937 Z-6.400 I-0.051 J1.615 K0.000 F1800.000
G1 X-13.175 Y-58.938 Z-6.400 F1800.000
G2 X-11.509 Y-57.335 Z-6.400 I1.619 J-0.015 K0.000 F1800.000
G3 X-11.304 Y-56.640 Z-6.400 I-0.088 J0.403 K0.000 F1800.000
G0 Z5.000
G0 Z5.000
G0 X-11.304 Y-56.640
G0 X-59.534 Y-27.588
G0 X-59.534 Y-27.588 Z3.000
G1 X-59.534 Y-27.588 Z-3.200 F1400.000
G1 X-59.525 Y-27.504 Z-3.200 F1800.000
G1 X-59.525 Y-21.765 Z-3.200 F1800.000
G3 X-59.538 Y-21.683 Z-3.200 I-0.029 J0.038 K0.000 F1800.000
G3 X-59.542 Y-21.687 Z-3.200 I-0.000 J-0.005 K0.000 F1800.000
G2 X-61.138 Y-23.275 Z-3.200 I-1.601 J0.013 K0.000 F1800.000
G1 X-76.938 Y-23.275 Z-3.200 F1800.000
G2 X-79.525 Y-20.687 Z-3.200 I0.013 J2.600 K0.000 F1800.000
G1 X-79.525 Y-7.665 Z-3.200 F1800.000
G3 X-79.538 Y-7.583 Z-3.200 I-0.029 J0.038 K0.000 F1800.000
G3 X-79.542 Y-7.587 Z-3.200 I-0.000 J-0.005 K0.000 F1800.000
G2 X-81.137 Y-9.175 Z-3.200 I-1.601 J0.013 K0.000 F1800.000
G1 X-99.737 Y-9.175 Z-3.200 F1800.000
G2 X-101.336 Y-7.584 Z-3.200 I0.043 J1.641 K0.000 F1800.000
G3 X-101.341 Y-7.587 Z-3.200 I-0.002 J-0.003 K0.000 F1800.000
G1 X-101.350 Y-7.671 Z-3.200 F1800.000
G1 X-101.350 Y-27.504 Z-3.200 F1800.000
G3 X-101.339 Y-27.591 Z-3.200 I0.045 J-0.038 K0.000 F1800.000
G3 X-101.336 Y-27.591 Z-3.200 I0.001 J0.004 K0.000 F1800.000
G3 X-101.334 Y-27.588 Z-3.200 I-0.002 J0.003 K0.000 F1800.000
G2 X-99.737 Y-26.000 Z-3.200 I1.603 J-0.014 K0.000 F1800.000
G1 X-61.138 Y-26.000 Z-3.200 F1800.000
G2 X-59.539 Y-27.591 Z-3.200 I-0.043 J-1.641 K0.000 F1800.000
G3 X-59.534 Y-27.588 Z-3.200 I0.002 J0.003 K0.000 F1800.000
G1 X-59.534 Y-27.588 Z-6.400 F1400.000
G1 X-59.525 Y-27.504 Z-6.400 F1800.000
G1 X-59.525 Y-21.765 Z-6.400 F1800.000
G3 X-59.538 Y-21.683 Z-6.400 I-0.029 J0.038 K0.000 F1800.000
G3 X-59.542 Y-21.687 Z-6.400 I-0.000 J-0.005 K0.000 F1800.000
G2 X-61.138 Y-23.275 Z-6.400 I-1.601 J0.013 K0.000 F1800.000
G1 X-76.938 Y-23.275 Z-6.400 F1800.000
G2 X-79.525 Y-20.687 Z-6.400 I0.013 J2.600 K0.000 F1800.000
G1 X-79.525 Y-7.665 Z-6.400 F1800.000
G3 X-79.538 Y-7.583 Z-6.400 I-0.029 J0.038 K0.000 F1800.000
G3 X-79.542 Y-7.587 Z-6.400 I-0.000 J-0.005 K0.000 F1800.000
G2 X-81.137 Y-9.175 Z-6.400 I-1.601 J0.013 K0.000 F1800.000
G1 X-99.737 Y-9.175 Z-6.400 F1800.000
G2 X-101.336 Y-7.584 Z-6.400 I0.043 J1.641 K0.000 F1800.000
G3 X-101.341 Y-7.587 Z-6.400 I-0.002 J-0.003 K0.000 F1800.000
G1 X-101.350 Y-7.671 Z-6.400 F1800.000
G1 X-101.350 Y-27.504 Z-6.400 F1800.000
G3 X-101.339 Y-27.591 Z-6.400 I0.045 J-0.038 K0.000 F1800.000
G3 X-101.336 Y-27.591 Z-6.400 I0.001 J0.004 K0.000 F1800.000
G3 X-101.334 Y-27.588 Z-6.400 I-0.002 J0.003 K0.000 F1800.000
G2 X-99.737 Y-26.000 Z-6.400 I1.603 J-0.014 K0.000 F1800.000
G1 X-61.138 Y-26.000 Z-6.400 F1800.000
G2 X-59.539 Y-27.591 Z-6.400 I-0.043 J-1.641 K0.000 F1800.000
G3 X-59.534 Y-27.588 Z-6.400 I0.002 J0.003 K0.000 F1800.000
G0 Z5.000
G0 Z5.000
G0 X-59.534 Y-27.588
G0 X-109.036 Y-21.495
G0 X-109.036 Y-21.495 Z3.000
G1 X-109.036 Y-21.495 Z-3.200 F1400.000
G3 X-109.025 Y-21.250 Z-3.200 I-1.585 J0.195 K0.000 F1800.000
G1 X-109.025 Y-14.875 Z-3.200 F1800.000
G3 X-112.176 Y-14.565 Z-3.200 I-1.585 J0.059 K0.000 F1800.000
G2 X-112.614 Y-16.048 Z-3.200 I-2.487 J-0.071 K0.000 F1800.000
G2 X-114.288 Y-16.900 Z-3.200 I-1.669 J1.208 K0.000 F1800.000
G1 X-121.587 Y-16.900 Z-3.200 F1800.000
G2 X-123.670 Y-14.937 Z-3.200 I-0.001 J2.086 K0.000 F1800.000
G3 X-126.826 Y-14.565 Z-3.200 I-1.586 J0.117 K0.000 F1800.000
G1 X-126.850 Y-14.875 Z-3.200 F1800.000
G1 X-126.850 Y-21.250 Z-3.200 F1800.000
G3 X-123.699 Y-21.560 Z-3.200 I1.585 J-0.059 K0.000 F1800.000
G2 X-123.261 Y-20.077 Z-3.200 I2.487 J0.071 K0.000 F1800.000
G2 X-121.587 Y-19.225 Z-3.200 I1.669 J-1.208 K0.000 F1800.000
G1 X-114.288 Y-19.225 Z-3.200 F1800.000
G2 X-112.205 Y-21.188 Z-3.200 I0.001 J-2.086 K0.000 F1800.000
G3 X-110.123 Y-22.818 Z-3.200 I1.595 J-0.107 K0.000 F1800.000
G3 X-109.036 Y-21.495 Z-3.200 I-0.498 J1.518 K0.000 F1800.000
G1 X-109.036 Y-21.495 Z-6.400 F1400.000
G3 X-109.025 Y-21.250 Z-6.400 I-1.585 J0.195 K0.000 F1800.000
G1 X-109.025 Y-14.875 Z-6.400 F1800.000
G3 X-112.176 Y-14.565 Z-6.400 I-1.585 J0.059 K0.000 F1800.000
G2 X-112.614 Y-16.048 Z-6.400 I-2.487 J-0.071 K0.000 F1800.000
G2 X-114.288 Y-16.900 Z-6.400 I-1.669 J1.208 K0.000 F1800.000
G1 X-121.587 Y-16.900 Z-6.400 F1800.000
G2 X-123.670 Y-14.937 Z-6.400 I-0.001 J2.086 K0.000 F1800.000
G3 X-126.826 Y-14.565 Z-6.400 I-1.586 J0.117 K0.000 F1800.000
G1 X-126.850 Y-14.875 Z-6.400 F1800.000
G1 X-126.850 Y-21.250 Z-6.400 F1800.000
G3 X-123.699 Y-21.560 Z-6.400 I1.585 J-0.059 K0.000 F1800.000
G2 X-123.261 Y-20.077 Z-6.400 I2.487 J0.071 K0.000 F1800.000
G2 X-121.587 Y-19.225 Z-6.400 I1.669 J-1.208 K0.000 F1800.000
G1 X-114.288 Y-19.225 Z-6.400 F1800.000
G2 X-112.205 Y-21.188 Z-6.400 I0.001 J-2.086 K0.000 F1800.000
G3 X-110.123 Y-22.818 Z-6.400 I1.595 J-0.107 K0.000 F1800.000
G3 X-109.036 Y-21.495 Z-6.400 I-0.498 J1.518 K0.000 F1800.000
G0 Z5.000
G0 Z5.000
G0 X-109.036 Y-21.495
G0 X-134.525
G0 X-134.525 Z3.000
G1 X-134.525 Y-21.495 Z-3.200 F1400.000
G1 X-134.525 Y-7.665 Z-3.200 F1800.000
G3 X-134.538 Y-7.583 Z-3.200 I-0.029 J0.038 K0.000 F1800.000
G3 X-134.542 Y-7.587 Z-3.200 I0.000 J-0.005 K0.000 F1800.000
G2 X-136.138 Y-9.175 Z-3.200 I-1.601 J0.013 K0.000 F1800.000
G1 X-154.738 Y-9.175 Z-3.200 F1800.000
G2 X-156.335 Y-7.583 Z-3.200 I0.039 J1.637 K0.000 F1800.000
G3 X-156.342 Y-7.587 Z-3.200 I-0.003 J-0.004 K0.000 F1800.000
G1 X-156.350 Y-7.665 Z-3.200 F1800.000
G1 X-156.350 Y-20.687 Z-3.200 F1800.000
G2 X-158.937 Y-23.275 Z-3.200 I-2.600 J0.013 K0.000 F1800.000
G1 X-174.737 Y-23.275 Z-3.200 F1800.000
G2 X-176.335 Y-21.683 Z-3.200 I0.039 J1.637 K0.000 F1800.000
G3 X-176.342 Y-21.687 Z-3.200 I-0.003 J-0.004 K0.000 F1800.000
G1 X-176.350 Y-21.765 Z-3.200 F1800.000
G1 X-176.350 Y-27.504 Z-3.200 F1800.000
G3 X-176.339 Y-27.591 Z-3.200 I0.045 J-0.038 K0.000 F1800.000
G3 X-176.334 Y-27.588 Z-3.200 I0.001 J0.004 K0.000 F1800.000
G2 X-174.737 Y-26.000 Z-3.200 I1.603 J-0.014 K0.000 F1800.000
G1 X-136.138 Y-26.000 Z-3.200 F1800.000
G2 X-134.540 Y-27.592 Z-3.200 I-0.039 J-1.637 K0.000 F1800.000
G3 X-134.536 Y-27.592 Z-3.200 I0.003 J0.004 K0.000 F1800.000
G3 X-134.525 Y-27.510 Z-3.200 I-0.036 J0.047 K0.000 F1800.000
G1 X-134.525 Y-21.495 Z-3.200 F1800.000
G1 X-134.525 Y-21.495 Z-6.400 F1400.000
G1 X-134.525 Y-7.665 Z-6.400 F1800.000
G3 X-134.538 Y-7.583 Z-6.400 I-0.029 J0.038 K0.000 F1800.000
G3 X-134.542 Y-7.587 Z-6.400 I0.000 J-0.005 K0.000 F1800.000
G2 X-136.138 Y-9.175 Z-6.400 I-1.601 J0.013 K0.000 F1800.000
G1 X-154.738 Y-9.175 Z-6.400 F1800.000
G2 X-156.335 Y-7.583 Z-6.400 I0.039 J1.637 K0.000 F1800.000
G3 X-156.342 Y-7.587 Z-6.400 I-0.003 J-0.004 K0.000 F1800.000
G1 X-156.350 Y-7.665 Z-6.400 F1800.000
G1 X-156.350 Y-20.687 Z-6.400 F1800.000
G2 X-158.937 Y-23.275 Z-6.400 I-2.600 J0.013 K0.000 F1800.000
G1 X-174.737 Y-23.275 Z-6.400 F1800.000
G2 X-176.335 Y-21.683 Z-6.400 I0.039 J1.637 K0.000 F1800.000
G3 X-176.342 Y-21.687 Z-6.400 I-0.003 J-0.004 K0.000 F1800.000
G1 X-176.350 Y-21.765 Z-6.400 F1800.000
G1 X-176.350 Y-27.504 Z-6.400 F1800.000
G3 X-176.339 Y-27.591 Z-6.400 I0.045 J-0.038 K0.000 F1800.000
G3 X-176.334 Y-27.588 Z-6.400 I0.001 J0.004 K0.000 F1800.000
G2 X-174.737 Y-26.000 Z-6.400 I1.603 J-0.014 K0.000 F1800.000
G1 X-136.138 Y-26.000 Z-6.400 F1800.000
G2 X-134.540 Y-27.592 Z-6.400 I-0.039 J-1.637 K0.000 F1800.000
G3 X-134.536 Y-27.592 Z-6.400 I0.003 J0.004 K0.000 F1800.000
G3 X-134.525 Y-27.510 Z-6.400 I-0.036 J0.047 K0.000 F1800.000
G1 X-134.525 Y-21.495 Z-6.400 F1800.000
G0 Z5.000
G0 Z5.000
G0 X-134.525 Y-21.495
G0 X-217.817 Y-56.771
G0 X-217.817 Y-56.771 Z3.000
G1 X-217.817 Y-56.771 Z-3.200 F1400.000
G3 X-218.265 Y-56.525 Z-3.200 I-0.380 J-0.161 K0.000 F1800.000
G1 X-224.210 Y-56.525 Z-3.200 F1800.000
G3 X-224.366 Y-57.335 Z-3.200 I-0.070 J-0.406 K0.000 F1800.000
G2 X-222.700 Y-58.938 Z-3.200 I0.051 J-1.615 K0.000 F1800.000
G1 X-222.700 Y-80.937 Z-3.200 F1800.000
G2 X-224.366 Y-82.540 Z-3.200 I-1.619 J0.015 K0.000 F1800.000
G3 X-224.210 Y-83.350 Z-3.200 I0.088 J-0.403 K0.000 F1800.000
G1 X-218.265 Y-83.350 Z-3.200 F1800.000
G3 X-218.109 Y-82.540 Z-3.200 I0.070 J0.406 K0.000 F1800.000
G2 X-219.775 Y-80.937 Z-3.200 I-0.051 J1.615 K0.000 F1800.000
G1 X-219.775 Y-58.938 Z-3.200 F1800.000
G2 X-218.109 Y-57.335 Z-3.200 I1.619 J-0.015 K0.000 F1800.000
G3 X-217.817 Y-56.771 Z-3.200 I-0.088 J0.403 K0.000 F1800.000
G1 X-217.817 Y-56.771 Z-6.400 F1400.000
G3 X-218.265 Y-56.525 Z-6.400 I-0.380 J-0.161 K0.000 F1800.000
G1 X-224.210 Y-56.525 Z-6.400 F1800.000
G3 X-224.366 Y-57.335 Z-6.400 I-0.070 J-0.406 K0.000 F1800.000
G2 X-222.700 Y-58.938 Z-6.400 I0.051 J-1.615 K0.000 F1800.000
G1 X-222.700 Y-80.937 Z-6.400 F1800.000
G2 X-224.366 Y-82.540 Z-6.400 I-1.619 J0.015 K0.000 F1800.000
G3 X-224.210 Y-83.350 Z-6.400 I0.088 J-0.403 K0.000 F1800.000
G1 X-218.265 Y-83.350 Z-6.400 F1800.000
G3 X-218.109 Y-82.540 Z-6.400 I0.070 J0.406 K0.000 F1800.000
G2 X-219.775 Y-80.937 Z-6.400 I-0.051 J1.615 K0.000 F1800.000
G1 X-219.775 Y-58.938 Z-6.400 F1800.000
G2 X-218.109 Y-57.335 Z-6.400 I1.619 J-0.015 K0.000 F1800.000
G3 X-217.817 Y-56.771 Z-6.400 I-0.088 J0.403 K0.000 F1800.000
G0 Z5.000
G0 Z5.000
(Finish operation: Profile028)
(Begin operation: Profile029)
(Path: Profile029)
(Profile029)
(Compensated Tool Path. Diameter: 3.175)
G0 Z5.000
G0 X-0.762 Y-0.762
G0 Z3.000
G1 X-0.762 Y-0.762 Z-3.200 F1400.000
G2 X-0.000 Y-2.588 Z-3.200 I-1.839 J-1.839 K0.000 F1800.000
G1 X-0.000 Y-123.587 Z-3.200 F1800.000
G2 X-2.588 Y-126.175 Z-3.200 I-2.600 J0.013 K0.000 F1800.000
G1 X-233.287 Y-126.175 Z-3.200 F1800.000
G2 X-235.875 Y-123.587 Z-3.200 I0.013 J2.600 K0.000 F1800.000
G1 X-235.875 Y-2.588 Z-3.200 F1800.000
G2 X-233.287 Y-0.000 Z-3.200 I2.600 J-0.013 K0.000 F1800.000
G1 X-225.287 Y-0.000 Z-3.200 F1800.000
G2 X-222.700 Y-2.588 Z-3.200 I-0.013 J-2.600 K0.000 F1800.000
G1 X-222.700 Y-7.588 Z-3.200 F1800.000
G2 X-224.366 Y-9.190 Z-3.200 I-1.616 J0.012 K0.000 F1800.000
G3 X-224.210 Y-10.000 Z-3.200 I0.087 J-0.403 K0.000 F1800.000
G1 X-217.565 Y-10.000 Z-3.200 F1800.000
G3 X-217.409 Y-9.190 Z-3.200 I0.069 J0.407 K0.000 F1800.000
G2 X-219.075 Y-7.588 Z-3.200 I-0.048 J1.618 K0.000 F1800.000
G1 X-219.075 Y-2.588 Z-3.200 F1800.000
G2 X-216.487 Y-0.000 Z-3.200 I2.600 J-0.013 K0.000 F1800.000
G1 X-19.388 Y-0.000 Z-3.200 F1800.000
G2 X-16.800 Y-2.588 Z-3.200 I-0.013 J-2.600 K0.000 F1800.000
G1 X-16.800 Y-7.588 Z-3.200 F1800.000
G2 X-18.466 Y-9.190 Z-3.200 I-1.616 J0.012 K0.000 F1800.000
G3 X-18.310 Y-10.000 Z-3.200 I0.087 J-0.403 K0.000 F1800.000
G1 X-11.665 Y-10.000 Z-3.200 F1800.000
G3 X-11.509 Y-9.190 Z-3.200 I0.069 J0.407 K0.000 F1800.000
G2 X-13.175 Y-7.588 Z-3.200 I-0.048 J1.618 K0.000 F1800.000
G1 X-13.175 Y-2.588 Z-3.200 F1800.000
G2 X-10.588 Y-0.000 Z-3.200 I2.600 J-0.013 K0.000 F1800.000
G1 X-2.588 Y-0.000 Z-3.200 F1800.000
G2 X-0.762 Y-0.762 Z-3.200 I-0.013 J-2.600 K0.000 F1800.000
G1 X-0.762 Y-0.762 Z-6.400 F1400.000
G2 X-0.000 Y-2.588 Z-6.400 I-1.839 J-1.839 K0.000 F1800.000
G1 X-0.000 Y-123.587 Z-6.400 F1800.000
G2 X-2.588 Y-126.175 Z-6.400 I-2.600 J0.013 K0.000 F1800.000
G1 X-233.287 Y-126.175 Z-6.400 F1800.000
G2 X-235.875 Y-123.587 Z-6.400 I0.013 J2.600 K0.000 F1800.000
G1 X-235.875 Y-2.588 Z-6.400 F1800.000
G2 X-233.287 Y-0.000 Z-6.400 I2.600 J-0.013 K0.000 F1800.000
G1 X-225.287 Y-0.000 Z-6.400 F1800.000
G2 X-222.700 Y-2.588 Z-6.400 I-0.013 J-2.600 K0.000 F1800.000
G1 X-222.700 Y-7.588 Z-6.400 F1800.000
G2 X-224.366 Y-9.190 Z-6.400 I-1.616 J0.012 K0.000 F1800.000
G3 X-224.210 Y-10.000 Z-6.400 I0.087 J-0.403 K0.000 F1800.000
G1 X-217.565 Y-10.000 Z-6.400 F1800.000
G3 X-217.409 Y-9.190 Z-6.400 I0.069 J0.407 K0.000 F1800.000
G2 X-219.075 Y-7.588 Z-6.400 I-0.048 J1.618 K0.000 F1800.000
G1 X-219.075 Y-2.588 Z-6.400 F1800.000
G2 X-216.487 Y-0.000 Z-6.400 I2.600 J-0.013 K0.000 F1800.000
G1 X-19.388 Y-0.000 Z-6.400 F1800.000
G2 X-16.800 Y-2.588 Z-6.400 I-0.013 J-2.600 K0.000 F1800.000
G1 X-16.800 Y-7.588 Z-6.400 F1800.000
G2 X-18.466 Y-9.190 Z-6.400 I-1.616 J0.012 K0.000 F1800.000
G3 X-18.310 Y-10.000 Z-6.400 I0.087 J-0.403 K0.000 F1800.000
G1 X-11.665 Y-10.000 Z-6.400 F1800.000
G3 X-11.509 Y-9.190 Z-6.400 I0.069 J0.407 K0.000 F1800.000
G2 X-13.175 Y-7.588 Z-6.400 I-0.048 J1.618 K0.000 F1800.000
G1 X-13.175 Y-2.588 Z-6.400 F1800.000
G2 X-10.588 Y-0.000 Z-6.400 I2.600 J-0.013 K0.000 F1800.000
G1 X-2.588 Y-0.000 Z-6.400 F1800.000
G2 X-0.762 Y-0.762 Z-6.400 I-0.013 J-2.600 K0.000 F1800.000
G0 Z5.000
G0 Z5.000
(Finish operation: Profile029)
(Begin postamble)
M5
G17 G90
M2
