(Exported by FreeCAD)
(Post Processor: grbl_post)
(Output Time:2024-02-18 21:55:04.381366)
(Begin preamble)
G17 G90
G21
(Begin operation: Fixture)
(Path: Fixture)
G54
(Finish operation: Fixture)
(Begin operation: 1/8th in Endmill005)
(Path: 1/8th in Endmill005)
(1/8th in Endmill005)
(Begin toolchange)
( M6 T2 )
(Finish operation: 1/8th in Endmill005)
(Begin operation: Drilling001)
(Path: Drilling001)
(Drilling001)
(Begin Drilling)
G0 Z5.000
G90
( G98 )
G0 X-3.587 Y-109.238
(G81 X-3.587 Y-109.238 Z-1.000 F1400.000 R3.000)
G0 X-3.587 Y-109.238
G0 Z3.000 F1400.00
G1 Z-1.000 F1400.00
G0 Z3.000
G0 X-181.175 Y-138.825
(G81 X-181.175 Y-138.825 Z-1.000 F1400.000 R3.000)
G0 X-181.175 Y-138.825
G0 Z3.000 F1400.00
G1 Z-1.000 F1400.00
G0 Z3.000
G0 X-181.175 Y-4.000
(G81 X-181.175 Y-4.000 Z-1.000 F1400.000 R3.000)
G0 X-181.175 Y-4.000
G0 Z3.000 F1400.00
G1 Z-1.000 F1400.00
G0 Z3.000
G0 X-391.763 Y-109.238
(G81 X-391.763 Y-109.238 Z-1.000 F1400.000 R3.000)
G0 X-391.763 Y-109.238
G0 Z3.000 F1400.00
G1 Z-1.000 F1400.00
G0 Z3.000
( G80 )
G0 Z3.000
G0 Z5.000
(Finish operation: Drilling001)
(Begin operation: Pocket_Shape002)
(Path: Pocket_Shape002)
(Pocket_Shape002)
G0 Z5.000
G0 X-20.766 Y-133.503
G0 Z3.000
G1 X-20.766 Y-133.503 Z-3.200 F1400.000
G2 X-20.913 Y-134.245 Z-3.200 I-0.322 J-0.322 K0.000 F1800.000
G2 X-21.262 Y-133.405 Z-3.200 I-0.174 J0.420 K0.000 F1800.000
G2 X-20.766 Y-133.503 Z-3.200 I0.174 J-0.420 K0.000 F1800.000
G1 X-20.766 Y-133.503 Z-6.400 F1400.000
G2 X-20.913 Y-134.245 Z-6.400 I-0.322 J-0.322 K0.000 F1800.000
G2 X-21.262 Y-133.405 Z-6.400 I-0.174 J0.420 K0.000 F1800.000
G2 X-20.766 Y-133.503 Z-6.400 I0.174 J-0.420 K0.000 F1800.000
G0 Z5.000
G0 Z5.000
G0 X-20.766 Y-133.503
G0 X-170.633 Y-133.824
G0 X-170.633 Y-133.824 Z3.000
G1 X-170.633 Y-133.824 Z-3.200 F1400.000
G2 X-170.913 Y-134.245 Z-3.200 I-0.455 J-0.001 K0.000 F1800.000
G2 X-171.262 Y-133.405 Z-3.200 I-0.174 J0.420 K0.000 F1800.000
G2 X-170.633 Y-133.824 Z-3.200 I0.174 J-0.420 K0.000 F1800.000
G1 X-170.633 Y-133.824 Z-6.400 F1400.000
G2 X-170.913 Y-134.245 Z-6.400 I-0.455 J-0.001 K0.000 F1800.000
G2 X-171.262 Y-133.405 Z-6.400 I-0.174 J0.420 K0.000 F1800.000
G2 X-170.633 Y-133.824 Z-6.400 I0.174 J-0.420 K0.000 F1800.000
G0 Z5.000
G0 Z5.000
G0 X-170.633 Y-133.824
G0 X-218.308 Y-133.825
G0 X-218.308 Y-133.825 Z3.000
G1 X-218.308 Y-133.825 Z-3.200 F1400.000
G2 X-218.588 Y-134.245 Z-3.200 I-0.455 J-0.000 K0.000 F1800.000
G2 X-218.937 Y-133.405 Z-3.200 I-0.174 J0.420 K0.000 F1800.000
G2 X-218.308 Y-133.825 Z-3.200 I0.174 J-0.420 K0.000 F1800.000
G1 X-218.308 Y-133.825 Z-6.400 F1400.000
G2 X-218.588 Y-134.245 Z-6.400 I-0.455 J-0.000 K0.000 F1800.000
G2 X-218.937 Y-133.405 Z-6.400 I-0.174 J0.420 K0.000 F1800.000
G2 X-218.308 Y-133.825 Z-6.400 I0.174 J-0.420 K0.000 F1800.000
G0 Z5.000
G0 Z5.000
G0 X-218.308 Y-133.825
G0 X-368.308 Y-133.825
G0 X-368.308 Y-133.825 Z3.000
G1 X-368.308 Y-133.825 Z-3.200 F1400.000
G2 X-368.588 Y-134.245 Z-3.200 I-0.455 J0.000 K0.000 F1800.000
G2 X-368.937 Y-133.405 Z-3.200 I-0.174 J0.420 K0.000 F1800.000
G2 X-368.308 Y-133.825 Z-3.200 I0.174 J-0.420 K0.000 F1800.000
G1 X-368.308 Y-133.825 Z-6.400 F1400.000
G2 X-368.588 Y-134.245 Z-6.400 I-0.455 J0.000 K0.000 F1800.000
G2 X-368.937 Y-133.405 Z-6.400 I-0.174 J0.420 K0.000 F1800.000
G2 X-368.308 Y-133.825 Z-6.400 I0.174 J-0.420 K0.000 F1800.000
G0 Z5.000
G0 Z5.000
(Finish operation: Pocket_Shape002)
(Begin operation: Profile003)
(Path: Profile003)
(Profile003)
(Compensated Tool Path. Diameter: 3.175)
G0 Z5.000
G0 X-25.169 Y-21.607
G0 Z3.000
G1 X-25.169 Y-21.607 Z-3.200 F1400.000
G2 X-25.175 Y-21.678 Z-3.200 I-0.035 J-0.033 K0.000 F1800.000
G1 X-25.175 Y-27.922 Z-3.200 F1800.000
G2 X-25.186 Y-28.004 Z-3.200 I-0.047 J-0.036 K0.000 F1800.000
G2 X-25.190 Y-28.004 Z-3.200 I-0.002 J0.004 K0.000 F1800.000
G3 X-26.788 Y-26.412 Z-3.200 I-1.637 J-0.045 K0.000 F1800.000
G1 X-45.387 Y-26.413 Z-3.200 F1800.000
G3 X-46.984 Y-28.001 Z-3.200 I0.006 J-1.603 K0.000 F1800.000
G2 X-46.989 Y-28.004 Z-3.200 I-0.004 J0.001 K0.000 F1800.000
G2 X-47.000 Y-27.917 Z-3.200 I0.034 J0.049 K0.000 F1800.000
G1 X-47.000 Y-21.683 Z-3.200 F1800.000
G1 X-46.991 Y-21.599 Z-3.200 F1800.000
G2 X-46.986 Y-21.597 Z-3.200 I0.004 J-0.001 K0.000 F1800.000
G3 X-45.387 Y-23.188 Z-3.200 I1.641 J0.050 K0.000 F1800.000
G1 X-26.787 Y-23.188 Z-3.200 F1800.000
G3 X-25.192 Y-21.599 Z-3.200 I-0.006 J1.601 K0.000 F1800.000
G2 X-25.187 Y-21.595 Z-3.200 I0.005 J-0.001 K0.000 F1800.000
G2 X-25.169 Y-21.607 Z-3.200 I-0.017 J-0.045 K0.000 F1800.000
G1 X-25.169 Y-21.607 Z-6.400 F1400.000
G2 X-25.175 Y-21.678 Z-6.400 I-0.035 J-0.033 K0.000 F1800.000
G1 X-25.175 Y-27.922 Z-6.400 F1800.000
G2 X-25.186 Y-28.004 Z-6.400 I-0.047 J-0.036 K0.000 F1800.000
G2 X-25.190 Y-28.004 Z-6.400 I-0.002 J0.004 K0.000 F1800.000
G3 X-26.788 Y-26.412 Z-6.400 I-1.637 J-0.045 K0.000 F1800.000
G1 X-45.387 Y-26.413 Z-6.400 F1800.000
G3 X-46.984 Y-28.001 Z-6.400 I0.006 J-1.603 K0.000 F1800.000
G2 X-46.989 Y-28.004 Z-6.400 I-0.004 J0.001 K0.000 F1800.000
G2 X-47.000 Y-27.917 Z-6.400 I0.034 J0.049 K0.000 F1800.000
G1 X-47.000 Y-21.683 Z-6.400 F1800.000
G1 X-46.991 Y-21.599 Z-6.400 F1800.000
G2 X-46.986 Y-21.597 Z-6.400 I0.004 J-0.001 K0.000 F1800.000
G3 X-45.387 Y-23.188 Z-6.400 I1.641 J0.050 K0.000 F1800.000
G1 X-26.787 Y-23.188 Z-6.400 F1800.000
G3 X-25.192 Y-21.599 Z-6.400 I-0.006 J1.601 K0.000 F1800.000
G2 X-25.187 Y-21.595 Z-6.400 I0.005 J-0.001 K0.000 F1800.000
G2 X-25.169 Y-21.607 Z-6.400 I-0.017 J-0.045 K0.000 F1800.000
G0 Z5.000
G0 Z5.000
G0 X-25.169 Y-21.607
G0 X-85.156 Y-21.640
G0 X-85.156 Y-21.640 Z3.000
G1 X-85.156 Y-21.640 Z-3.200 F1400.000
G2 X-85.175 Y-21.678 Z-3.200 I-0.048 J-0.000 K0.000 F1800.000
G1 X-85.175 Y-27.917 Z-3.200 F1800.000
G2 X-85.186 Y-28.003 Z-3.200 I-0.065 J-0.036 K0.000 F1800.000
G2 X-85.189 Y-28.003 Z-3.200 I-0.002 J0.003 K0.000 F1800.000
G3 X-86.788 Y-26.412 Z-3.200 I-1.641 J-0.050 K0.000 F1800.000
G1 X-105.387 Y-26.412 Z-3.200 F1800.000
G3 X-106.984 Y-28.001 Z-3.200 I0.006 J-1.603 K0.000 F1800.000
G2 X-106.989 Y-28.004 Z-3.200 I-0.004 J0.001 K0.000 F1800.000
G2 X-107.000 Y-27.917 Z-3.200 I0.034 J0.049 K0.000 F1800.000
G1 X-107.000 Y-21.678 Z-3.200 F1800.000
G1 X-106.992 Y-21.599 Z-3.200 F1800.000
G2 X-106.985 Y-21.596 Z-3.200 I0.005 J-0.001 K0.000 F1800.000
G3 X-105.387 Y-23.188 Z-3.200 I1.637 J0.045 K0.000 F1800.000
G1 X-86.788 Y-23.188 Z-3.200 F1800.000
G3 X-85.192 Y-21.599 Z-3.200 I-0.006 J1.601 K0.000 F1800.000
G2 X-85.188 Y-21.595 Z-3.200 I0.005 J-0.001 K0.000 F1800.000
G2 X-85.156 Y-21.640 Z-3.200 I-0.017 J-0.045 K0.000 F1800.000
G1 X-85.156 Y-21.640 Z-6.400 F1400.000
G2 X-85.175 Y-21.678 Z-6.400 I-0.048 J-0.000 K0.000 F1800.000
G1 X-85.175 Y-27.917 Z-6.400 F1800.000
G2 X-85.186 Y-28.003 Z-6.400 I-0.065 J-0.036 K0.000 F1800.000
G2 X-85.189 Y-28.003 Z-6.400 I-0.002 J0.003 K0.000 F1800.000
G3 X-86.788 Y-26.412 Z-6.400 I-1.641 J-0.050 K0.000 F1800.000
G1 X-105.387 Y-26.412 Z-6.400 F1800.000
G3 X-106.984 Y-28.001 Z-6.400 I0.006 J-1.603 K0.000 F1800.000
G2 X-106.989 Y-28.004 Z-6.400 I-0.004 J0.001 K0.000 F1800.000
G2 X-107.000 Y-27.917 Z-6.400 I0.034 J0.049 K0.000 F1800.000
G1 X-107.000 Y-21.678 Z-6.400 F1800.000
G1 X-106.992 Y-21.599 Z-6.400 F1800.000
G2 X-106.985 Y-21.596 Z-6.400 I0.005 J-0.001 K0.000 F1800.000
G3 X-105.387 Y-23.188 Z-6.400 I1.637 J0.045 K0.000 F1800.000
G1 X-86.788 Y-23.188 Z-6.400 F1800.000
G3 X-85.192 Y-21.599 Z-6.400 I-0.006 J1.601 K0.000 F1800.000
G2 X-85.188 Y-21.595 Z-6.400 I0.005 J-0.001 K0.000 F1800.000
G2 X-85.156 Y-21.640 Z-6.400 I-0.017 J-0.045 K0.000 F1800.000
G0 Z5.000
G0 Z5.000
G0 X-85.156 Y-21.640
G0 Y-46.588
G0 Y-46.588 Z3.000
G1 X-85.156 Y-46.588 Z-3.200 F1400.000
G1 X-82.765 Y-46.588 Z-3.200 F1800.000
G2 X-82.675 Y-46.678 Z-3.200 I0.035 J-0.055 K0.000 F1800.000
G1 X-82.675 Y-93.322 Z-3.200 F1800.000
G2 X-82.765 Y-93.412 Z-3.200 I-0.055 J-0.035 K0.000 F1800.000
G1 X-109.410 Y-93.412 Z-3.200 F1800.000
G2 X-109.500 Y-93.322 Z-3.200 I-0.035 J0.055 K0.000 F1800.000
G1 X-109.500 Y-46.678 Z-3.200 F1800.000
G2 X-109.410 Y-46.588 Z-3.200 I0.055 J0.035 K0.000 F1800.000
G1 X-85.156 Y-46.588 Z-3.200 F1800.000
G1 X-85.156 Y-46.588 Z-6.400 F1400.000
G1 X-82.765 Y-46.588 Z-6.400 F1800.000
G2 X-82.675 Y-46.678 Z-6.400 I0.035 J-0.055 K0.000 F1800.000
G1 X-82.675 Y-93.322 Z-6.400 F1800.000
G2 X-82.765 Y-93.412 Z-6.400 I-0.055 J-0.035 K0.000 F1800.000
G1 X-109.410 Y-93.412 Z-6.400 F1800.000
G2 X-109.500 Y-93.322 Z-6.400 I-0.035 J0.055 K0.000 F1800.000
G1 X-109.500 Y-46.678 Z-6.400 F1800.000
G2 X-109.410 Y-46.588 Z-6.400 I0.055 J0.035 K0.000 F1800.000
G1 X-85.156 Y-46.588 Z-6.400 F1800.000
G0 Z5.000
G0 Z5.000
G0 X-85.156 Y-46.588
G0 X-145.169 Y-27.975
G0 X-145.169 Y-27.975 Z3.000
G1 X-145.169 Y-27.975 Z-3.200 F1400.000
G2 X-145.186 Y-28.003 Z-3.200 I-0.071 J0.022 K0.000 F1800.000
G2 X-145.189 Y-28.003 Z-3.200 I-0.002 J0.003 K0.000 F1800.000
G3 X-146.788 Y-26.412 Z-3.200 I-1.641 J-0.050 K0.000 F1800.000
G1 X-165.388 Y-26.412 Z-3.200 F1800.000
G3 X-166.984 Y-28.001 Z-3.200 I0.006 J-1.603 K0.000 F1800.000
G2 X-166.989 Y-28.004 Z-3.200 I-0.004 J0.001 K0.000 F1800.000
G2 X-167.000 Y-27.917 Z-3.200 I0.034 J0.049 K0.000 F1800.000
G1 X-167.000 Y-21.683 Z-3.200 F1800.000
G1 X-166.991 Y-21.599 Z-3.200 F1800.000
G2 X-166.986 Y-21.597 Z-3.200 I0.004 J-0.001 K0.000 F1800.000
G3 X-165.388 Y-23.188 Z-3.200 I1.641 J0.050 K0.000 F1800.000
G1 X-146.788 Y-23.188 Z-3.200 F1800.000
G3 X-145.191 Y-21.599 Z-3.200 I-0.006 J1.603 K0.000 F1800.000
G2 X-145.186 Y-21.596 Z-3.200 I0.004 J-0.001 K0.000 F1800.000
G2 X-145.175 Y-21.683 Z-3.200 I-0.034 J-0.049 K0.000 F1800.000
G1 X-145.175 Y-27.917 Z-3.200 F1800.000
G2 X-145.169 Y-27.975 Z-3.200 I-0.065 J-0.036 K0.000 F1800.000
G1 X-145.169 Y-27.975 Z-6.400 F1400.000
G2 X-145.186 Y-28.003 Z-6.400 I-0.071 J0.022 K0.000 F1800.000
G2 X-145.189 Y-28.003 Z-6.400 I-0.002 J0.003 K0.000 F1800.000
G3 X-146.788 Y-26.412 Z-6.400 I-1.641 J-0.050 K0.000 F1800.000
G1 X-165.388 Y-26.412 Z-6.400 F1800.000
G3 X-166.984 Y-28.001 Z-6.400 I0.006 J-1.603 K0.000 F1800.000
G2 X-166.989 Y-28.004 Z-6.400 I-0.004 J0.001 K0.000 F1800.000
G2 X-167.000 Y-27.917 Z-6.400 I0.034 J0.049 K0.000 F1800.000
G1 X-167.000 Y-21.683 Z-6.400 F1800.000
G1 X-166.991 Y-21.599 Z-6.400 F1800.000
G2 X-166.986 Y-21.597 Z-6.400 I0.004 J-0.001 K0.000 F1800.000
G3 X-165.388 Y-23.188 Z-6.400 I1.641 J0.050 K0.000 F1800.000
G1 X-146.788 Y-23.188 Z-6.400 F1800.000
G3 X-145.191 Y-21.599 Z-6.400 I-0.006 J1.603 K0.000 F1800.000
G2 X-145.186 Y-21.596 Z-6.400 I0.004 J-0.001 K0.000 F1800.000
G2 X-145.175 Y-21.683 Z-6.400 I-0.034 J-0.049 K0.000 F1800.000
G1 X-145.175 Y-27.917 Z-6.400 F1800.000
G2 X-145.169 Y-27.975 Z-6.400 I-0.065 J-0.036 K0.000 F1800.000
G0 Z5.000
G0 Z5.000
G0 X-145.169 Y-27.975
G0 X-203.762 Y-56.595
G0 X-203.762 Y-56.595 Z3.000
G1 X-203.762 Y-56.595 Z-3.200 F1400.000
G2 X-203.758 Y-56.603 Z-3.200 I-0.001 J-0.005 K0.000 F1800.000
G3 X-205.350 Y-58.200 Z-3.200 I0.045 J-1.637 K0.000 F1800.000
G1 X-205.350 Y-81.800 Z-3.200 F1800.000
G3 X-203.762 Y-83.395 Z-3.200 I1.601 J0.006 K0.000 F1800.000
G2 X-203.758 Y-83.400 Z-3.200 I-0.001 J-0.005 K0.000 F1800.000
G2 X-203.840 Y-83.412 Z-3.200 I-0.045 J0.017 K0.000 F1800.000
G1 X-210.085 Y-83.412 Z-3.200 F1800.000
G1 X-210.163 Y-83.405 Z-3.200 F1800.000
G2 X-210.167 Y-83.397 Z-3.200 I0.001 J0.005 K0.000 F1800.000
G3 X-208.575 Y-81.800 Z-3.200 I-0.045 J1.637 K0.000 F1800.000
G1 X-208.575 Y-58.200 Z-3.200 F1800.000
G3 X-210.163 Y-56.605 Z-3.200 I-1.601 J-0.006 K0.000 F1800.000
G2 X-210.167 Y-56.600 Z-3.200 I0.001 J0.005 K0.000 F1800.000
G2 X-210.085 Y-56.588 Z-3.200 I0.045 J-0.017 K0.000 F1800.000
G1 X-203.840 Y-56.588 Z-3.200 F1800.000
G1 X-203.762 Y-56.595 Z-3.200 F1800.000
G1 X-203.762 Y-56.595 Z-6.400 F1400.000
G2 X-203.758 Y-56.603 Z-6.400 I-0.001 J-0.005 K0.000 F1800.000
G3 X-205.350 Y-58.200 Z-6.400 I0.045 J-1.637 K0.000 F1800.000
G1 X-205.350 Y-81.800 Z-6.400 F1800.000
G3 X-203.762 Y-83.395 Z-6.400 I1.601 J0.006 K0.000 F1800.000
G2 X-203.758 Y-83.400 Z-6.400 I-0.001 J-0.005 K0.000 F1800.000
G2 X-203.840 Y-83.412 Z-6.400 I-0.045 J0.017 K0.000 F1800.000
G1 X-210.085 Y-83.412 Z-6.400 F1800.000
G1 X-210.163 Y-83.405 Z-6.400 F1800.000
G2 X-210.167 Y-83.397 Z-6.400 I0.001 J0.005 K0.000 F1800.000
G3 X-208.575 Y-81.800 Z-6.400 I-0.045 J1.637 K0.000 F1800.000
G1 X-208.575 Y-58.200 Z-6.400 F1800.000
G3 X-210.163 Y-56.605 Z-6.400 I-1.601 J-0.006 K0.000 F1800.000
G2 X-210.167 Y-56.600 Z-6.400 I0.001 J0.005 K0.000 F1800.000
G2 X-210.085 Y-56.588 Z-6.400 I0.045 J-0.017 K0.000 F1800.000
G1 X-203.840 Y-56.588 Z-6.400 F1800.000
G1 X-203.762 Y-56.595 Z-6.400 F1800.000
G0 Z5.000
G0 Z5.000
G0 X-203.762 Y-56.595
G0 X-235.361 Y-28.003
G0 X-235.361 Y-28.003 Z3.000
G1 X-235.361 Y-28.003 Z-3.200 F1400.000
G2 X-235.364 Y-28.003 Z-3.200 I-0.002 J0.003 K0.000 F1800.000
G3 X-236.963 Y-26.412 Z-3.200 I-1.641 J-0.050 K0.000 F1800.000
G1 X-275.563 Y-26.413 Z-3.200 F1800.000
G3 X-277.159 Y-28.001 Z-3.200 I0.006 J-1.603 K0.000 F1800.000
G2 X-277.164 Y-28.004 Z-3.200 I-0.004 J0.001 K0.000 F1800.000
G2 X-277.175 Y-27.917 Z-3.200 I0.034 J0.049 K0.000 F1800.000
G1 X-277.175 Y-8.083 Z-3.200 F1800.000
G1 X-277.166 Y-7.999 Z-3.200 F1800.000
G2 X-277.161 Y-7.997 Z-3.200 I0.004 J-0.001 K0.000 F1800.000
G3 X-275.563 Y-9.588 Z-3.200 I1.641 J0.050 K0.000 F1800.000
G1 X-256.963 Y-9.588 Z-3.200 F1800.000
G3 X-255.367 Y-7.999 Z-3.200 I-0.006 J1.601 K0.000 F1800.000
G2 X-255.363 Y-7.995 Z-3.200 I0.005 J-0.001 K0.000 F1800.000
G2 X-255.350 Y-8.078 Z-3.200 I-0.017 J-0.045 K0.000 F1800.000
G1 X-255.350 Y-20.600 Z-3.200 F1800.000
G3 X-252.763 Y-23.188 Z-3.200 I2.600 J0.013 K0.000 F1800.000
G1 X-236.963 Y-23.188 Z-3.200 F1800.000
G3 X-235.367 Y-21.599 Z-3.200 I-0.006 J1.601 K0.000 F1800.000
G2 X-235.363 Y-21.595 Z-3.200 I0.005 J-0.001 K0.000 F1800.000
G2 X-235.350 Y-21.678 Z-3.200 I-0.017 J-0.045 K0.000 F1800.000
G1 X-235.350 Y-27.917 Z-3.200 F1800.000
G2 X-235.361 Y-28.003 Z-3.200 I-0.065 J-0.036 K0.000 F1800.000
G1 X-235.361 Y-28.003 Z-6.400 F1400.000
G2 X-235.364 Y-28.003 Z-6.400 I-0.002 J0.003 K0.000 F1800.000
G3 X-236.963 Y-26.412 Z-6.400 I-1.641 J-0.050 K0.000 F1800.000
G1 X-275.563 Y-26.413 Z-6.400 F1800.000
G3 X-277.159 Y-28.001 Z-6.400 I0.006 J-1.603 K0.000 F1800.000
G2 X-277.164 Y-28.004 Z-6.400 I-0.004 J0.001 K0.000 F1800.000
G2 X-277.175 Y-27.917 Z-6.400 I0.034 J0.049 K0.000 F1800.000
G1 X-277.175 Y-8.083 Z-6.400 F1800.000
G1 X-277.166 Y-7.999 Z-6.400 F1800.000
G2 X-277.161 Y-7.997 Z-6.400 I0.004 J-0.001 K0.000 F1800.000
G3 X-275.563 Y-9.588 Z-6.400 I1.641 J0.050 K0.000 F1800.000
G1 X-256.963 Y-9.588 Z-6.400 F1800.000
G3 X-255.367 Y-7.999 Z-6.400 I-0.006 J1.601 K0.000 F1800.000
G2 X-255.363 Y-7.995 Z-6.400 I0.005 J-0.001 K0.000 F1800.000
G2 X-255.350 Y-8.078 Z-6.400 I-0.017 J-0.045 K0.000 F1800.000
G1 X-255.350 Y-20.600 Z-6.400 F1800.000
G3 X-252.763 Y-23.188 Z-6.400 I2.600 J0.013 K0.000 F1800.000
G1 X-236.963 Y-23.188 Z-6.400 F1800.000
G3 X-235.367 Y-21.599 Z-6.400 I-0.006 J1.601 K0.000 F1800.000
G2 X-235.363 Y-21.595 Z-6.400 I0.005 J-0.001 K0.000 F1800.000
G2 X-235.350 Y-21.678 Z-6.400 I-0.017 J-0.045 K0.000 F1800.000
G1 X-235.350 Y-27.917 Z-6.400 F1800.000
G2 X-235.361 Y-28.003 Z-6.400 I-0.065 J-0.036 K0.000 F1800.000
G0 Z5.000
G0 Z5.000
G0 X-235.361 Y-28.003
G0 X-310.341 Y-27.953
G0 X-310.341 Y-27.953 Z3.000
G1 X-310.341 Y-27.953 Z-3.200 F1400.000
G2 X-310.361 Y-28.003 Z-3.200 I-0.074 J0.000 K0.000 F1800.000
G2 X-310.364 Y-28.003 Z-3.200 I-0.002 J0.003 K0.000 F1800.000
G3 X-311.963 Y-26.412 Z-3.200 I-1.641 J-0.050 K0.000 F1800.000
G1 X-350.562 Y-26.412 Z-3.200 F1800.000
G3 X-352.159 Y-28.001 Z-3.200 I0.006 J-1.603 K0.000 F1800.000
G2 X-352.164 Y-28.004 Z-3.200 I-0.004 J0.001 K0.000 F1800.000
G2 X-352.175 Y-27.917 Z-3.200 I0.034 J0.049 K0.000 F1800.000
G1 X-352.175 Y-21.678 Z-3.200 F1800.000
G1 X-352.167 Y-21.599 Z-3.200 F1800.000
G2 X-352.160 Y-21.596 Z-3.200 I0.005 J-0.001 K0.000 F1800.000
G3 X-350.562 Y-23.187 Z-3.200 I1.637 J0.045 K0.000 F1800.000
G1 X-334.762 Y-23.187 Z-3.200 F1800.000
G3 X-332.175 Y-20.600 Z-3.200 I-0.013 J2.600 K0.000 F1800.000
G1 X-332.175 Y-8.078 Z-3.200 F1800.000
G1 X-332.167 Y-7.999 Z-3.200 F1800.000
G2 X-332.160 Y-7.996 Z-3.200 I0.005 J-0.001 K0.000 F1800.000
G3 X-330.563 Y-9.588 Z-3.200 I1.637 J0.045 K0.000 F1800.000
G1 X-311.963 Y-9.588 Z-3.200 F1800.000
G3 X-310.366 Y-7.999 Z-3.200 I-0.006 J1.603 K0.000 F1800.000
G2 X-310.361 Y-7.996 Z-3.200 I0.004 J-0.001 K0.000 F1800.000
G2 X-310.350 Y-8.083 Z-3.200 I-0.034 J-0.049 K0.000 F1800.000
G1 X-310.350 Y-27.917 Z-3.200 F1800.000
G2 X-310.341 Y-27.953 Z-3.200 I-0.065 J-0.036 K0.000 F1800.000
G1 X-310.341 Y-27.953 Z-6.400 F1400.000
G2 X-310.361 Y-28.003 Z-6.400 I-0.074 J0.000 K0.000 F1800.000
G2 X-310.364 Y-28.003 Z-6.400 I-0.002 J0.003 K0.000 F1800.000
G3 X-311.963 Y-26.412 Z-6.400 I-1.641 J-0.050 K0.000 F1800.000
G1 X-350.562 Y-26.412 Z-6.400 F1800.000
G3 X-352.159 Y-28.001 Z-6.400 I0.006 J-1.603 K0.000 F1800.000
G2 X-352.164 Y-28.004 Z-6.400 I-0.004 J0.001 K0.000 F1800.000
G2 X-352.175 Y-27.917 Z-6.400 I0.034 J0.049 K0.000 F1800.000
G1 X-352.175 Y-21.678 Z-6.400 F1800.000
G1 X-352.167 Y-21.599 Z-6.400 F1800.000
G2 X-352.160 Y-21.596 Z-6.400 I0.005 J-0.001 K0.000 F1800.000
G3 X-350.562 Y-23.187 Z-6.400 I1.637 J0.045 K0.000 F1800.000
G1 X-334.762 Y-23.187 Z-6.400 F1800.000
G3 X-332.175 Y-20.600 Z-6.400 I-0.013 J2.600 K0.000 F1800.000
G1 X-332.175 Y-8.078 Z-6.400 F1800.000
G1 X-332.167 Y-7.999 Z-6.400 F1800.000
G2 X-332.160 Y-7.996 Z-6.400 I0.005 J-0.001 K0.000 F1800.000
G3 X-330.563 Y-9.588 Z-6.400 I1.637 J0.045 K0.000 F1800.000
G1 X-311.963 Y-9.588 Z-6.400 F1800.000
G3 X-310.366 Y-7.999 Z-6.400 I-0.006 J1.603 K0.000 F1800.000
G2 X-310.361 Y-7.996 Z-6.400 I0.004 J-0.001 K0.000 F1800.000
G2 X-310.350 Y-8.083 Z-6.400 I-0.034 J-0.049 K0.000 F1800.000
G1 X-310.350 Y-27.917 Z-6.400 F1800.000
G2 X-310.341 Y-27.953 Z-6.400 I-0.065 J-0.036 K0.000 F1800.000
G0 Z5.000
G0 Z5.000
G0 X-310.341 Y-27.953
G0 X-377.362 Y-56.595
G0 X-377.362 Y-56.595 Z3.000
G1 X-377.362 Y-56.595 Z-3.200 F1400.000
G2 X-377.358 Y-56.603 Z-3.200 I-0.001 J-0.005 K0.000 F1800.000
G3 X-378.950 Y-58.200 Z-3.200 I0.045 J-1.637 K0.000 F1800.000
G1 X-378.950 Y-81.800 Z-3.200 F1800.000
G3 X-377.362 Y-83.395 Z-3.200 I1.601 J0.006 K0.000 F1800.000
G2 X-377.358 Y-83.400 Z-3.200 I-0.001 J-0.005 K0.000 F1800.000
G2 X-377.440 Y-83.412 Z-3.200 I-0.045 J0.017 K0.000 F1800.000
G1 X-383.679 Y-83.413 Z-3.200 F1800.000
G1 X-383.763 Y-83.404 Z-3.200 F1800.000
G2 X-383.766 Y-83.398 Z-3.200 I0.001 J0.004 K0.000 F1800.000
G3 X-382.175 Y-81.800 Z-3.200 I-0.050 J1.641 K0.000 F1800.000
G1 X-382.175 Y-58.200 Z-3.200 F1800.000
G3 X-383.763 Y-56.604 Z-3.200 I-1.603 J-0.006 K0.000 F1800.000
G2 X-383.766 Y-56.599 Z-3.200 I0.001 J0.004 K0.000 F1800.000
G2 X-383.679 Y-56.588 Z-3.200 I0.049 J-0.034 K0.000 F1800.000
G1 X-377.440 Y-56.588 Z-3.200 F1800.000
G1 X-377.362 Y-56.595 Z-3.200 F1800.000
G1 X-377.362 Y-56.595 Z-6.400 F1400.000
G2 X-377.358 Y-56.603 Z-6.400 I-0.001 J-0.005 K0.000 F1800.000
G3 X-378.950 Y-58.200 Z-6.400 I0.045 J-1.637 K0.000 F1800.000
G1 X-378.950 Y-81.800 Z-6.400 F1800.000
G3 X-377.362 Y-83.395 Z-6.400 I1.601 J0.006 K0.000 F1800.000
G2 X-377.358 Y-83.400 Z-6.400 I-0.001 J-0.005 K0.000 F1800.000
G2 X-377.440 Y-83.412 Z-6.400 I-0.045 J0.017 K0.000 F1800.000
G1 X-383.679 Y-83.413 Z-6.400 F1800.000
G1 X-383.763 Y-83.404 Z-6.400 F1800.000
G2 X-383.766 Y-83.398 Z-6.400 I0.001 J0.004 K0.000 F1800.000
G3 X-382.175 Y-81.800 Z-6.400 I-0.050 J1.641 K0.000 F1800.000
G1 X-382.175 Y-58.200 Z-6.400 F1800.000
G3 X-383.763 Y-56.604 Z-6.400 I-1.603 J-0.006 K0.000 F1800.000
G2 X-383.766 Y-56.599 Z-6.400 I0.001 J0.004 K0.000 F1800.000
G2 X-383.679 Y-56.588 Z-6.400 I0.049 J-0.034 K0.000 F1800.000
G1 X-377.440 Y-56.588 Z-6.400 F1800.000
G1 X-377.362 Y-56.595 Z-6.400 F1800.000
G0 Z5.000
G0 Z5.000
(Finish operation: Profile003)
(Begin operation: Engrave001)
(Path: Engrave001)
(Engrave001)
G0 Z5.000
G0 Z5.000
G0 X-384.175 Y-120.238
G0 Z3.000
G1 X-384.175 Y-120.238 Z-1.000 F1400.000
G1 X-5.675 Y-120.238 Z-1.000 F1800.000
G0 Z5.000
G0 Z5.000
G0 X-192.175 Y-1.588
G0 Z3.000
G1 X-192.175 Y-1.588 Z-1.000 F1400.000
G1 X-192.175 Y-118.063 Z-1.000 F1800.000
G0 Z5.000
(Finish operation: Engrave001)
(Begin operation: Profile004)
(Path: Profile004)
(Profile004)
(Compensated Tool Path. Diameter: 3.175)
G0 Z5.000
G0 X-0.762 Y-1.174
G0 Z3.000
G1 X-0.762 Y-1.174 Z-3.200 F1400.000
G2 X-0.000 Y-3.000 Z-3.200 I-1.839 J-1.839 K0.000 F1800.000
G1 X0.000 Y-116.650 Z-3.200 F1800.000
G2 X-2.587 Y-119.237 Z-3.200 I-2.600 J0.013 K0.000 F1800.000
G1 X-4.500 Y-119.237 Z-3.200 F1800.000
G1 X-4.500 Y-139.825 Z-3.200 F1800.000
G2 X-7.087 Y-142.412 Z-3.200 I-2.600 J0.013 K0.000 F1800.000
G1 X-185.087 Y-142.412 Z-3.200 F1800.000
G2 X-187.675 Y-139.825 Z-3.200 I0.013 J2.600 K0.000 F1800.000
G1 X-187.675 Y-119.237 Z-3.200 F1800.000
G1 X-202.175 Y-119.237 Z-3.200 F1800.000
G1 X-202.175 Y-139.825 Z-3.200 F1800.000
G2 X-204.762 Y-142.412 Z-3.200 I-2.600 J0.013 K0.000 F1800.000
G1 X-382.762 Y-142.412 Z-3.200 F1800.000
G2 X-385.350 Y-139.825 Z-3.200 I0.013 J2.600 K0.000 F1800.000
G1 X-385.350 Y-119.237 Z-3.200 F1800.000
G1 X-392.762 Y-119.237 Z-3.200 F1800.000
G2 X-395.350 Y-116.650 Z-3.200 I0.013 J2.600 K0.000 F1800.000
G1 X-395.350 Y-3.000 Z-3.200 F1800.000
G2 X-392.762 Y-0.412 Z-3.200 I2.600 J-0.013 K0.000 F1800.000
G1 X-383.762 Y-0.413 Z-3.200 F1800.000
G2 X-382.175 Y-2.000 Z-3.200 I-0.000 J-1.588 K0.000 F1800.000
G1 X-382.175 Y-8.800 Z-3.200 F1800.000
G2 X-383.763 Y-10.396 Z-3.200 I-1.603 J0.006 K0.000 F1800.000
G3 X-383.766 Y-10.401 Z-3.200 I0.001 J-0.004 K0.000 F1800.000
G3 X-383.679 Y-10.413 Z-3.200 I0.049 J0.034 K0.000 F1800.000
G1 X-377.440 Y-10.413 Z-3.200 F1800.000
G1 X-377.362 Y-10.405 Z-3.200 F1800.000
G3 X-377.358 Y-10.397 Z-3.200 I-0.001 J0.005 K0.000 F1800.000
G2 X-378.950 Y-8.800 Z-3.200 I0.045 J1.637 K0.000 F1800.000
G1 X-378.950 Y-2.000 Z-3.200 F1800.000
G2 X-377.362 Y-0.413 Z-3.200 I1.587 J0.000 K0.000 F1800.000
G1 X-300.362 Y-0.413 Z-3.200 F1800.000
G2 X-297.183 Y-3.444 Z-3.200 I-0.007 J-3.191 K0.000 F1800.000
G1 X-297.175 Y-20.322 Z-3.200 F1800.000
G3 X-297.085 Y-20.413 Z-3.200 I0.056 J-0.035 K0.000 F1800.000
G1 X-290.440 Y-20.413 Z-3.200 F1800.000
G3 X-290.350 Y-20.322 Z-3.200 I0.035 J0.055 K0.000 F1800.000
G1 X-290.350 Y-3.600 Z-3.200 F1800.000
G2 X-287.318 Y-0.420 Z-3.200 I3.191 J-0.007 K0.000 F1800.000
G1 X-210.162 Y-0.413 Z-3.200 F1800.000
G2 X-208.575 Y-2.000 Z-3.200 I0.000 J-1.587 K0.000 F1800.000
G1 X-208.575 Y-8.800 Z-3.200 F1800.000
G2 X-210.163 Y-10.396 Z-3.200 I-1.603 J0.006 K0.000 F1800.000
G3 X-210.166 Y-10.401 Z-3.200 I0.001 J-0.004 K0.000 F1800.000
G3 X-210.079 Y-10.413 Z-3.200 I0.049 J0.034 K0.000 F1800.000
G1 X-203.840 Y-10.413 Z-3.200 F1800.000
G1 X-203.762 Y-10.405 Z-3.200 F1800.000
G3 X-203.758 Y-10.397 Z-3.200 I-0.001 J0.005 K0.000 F1800.000
G2 X-205.350 Y-8.800 Z-3.200 I0.045 J1.637 K0.000 F1800.000
G1 X-205.350 Y-2.000 Z-3.200 F1800.000
G2 X-203.762 Y-0.413 Z-3.200 I1.587 J0.000 K0.000 F1800.000
G1 X-168.487 Y-0.413 Z-3.200 F1800.000
G2 X-165.308 Y-3.444 Z-3.200 I-0.007 J-3.191 K0.000 F1800.000
G1 X-165.300 Y-12.821 Z-3.200 F1800.000
G3 X-165.210 Y-12.913 Z-3.200 I0.056 J-0.035 K0.000 F1800.000
G1 X-148.565 Y-12.913 Z-3.200 F1800.000
G3 X-148.475 Y-12.822 Z-3.200 I0.035 J0.055 K0.000 F1800.000
G1 X-148.475 Y-3.600 Z-3.200 F1800.000
G2 X-145.443 Y-0.420 Z-3.200 I3.191 J-0.007 K0.000 F1800.000
G1 X-46.888 Y-0.413 Z-3.200 F1800.000
G2 X-43.708 Y-3.444 Z-3.200 I-0.007 J-3.191 K0.000 F1800.000
G1 X-43.700 Y-12.821 Z-3.200 F1800.000
G3 X-43.610 Y-12.913 Z-3.200 I0.056 J-0.035 K0.000 F1800.000
G1 X-26.965 Y-12.913 Z-3.200 F1800.000
G3 X-26.875 Y-12.822 Z-3.200 I0.035 J0.055 K0.000 F1800.000
G1 X-26.875 Y-3.600 Z-3.200 F1800.000
G2 X-23.843 Y-0.420 Z-3.200 I3.191 J-0.007 K0.000 F1800.000
G1 X-2.587 Y-0.413 Z-3.200 F1800.000
G2 X-0.762 Y-1.174 Z-3.200 I-0.013 J-2.600 K0.000 F1800.000
G1 X-0.762 Y-1.174 Z-6.400 F1400.000
G2 X-0.000 Y-3.000 Z-6.400 I-1.839 J-1.839 K0.000 F1800.000
G1 X0.000 Y-116.650 Z-6.400 F1800.000
G2 X-2.587 Y-119.237 Z-6.400 I-2.600 J0.013 K0.000 F1800.000
G1 X-4.500 Y-119.237 Z-6.400 F1800.000
G1 X-4.500 Y-139.825 Z-6.400 F1800.000
G2 X-7.087 Y-142.412 Z-6.400 I-2.600 J0.013 K0.000 F1800.000
G1 X-185.087 Y-142.412 Z-6.400 F1800.000
G2 X-187.675 Y-139.825 Z-6.400 I0.013 J2.600 K0.000 F1800.000
G1 X-187.675 Y-119.237 Z-6.400 F1800.000
G1 X-202.175 Y-119.237 Z-6.400 F1800.000
G1 X-202.175 Y-139.825 Z-6.400 F1800.000
G2 X-204.762 Y-142.412 Z-6.400 I-2.600 J0.013 K0.000 F1800.000
G1 X-382.762 Y-142.412 Z-6.400 F1800.000
G2 X-385.350 Y-139.825 Z-6.400 I0.013 J2.600 K0.000 F1800.000
G1 X-385.350 Y-119.237 Z-6.400 F1800.000
G1 X-392.762 Y-119.237 Z-6.400 F1800.000
G2 X-395.350 Y-116.650 Z-6.400 I0.013 J2.600 K0.000 F1800.000
G1 X-395.350 Y-3.000 Z-6.400 F1800.000
G2 X-392.762 Y-0.412 Z-6.400 I2.600 J-0.013 K0.000 F1800.000
G1 X-383.762 Y-0.413 Z-6.400 F1800.000
G2 X-382.175 Y-2.000 Z-6.400 I-0.000 J-1.588 K0.000 F1800.000
G1 X-382.175 Y-8.800 Z-6.400 F1800.000
G2 X-383.763 Y-10.396 Z-6.400 I-1.603 J0.006 K0.000 F1800.000
G3 X-383.766 Y-10.401 Z-6.400 I0.001 J-0.004 K0.000 F1800.000
G3 X-383.679 Y-10.413 Z-6.400 I0.049 J0.034 K0.000 F1800.000
G1 X-377.440 Y-10.413 Z-6.400 F1800.000
G1 X-377.362 Y-10.405 Z-6.400 F1800.000
G3 X-377.358 Y-10.397 Z-6.400 I-0.001 J0.005 K0.000 F1800.000
G2 X-378.950 Y-8.800 Z-6.400 I0.045 J1.637 K0.000 F1800.000
G1 X-378.950 Y-2.000 Z-6.400 F1800.000
G2 X-377.362 Y-0.413 Z-6.400 I1.587 J0.000 K0.000 F1800.000
G1 X-300.362 Y-0.413 Z-6.400 F1800.000
G2 X-297.183 Y-3.444 Z-6.400 I-0.007 J-3.191 K0.000 F1800.000
G1 X-297.175 Y-20.322 Z-6.400 F1800.000
G3 X-297.085 Y-20.413 Z-6.400 I0.056 J-0.035 K0.000 F1800.000
G1 X-290.440 Y-20.413 Z-6.400 F1800.000
G3 X-290.350 Y-20.322 Z-6.400 I0.035 J0.055 K0.000 F1800.000
G1 X-290.350 Y-3.600 Z-6.400 F1800.000
G2 X-287.318 Y-0.420 Z-6.400 I3.191 J-0.007 K0.000 F1800.000
G1 X-210.162 Y-0.413 Z-6.400 F1800.000
G2 X-208.575 Y-2.000 Z-6.400 I0.000 J-1.587 K0.000 F1800.000
G1 X-208.575 Y-8.800 Z-6.400 F1800.000
G2 X-210.163 Y-10.396 Z-6.400 I-1.603 J0.006 K0.000 F1800.000
G3 X-210.166 Y-10.401 Z-6.400 I0.001 J-0.004 K0.000 F1800.000
G3 X-210.079 Y-10.413 Z-6.400 I0.049 J0.034 K0.000 F1800.000
G1 X-203.840 Y-10.413 Z-6.400 F1800.000
G1 X-203.762 Y-10.405 Z-6.400 F1800.000
G3 X-203.758 Y-10.397 Z-6.400 I-0.001 J0.005 K0.000 F1800.000
G2 X-205.350 Y-8.800 Z-6.400 I0.045 J1.637 K0.000 F1800.000
G1 X-205.350 Y-2.000 Z-6.400 F1800.000
G2 X-203.762 Y-0.413 Z-6.400 I1.587 J0.000 K0.000 F1800.000
G1 X-168.487 Y-0.413 Z-6.400 F1800.000
G2 X-165.308 Y-3.444 Z-6.400 I-0.007 J-3.191 K0.000 F1800.000
G1 X-165.300 Y-12.821 Z-6.400 F1800.000
G3 X-165.210 Y-12.913 Z-6.400 I0.056 J-0.035 K0.000 F1800.000
G1 X-148.565 Y-12.913 Z-6.400 F1800.000
G3 X-148.475 Y-12.822 Z-6.400 I0.035 J0.055 K0.000 F1800.000
G1 X-148.475 Y-3.600 Z-6.400 F1800.000
G2 X-145.443 Y-0.420 Z-6.400 I3.191 J-0.007 K0.000 F1800.000
G1 X-46.888 Y-0.413 Z-6.400 F1800.000
G2 X-43.708 Y-3.444 Z-6.400 I-0.007 J-3.191 K0.000 F1800.000
G1 X-43.700 Y-12.821 Z-6.400 F1800.000
G3 X-43.610 Y-12.913 Z-6.400 I0.056 J-0.035 K0.000 F1800.000
G1 X-26.965 Y-12.913 Z-6.400 F1800.000
G3 X-26.875 Y-12.822 Z-6.400 I0.035 J0.055 K0.000 F1800.000
G1 X-26.875 Y-3.600 Z-6.400 F1800.000
G2 X-23.843 Y-0.420 Z-6.400 I3.191 J-0.007 K0.000 F1800.000
G1 X-2.587 Y-0.413 Z-6.400 F1800.000
G2 X-0.762 Y-1.174 Z-6.400 I-0.013 J-2.600 K0.000 F1800.000
G0 Z5.000
G0 Z5.000
(Finish operation: Profile004)
(Begin postamble)
M5
G17 G90
M2
