(Exported by FreeCAD)
(Post Processor: grbl_post)
(Output Time:2024-02-13 11:20:58.062523)
(Begin preamble)
G17 G90
G21
(Begin operation: Fixture)
(Path: Fixture)
G54
(Finish operation: Fixture)
(Begin operation: 1/8th in Endmill003)
(Path: 1/8th in Endmill003)
(1/8th in Endmill003)
(Begin toolchange)
( M6 T2 )
(Finish operation: 1/8th in Endmill003)
(Begin operation: Engrave)
(Path: Engrave)
(Engrave)
G0 Z5.000
G0 Z5.000
G0 X-75.075 Y-1.588
G0 Z3.000
G1 X-75.075 Y-1.588 Z-1.000 F1400.000
G1 X-75.075 Y-85.000 Z-1.000 F1800.000
G0 Z5.000
G0 Z5.000
G0 X-247.375 Y-1.588
G0 Z3.000
G1 X-247.375 Y-1.588 Z-1.000 F1400.000
G1 X-247.375 Y-85.000 Z-1.000 F1800.000
G0 Z5.000
(Finish operation: Engrave)
(Begin operation: Drilling)
(Path: Drilling)
(Drilling)
(Begin Drilling)
G0 Z5.000
G90
( G98 )
G0 X-64.088 Y-4.588
(G81 X-64.088 Y-4.588 Z-1.000 F1400.000 R3.000)
G0 X-64.088 Y-4.588
G0 Z3.000 F1400.00
G1 Z-1.000 F1400.00
G0 Z3.000
G0 X-64.088 Y-111.588
(G81 X-64.088 Y-111.588 Z-1.000 F1400.000 R3.000)
G0 X-64.088 Y-111.588
G0 Z3.000 F1400.00
G1 Z-1.000 F1400.00
G0 Z3.000
G0 X-258.388 Y-111.588
(G81 X-258.388 Y-111.588 Z-1.000 F1400.000 R3.000)
G0 X-258.388 Y-111.588
G0 Z3.000 F1400.00
G1 Z-1.000 F1400.00
G0 Z3.000
G0 X-258.388 Y-4.588
(G81 X-258.388 Y-4.588 Z-1.000 F1400.000 R3.000)
G0 X-258.388 Y-4.588
G0 Z3.000 F1400.00
G1 Z-1.000 F1400.00
G0 Z3.000
( G80 )
G0 Z3.000
G0 Z5.000
(Finish operation: Drilling)
(Begin operation: Pocket_Shape)
(Path: Pocket_Shape)
(Pocket_Shape)
G0 Z5.000
G0 X-150.664 Y-18.264
G0 Z3.000
G1 X-150.664 Y-18.264 Z-2.000 F1400.000
G2 X-150.686 Y-18.427 Z-2.000 I-0.073 J-0.073 K0.000 F1800.000
G2 X-150.827 Y-18.389 Z-2.000 I-0.052 J0.090 K0.000 F1800.000
G2 X-150.789 Y-18.248 Z-2.000 I0.090 J0.052 K0.000 F1800.000
G2 X-150.664 Y-18.264 Z-2.000 I0.052 J-0.090 K0.000 F1800.000
G1 X-150.664 Y-18.264 Z-4.000 F1400.000
G2 X-150.686 Y-18.427 Z-4.000 I-0.073 J-0.073 K0.000 F1800.000
G2 X-150.827 Y-18.389 Z-4.000 I-0.052 J0.090 K0.000 F1800.000
G2 X-150.789 Y-18.248 Z-4.000 I0.090 J0.052 K0.000 F1800.000
G2 X-150.664 Y-18.264 Z-4.000 I0.052 J-0.090 K0.000 F1800.000
G0 Z5.000
G0 Z5.000
G0 X-150.664 Y-18.264
G0 X-150.737 Y-31.734
G0 X-150.737 Y-31.734 Z3.000
G1 X-150.737 Y-31.734 Z-2.000 F1400.000
G2 X-150.686 Y-31.927 Z-2.000 I-0.001 J-0.104 K0.000 F1800.000
G2 X-150.827 Y-31.889 Z-2.000 I-0.052 J0.090 K0.000 F1800.000
G2 X-150.789 Y-31.748 Z-2.000 I0.090 J0.052 K0.000 F1800.000
G2 X-150.737 Y-31.734 Z-2.000 I0.052 J-0.090 K0.000 F1800.000
G1 X-150.737 Y-31.734 Z-4.000 F1400.000
G2 X-150.686 Y-31.927 Z-4.000 I-0.001 J-0.104 K0.000 F1800.000
G2 X-150.827 Y-31.889 Z-4.000 I-0.052 J0.090 K0.000 F1800.000
G2 X-150.789 Y-31.748 Z-4.000 I0.090 J0.052 K0.000 F1800.000
G2 X-150.737 Y-31.734 Z-4.000 I0.052 J-0.090 K0.000 F1800.000
G0 Z5.000
G0 Z5.000
G0 X-150.737 Y-31.734
G0 X-171.634 Y-31.837
G0 X-171.634 Y-31.837 Z3.000
G1 X-171.634 Y-31.837 Z-2.000 F1400.000
G2 X-171.686 Y-31.927 Z-2.000 I-0.104 J-0.001 K0.000 F1800.000
G2 X-171.827 Y-31.889 Z-2.000 I-0.052 J0.090 K0.000 F1800.000
G2 X-171.789 Y-31.748 Z-2.000 I0.090 J0.052 K0.000 F1800.000
G2 X-171.634 Y-31.837 Z-2.000 I0.052 J-0.090 K0.000 F1800.000
G1 X-171.634 Y-31.837 Z-4.000 F1400.000
G2 X-171.686 Y-31.927 Z-4.000 I-0.104 J-0.001 K0.000 F1800.000
G2 X-171.827 Y-31.889 Z-4.000 I-0.052 J0.090 K0.000 F1800.000
G2 X-171.789 Y-31.748 Z-4.000 I0.090 J0.052 K0.000 F1800.000
G2 X-171.634 Y-31.837 Z-4.000 I0.052 J-0.090 K0.000 F1800.000
G0 Z5.000
G0 Z5.000
G0 X-171.634 Y-31.837
G0 X-171.737 Y-18.441
G0 X-171.737 Y-18.441 Z3.000
G1 X-171.737 Y-18.441 Z-2.000 F1400.000
G2 X-171.789 Y-18.248 Z-2.000 I-0.001 J0.104 K0.000 F1800.000
G2 X-171.686 Y-18.427 Z-2.000 I0.052 J-0.090 K0.000 F1800.000
G2 X-171.737 Y-18.441 Z-2.000 I-0.052 J0.090 K0.000 F1800.000
G1 X-171.737 Y-18.441 Z-4.000 F1400.000
G2 X-171.789 Y-18.248 Z-4.000 I-0.001 J0.104 K0.000 F1800.000
G2 X-171.686 Y-18.427 Z-4.000 I0.052 J-0.090 K0.000 F1800.000
G2 X-171.737 Y-18.441 Z-4.000 I-0.052 J0.090 K0.000 F1800.000
G0 Z5.000
G0 Z5.000
(Finish operation: Pocket_Shape)
(Begin operation: Pocket_Shape001)
(Path: Pocket_Shape001)
(Pocket_Shape001)
G0 Z5.000
G0 X-157.376 Y-20.726
G0 Z3.000
G1 X-157.376 Y-20.726 Z-3.200 F1400.000
G2 X-160.102 Y-29.929 Z-3.200 I-3.861 J-3.861 K0.000 F1800.000
G2 X-162.373 Y-19.246 Z-3.200 I-1.135 J5.341 K0.000 F1800.000
G2 X-157.376 Y-20.726 Z-3.200 I1.135 J-5.341 K0.000 F1800.000
G0 Z5.000
G0 X-158.051 Y-21.401 Z5.000
G0 X-158.051 Y-21.401 Z3.000
G1 X-158.051 Y-21.401 Z-3.200 F1400.000
G2 X-160.301 Y-28.996 Z-3.200 I-3.187 J-3.187 K0.000 F1800.000
G2 X-165.646 Y-25.524 Z-3.200 I-0.937 J4.408 K0.000 F1800.000
G2 X-162.174 Y-20.179 Z-3.200 I4.408 J0.937 K0.000 F1800.000
G2 X-158.051 Y-21.401 Z-3.200 I0.937 J-4.408 K0.000 F1800.000
G0 Z5.000
G0 X-158.725 Y-22.075 Z5.000
G0 X-158.725 Y-22.075 Z3.000
G1 X-158.725 Y-22.075 Z-3.200 F1400.000
G2 X-160.499 Y-28.063 Z-3.200 I-2.512 J-2.512 K0.000 F1800.000
G2 X-161.976 Y-21.112 Z-3.200 I-0.739 J3.475 K0.000 F1800.000
G2 X-158.725 Y-22.075 Z-3.200 I0.739 J-3.475 K0.000 F1800.000
G0 Z5.000
G0 X-159.400 Y-22.750 Z5.000
G0 X-159.400 Y-22.750 Z3.000
G1 X-159.400 Y-22.750 Z-3.200 F1400.000
G2 X-160.697 Y-27.130 Z-3.200 I-1.838 J-1.838 K0.000 F1800.000
G2 X-163.780 Y-25.128 Z-3.200 I-0.540 J2.542 K0.000 F1800.000
G2 X-161.778 Y-22.045 Z-3.200 I2.542 J0.540 K0.000 F1800.000
G2 X-159.400 Y-22.750 Z-3.200 I0.540 J-2.542 K0.000 F1800.000
G0 Z5.000
G0 X-160.074 Y-23.424 Z5.000
G0 X-160.074 Y-23.424 Z3.000
G1 X-160.074 Y-23.424 Z-3.200 F1400.000
G2 X-160.895 Y-26.197 Z-3.200 I-1.163 J-1.163 K0.000 F1800.000
G2 X-161.580 Y-22.978 Z-3.200 I-0.342 J1.609 K0.000 F1800.000
G2 X-160.074 Y-23.424 Z-3.200 I0.342 J-1.609 K0.000 F1800.000
G0 Z5.000
G0 X-160.749 Y-24.099 Z5.000
G0 X-160.749 Y-24.099 Z3.000
G1 X-160.749 Y-24.099 Z-3.200 F1400.000
G2 X-161.094 Y-25.264 Z-3.200 I-0.489 J-0.489 K0.000 F1800.000
G2 X-161.381 Y-23.911 Z-3.200 I-0.144 J0.676 K0.000 F1800.000
G2 X-160.749 Y-24.099 Z-3.200 I0.144 J-0.676 K0.000 F1800.000
G1 X-160.749 Y-24.099 Z-6.400 F1400.000
G2 X-161.094 Y-25.264 Z-6.400 I-0.489 J-0.489 K0.000 F1800.000
G2 X-161.381 Y-23.911 Z-6.400 I-0.144 J0.676 K0.000 F1800.000
G2 X-160.749 Y-24.099 Z-6.400 I0.144 J-0.676 K0.000 F1800.000
G0 Z5.000
G0 X-160.074 Y-23.424 Z5.000
G0 X-160.074 Y-23.424 Z3.000
G1 X-160.074 Y-23.424 Z-6.400 F1400.000
G2 X-160.895 Y-26.197 Z-6.400 I-1.163 J-1.163 K0.000 F1800.000
G2 X-161.580 Y-22.978 Z-6.400 I-0.342 J1.609 K0.000 F1800.000
G2 X-160.074 Y-23.424 Z-6.400 I0.342 J-1.609 K0.000 F1800.000
G0 Z5.000
G0 X-159.400 Y-22.750 Z5.000
G0 X-159.400 Y-22.750 Z3.000
G1 X-159.400 Y-22.750 Z-6.400 F1400.000
G2 X-160.697 Y-27.130 Z-6.400 I-1.838 J-1.838 K0.000 F1800.000
G2 X-163.780 Y-25.128 Z-6.400 I-0.540 J2.542 K0.000 F1800.000
G2 X-161.778 Y-22.045 Z-6.400 I2.542 J0.540 K0.000 F1800.000
G2 X-159.400 Y-22.750 Z-6.400 I0.540 J-2.542 K0.000 F1800.000
G0 Z5.000
G0 X-158.725 Y-22.075 Z5.000
G0 X-158.725 Y-22.075 Z3.000
G1 X-158.725 Y-22.075 Z-6.400 F1400.000
G2 X-160.499 Y-28.063 Z-6.400 I-2.512 J-2.512 K0.000 F1800.000
G2 X-161.976 Y-21.112 Z-6.400 I-0.739 J3.475 K0.000 F1800.000
G2 X-158.725 Y-22.075 Z-6.400 I0.739 J-3.475 K0.000 F1800.000
G0 Z5.000
G0 X-158.051 Y-21.401 Z5.000
G0 X-158.051 Y-21.401 Z3.000
G1 X-158.051 Y-21.401 Z-6.400 F1400.000
G2 X-160.301 Y-28.996 Z-6.400 I-3.187 J-3.187 K0.000 F1800.000
G2 X-165.646 Y-25.524 Z-6.400 I-0.937 J4.408 K0.000 F1800.000
G2 X-162.174 Y-20.179 Z-6.400 I4.408 J0.937 K0.000 F1800.000
G2 X-158.051 Y-21.401 Z-6.400 I0.937 J-4.408 K0.000 F1800.000
G0 Z5.000
G0 X-157.376 Y-20.726 Z5.000
G0 X-157.376 Y-20.726 Z3.000
G1 X-157.376 Y-20.726 Z-6.400 F1400.000
G2 X-160.102 Y-29.929 Z-6.400 I-3.861 J-3.861 K0.000 F1800.000
G2 X-162.373 Y-19.246 Z-6.400 I-1.135 J5.341 K0.000 F1800.000
G2 X-157.376 Y-20.726 Z-6.400 I1.135 J-5.341 K0.000 F1800.000
G0 Z5.000
G0 Z5.000
(Finish operation: Pocket_Shape001)
(Begin operation: Profile002)
(Path: Profile002)
(Profile002)
(Compensated Tool Path. Diameter: 3.175)
G0 Z5.000
G0 X-1.054 Y-1.053
G0 Z3.000
G1 X-1.054 Y-1.053 Z-3.175 F1400.000
G2 X-0.008 Y-3.432 Z-3.175 I-2.541 J-2.538 K0.000 F1800.000
G1 X-0.000 Y-16.588 Z-3.175 F1800.000
G2 X-3.432 Y-20.167 Z-3.175 I-3.591 J0.008 K0.000 F1800.000
G1 X-7.588 Y-20.175 Z-3.175 F1800.000
G2 X-11.167 Y-16.743 Z-3.175 I0.008 J3.591 K0.000 F1800.000
G1 X-11.175 Y-15.288 Z-3.175 F1800.000
G2 X-9.100 Y-13.196 Z-3.175 I2.094 J-0.003 K0.000 F1800.000
G3 X-9.083 Y-13.188 Z-3.175 I0.005 J0.012 K0.000 F1800.000
G3 X-9.165 Y-13.175 Z-3.175 I-0.045 J-0.017 K0.000 F1800.000
G1 X-16.360 Y-13.175 Z-3.175 F1800.000
G1 X-16.438 Y-13.183 Z-3.175 F1800.000
G3 X-16.442 Y-13.188 Z-3.175 I0.001 J-0.005 K0.000 F1800.000
G2 X-14.350 Y-15.288 Z-3.175 I-0.033 J-2.125 K0.000 F1800.000
G1 X-14.350 Y-23.588 Z-3.175 F1800.000
G2 X-16.438 Y-25.675 Z-3.175 I-2.088 J0.000 K0.000 F1800.000
G1 X-22.710 Y-25.675 Z-3.175 F1800.000
G1 X-22.788 Y-25.683 Z-3.175 F1800.000
G3 X-22.792 Y-25.688 Z-3.175 I0.001 J-0.005 K0.000 F1800.000
G2 X-20.700 Y-27.788 Z-3.175 I-0.033 J-2.125 K0.000 F1800.000
G1 X-20.700 Y-31.388 Z-3.175 F1800.000
G2 X-22.775 Y-33.479 Z-3.175 I-2.094 J0.003 K0.000 F1800.000
G3 X-22.792 Y-33.488 Z-3.175 I-0.005 J-0.012 K0.000 F1800.000
G3 X-22.710 Y-33.500 Z-3.175 I0.045 J0.017 K0.000 F1800.000
G1 X-16.438 Y-33.500 Z-3.175 F1800.000
G2 X-14.350 Y-35.588 Z-3.175 I-0.000 J-2.088 K0.000 F1800.000
G1 X-14.350 Y-70.887 Z-3.175 F1800.000
G2 X-16.427 Y-72.980 Z-3.175 I-2.097 J0.004 K0.000 F1800.000
G3 X-16.441 Y-72.989 Z-3.175 I-0.005 J-0.008 K0.000 F1800.000
G3 X-16.354 Y-73.000 Z-3.175 I0.049 J0.034 K0.000 F1800.000
G1 X-3.588 Y-73.000 Z-3.175 F1800.000
G2 X-0.008 Y-76.432 Z-3.175 I-0.008 J-3.591 K0.000 F1800.000
G1 X-0.000 Y-92.587 Z-3.175 F1800.000
G2 X-3.432 Y-96.167 Z-3.175 I-3.591 J0.008 K0.000 F1800.000
G1 X-7.588 Y-96.175 Z-3.175 F1800.000
G2 X-11.167 Y-92.743 Z-3.175 I0.008 J3.591 K0.000 F1800.000
G1 X-11.175 Y-88.287 Z-3.175 F1800.000
G2 X-9.100 Y-86.196 Z-3.175 I2.094 J-0.003 K0.000 F1800.000
G3 X-9.083 Y-86.187 Z-3.175 I0.005 J0.012 K0.000 F1800.000
G3 X-9.165 Y-86.175 Z-3.175 I-0.045 J-0.017 K0.000 F1800.000
G1 X-16.354 Y-86.175 Z-3.175 F1800.000
G1 X-16.438 Y-86.184 Z-3.175 F1800.000
G3 X-16.441 Y-86.188 Z-3.175 I0.001 J-0.004 K0.000 F1800.000
G2 X-14.350 Y-88.287 Z-3.175 I-0.035 J-2.127 K0.000 F1800.000
G1 X-14.350 Y-95.587 Z-3.175 F1800.000
G2 X-16.438 Y-97.675 Z-3.175 I-2.088 J0.000 K0.000 F1800.000
G1 X-22.710 Y-97.675 Z-3.175 F1800.000
G1 X-22.788 Y-97.683 Z-3.175 F1800.000
G3 X-22.792 Y-97.688 Z-3.175 I0.001 J-0.005 K0.000 F1800.000
G2 X-20.700 Y-99.787 Z-3.175 I-0.033 J-2.125 K0.000 F1800.000
G1 X-20.700 Y-103.387 Z-3.175 F1800.000
G2 X-22.777 Y-105.480 Z-3.175 I-2.097 J0.004 K0.000 F1800.000
G3 X-22.791 Y-105.489 Z-3.175 I-0.005 J-0.008 K0.000 F1800.000
G3 X-22.704 Y-105.500 Z-3.175 I0.049 J0.034 K0.000 F1800.000
G1 X-16.438 Y-105.500 Z-3.175 F1800.000
G2 X-14.350 Y-107.587 Z-3.175 I-0.000 J-2.088 K0.000 F1800.000
G1 X-14.350 Y-114.087 Z-3.175 F1800.000
G2 X-16.438 Y-116.175 Z-3.175 I-2.088 J0.000 K0.000 F1800.000
G1 X-72.988 Y-116.175 Z-3.175 F1800.000
G2 X-75.075 Y-114.087 Z-3.175 I0.000 J2.088 K0.000 F1800.000
G1 X-75.075 Y-88.287 Z-3.175 F1800.000
G2 X-73.000 Y-86.196 Z-3.175 I2.094 J-0.003 K0.000 F1800.000
G3 X-72.983 Y-86.187 Z-3.175 I0.005 J0.012 K0.000 F1800.000
G3 X-73.065 Y-86.175 Z-3.175 I-0.045 J-0.017 K0.000 F1800.000
G1 X-249.410 Y-86.175 Z-3.175 F1800.000
G1 X-249.488 Y-86.183 Z-3.175 F1800.000
G3 X-249.492 Y-86.188 Z-3.175 I0.001 J-0.005 K0.000 F1800.000
G2 X-247.400 Y-88.287 Z-3.175 I-0.033 J-2.125 K0.000 F1800.000
G1 X-247.400 Y-114.087 Z-3.175 F1800.000
G2 X-249.487 Y-116.175 Z-3.175 I-2.088 J0.000 K0.000 F1800.000
G1 X-306.037 Y-116.175 Z-3.175 F1800.000
G2 X-308.125 Y-114.087 Z-3.175 I0.000 J2.088 K0.000 F1800.000
G1 X-308.125 Y-107.587 Z-3.175 F1800.000
G2 X-306.037 Y-105.500 Z-3.175 I2.088 J-0.000 K0.000 F1800.000
G1 X-299.765 Y-105.500 Z-3.175 F1800.000
G1 X-299.687 Y-105.492 Z-3.175 F1800.000
G3 X-299.683 Y-105.487 Z-3.175 I-0.001 J0.005 K0.000 F1800.000
G2 X-301.775 Y-103.387 Z-3.175 I0.033 J2.125 K0.000 F1800.000
G1 X-301.775 Y-99.787 Z-3.175 F1800.000
G2 X-299.700 Y-97.696 Z-3.175 I2.094 J-0.003 K0.000 F1800.000
G3 X-299.683 Y-97.687 Z-3.175 I0.005 J0.012 K0.000 F1800.000
G3 X-299.765 Y-97.675 Z-3.175 I-0.045 J-0.017 K0.000 F1800.000
G1 X-306.037 Y-97.675 Z-3.175 F1800.000
G2 X-308.125 Y-95.587 Z-3.175 I0.000 J2.088 K0.000 F1800.000
G1 X-308.125 Y-88.287 Z-3.175 F1800.000
G2 X-306.050 Y-86.196 Z-3.175 I2.094 J-0.003 K0.000 F1800.000
G3 X-306.033 Y-86.187 Z-3.175 I0.005 J0.012 K0.000 F1800.000
G3 X-306.115 Y-86.175 Z-3.175 I-0.045 J-0.017 K0.000 F1800.000
G1 X-313.304 Y-86.175 Z-3.175 F1800.000
G1 X-313.388 Y-86.184 Z-3.175 F1800.000
G3 X-313.391 Y-86.188 Z-3.175 I0.001 J-0.004 K0.000 F1800.000
G2 X-311.300 Y-88.287 Z-3.175 I-0.035 J-2.127 K0.000 F1800.000
G1 X-311.300 Y-92.587 Z-3.175 F1800.000
G2 X-314.732 Y-96.167 Z-3.175 I-3.591 J0.008 K0.000 F1800.000
G1 X-318.887 Y-96.175 Z-3.175 F1800.000
G2 X-322.467 Y-92.743 Z-3.175 I0.008 J3.591 K0.000 F1800.000
G1 X-322.475 Y-76.587 Z-3.175 F1800.000
G2 X-319.043 Y-73.008 Z-3.175 I3.591 J-0.008 K0.000 F1800.000
G1 X-306.121 Y-73.000 Z-3.175 F1800.000
G1 X-306.037 Y-72.991 Z-3.175 F1800.000
G3 X-306.034 Y-72.987 Z-3.175 I-0.001 J0.004 K0.000 F1800.000
G2 X-308.125 Y-70.887 Z-3.175 I0.035 J2.127 K0.000 F1800.000
G1 X-308.125 Y-35.588 Z-3.175 F1800.000
G2 X-306.037 Y-33.500 Z-3.175 I2.088 J-0.000 K0.000 F1800.000
G1 X-299.765 Y-33.500 Z-3.175 F1800.000
G1 X-299.687 Y-33.492 Z-3.175 F1800.000
G3 X-299.683 Y-33.487 Z-3.175 I-0.001 J0.005 K0.000 F1800.000
G2 X-301.775 Y-31.388 Z-3.175 I0.033 J2.125 K0.000 F1800.000
G1 X-301.775 Y-27.788 Z-3.175 F1800.000
G2 X-299.700 Y-25.696 Z-3.175 I2.094 J-0.003 K0.000 F1800.000
G3 X-299.683 Y-25.688 Z-3.175 I0.005 J0.012 K0.000 F1800.000
G3 X-299.765 Y-25.675 Z-3.175 I-0.045 J-0.017 K0.000 F1800.000
G1 X-306.037 Y-25.675 Z-3.175 F1800.000
G2 X-308.125 Y-23.588 Z-3.175 I0.000 J2.088 K0.000 F1800.000
G1 X-308.125 Y-15.288 Z-3.175 F1800.000
G2 X-306.050 Y-13.196 Z-3.175 I2.094 J-0.003 K0.000 F1800.000
G3 X-306.033 Y-13.188 Z-3.175 I0.005 J0.012 K0.000 F1800.000
G3 X-306.115 Y-13.175 Z-3.175 I-0.045 J-0.017 K0.000 F1800.000
G1 X-313.310 Y-13.175 Z-3.175 F1800.000
G1 X-313.388 Y-13.183 Z-3.175 F1800.000
G3 X-313.392 Y-13.188 Z-3.175 I0.001 J-0.005 K0.000 F1800.000
G2 X-311.300 Y-15.288 Z-3.175 I-0.033 J-2.125 K0.000 F1800.000
G1 X-311.300 Y-16.588 Z-3.175 F1800.000
G2 X-314.732 Y-20.167 Z-3.175 I-3.591 J0.008 K0.000 F1800.000
G1 X-318.887 Y-20.175 Z-3.175 F1800.000
G2 X-322.467 Y-16.743 Z-3.175 I0.008 J3.591 K0.000 F1800.000
G1 X-322.475 Y-3.588 Z-3.175 F1800.000
G2 X-319.043 Y-0.008 Z-3.175 I3.591 J-0.008 K0.000 F1800.000
G1 X-3.588 Y-0.000 Z-3.175 F1800.000
G2 X-1.054 Y-1.053 Z-3.175 I-0.008 J-3.591 K0.000 F1800.000
G1 X-1.054 Y-1.053 Z-6.350 F1400.000
G2 X-0.008 Y-3.432 Z-6.350 I-2.541 J-2.538 K0.000 F1800.000
G1 X-0.000 Y-16.588 Z-6.350 F1800.000
G2 X-3.432 Y-20.167 Z-6.350 I-3.591 J0.008 K0.000 F1800.000
G1 X-7.588 Y-20.175 Z-6.350 F1800.000
G2 X-11.167 Y-16.743 Z-6.350 I0.008 J3.591 K0.000 F1800.000
G1 X-11.175 Y-15.288 Z-6.350 F1800.000
G2 X-9.100 Y-13.196 Z-6.350 I2.094 J-0.003 K0.000 F1800.000
G3 X-9.083 Y-13.188 Z-6.350 I0.005 J0.012 K0.000 F1800.000
G3 X-9.165 Y-13.175 Z-6.350 I-0.045 J-0.017 K0.000 F1800.000
G1 X-16.360 Y-13.175 Z-6.350 F1800.000
G1 X-16.438 Y-13.183 Z-6.350 F1800.000
G3 X-16.442 Y-13.188 Z-6.350 I0.001 J-0.005 K0.000 F1800.000
G2 X-14.350 Y-15.288 Z-6.350 I-0.033 J-2.125 K0.000 F1800.000
G1 X-14.350 Y-23.588 Z-6.350 F1800.000
G2 X-16.438 Y-25.675 Z-6.350 I-2.088 J0.000 K0.000 F1800.000
G1 X-22.710 Y-25.675 Z-6.350 F1800.000
G1 X-22.788 Y-25.683 Z-6.350 F1800.000
G3 X-22.792 Y-25.688 Z-6.350 I0.001 J-0.005 K0.000 F1800.000
G2 X-20.700 Y-27.788 Z-6.350 I-0.033 J-2.125 K0.000 F1800.000
G1 X-20.700 Y-31.388 Z-6.350 F1800.000
G2 X-22.775 Y-33.479 Z-6.350 I-2.094 J0.003 K0.000 F1800.000
G3 X-22.792 Y-33.488 Z-6.350 I-0.005 J-0.012 K0.000 F1800.000
G3 X-22.710 Y-33.500 Z-6.350 I0.045 J0.017 K0.000 F1800.000
G1 X-16.438 Y-33.500 Z-6.350 F1800.000
G2 X-14.350 Y-35.588 Z-6.350 I-0.000 J-2.088 K0.000 F1800.000
G1 X-14.350 Y-70.887 Z-6.350 F1800.000
G2 X-16.427 Y-72.980 Z-6.350 I-2.097 J0.004 K0.000 F1800.000
G3 X-16.441 Y-72.989 Z-6.350 I-0.005 J-0.008 K0.000 F1800.000
G3 X-16.354 Y-73.000 Z-6.350 I0.049 J0.034 K0.000 F1800.000
G1 X-3.588 Y-73.000 Z-6.350 F1800.000
G2 X-0.008 Y-76.432 Z-6.350 I-0.008 J-3.591 K0.000 F1800.000
G1 X-0.000 Y-92.587 Z-6.350 F1800.000
G2 X-3.432 Y-96.167 Z-6.350 I-3.591 J0.008 K0.000 F1800.000
G1 X-7.588 Y-96.175 Z-6.350 F1800.000
G2 X-11.167 Y-92.743 Z-6.350 I0.008 J3.591 K0.000 F1800.000
G1 X-11.175 Y-88.287 Z-6.350 F1800.000
G2 X-9.100 Y-86.196 Z-6.350 I2.094 J-0.003 K0.000 F1800.000
G3 X-9.083 Y-86.187 Z-6.350 I0.005 J0.012 K0.000 F1800.000
G3 X-9.165 Y-86.175 Z-6.350 I-0.045 J-0.017 K0.000 F1800.000
G1 X-16.354 Y-86.175 Z-6.350 F1800.000
G1 X-16.438 Y-86.184 Z-6.350 F1800.000
G3 X-16.441 Y-86.188 Z-6.350 I0.001 J-0.004 K0.000 F1800.000
G2 X-14.350 Y-88.287 Z-6.350 I-0.035 J-2.127 K0.000 F1800.000
G1 X-14.350 Y-95.587 Z-6.350 F1800.000
G2 X-16.438 Y-97.675 Z-6.350 I-2.088 J0.000 K0.000 F1800.000
G1 X-22.710 Y-97.675 Z-6.350 F1800.000
G1 X-22.788 Y-97.683 Z-6.350 F1800.000
G3 X-22.792 Y-97.688 Z-6.350 I0.001 J-0.005 K0.000 F1800.000
G2 X-20.700 Y-99.787 Z-6.350 I-0.033 J-2.125 K0.000 F1800.000
G1 X-20.700 Y-103.387 Z-6.350 F1800.000
G2 X-22.777 Y-105.480 Z-6.350 I-2.097 J0.004 K0.000 F1800.000
G3 X-22.791 Y-105.489 Z-6.350 I-0.005 J-0.008 K0.000 F1800.000
G3 X-22.704 Y-105.500 Z-6.350 I0.049 J0.034 K0.000 F1800.000
G1 X-16.438 Y-105.500 Z-6.350 F1800.000
G2 X-14.350 Y-107.587 Z-6.350 I-0.000 J-2.088 K0.000 F1800.000
G1 X-14.350 Y-114.087 Z-6.350 F1800.000
G2 X-16.438 Y-116.175 Z-6.350 I-2.088 J0.000 K0.000 F1800.000
G1 X-72.988 Y-116.175 Z-6.350 F1800.000
G2 X-75.075 Y-114.087 Z-6.350 I0.000 J2.088 K0.000 F1800.000
G1 X-75.075 Y-88.287 Z-6.350 F1800.000
G2 X-73.000 Y-86.196 Z-6.350 I2.094 J-0.003 K0.000 F1800.000
G3 X-72.983 Y-86.187 Z-6.350 I0.005 J0.012 K0.000 F1800.000
G3 X-73.065 Y-86.175 Z-6.350 I-0.045 J-0.017 K0.000 F1800.000
G1 X-249.410 Y-86.175 Z-6.350 F1800.000
G1 X-249.488 Y-86.183 Z-6.350 F1800.000
G3 X-249.492 Y-86.188 Z-6.350 I0.001 J-0.005 K0.000 F1800.000
G2 X-247.400 Y-88.287 Z-6.350 I-0.033 J-2.125 K0.000 F1800.000
G1 X-247.400 Y-114.087 Z-6.350 F1800.000
G2 X-249.487 Y-116.175 Z-6.350 I-2.088 J0.000 K0.000 F1800.000
G1 X-306.037 Y-116.175 Z-6.350 F1800.000
G2 X-308.125 Y-114.087 Z-6.350 I0.000 J2.088 K0.000 F1800.000
G1 X-308.125 Y-107.587 Z-6.350 F1800.000
G2 X-306.037 Y-105.500 Z-6.350 I2.088 J-0.000 K0.000 F1800.000
G1 X-299.765 Y-105.500 Z-6.350 F1800.000
G1 X-299.687 Y-105.492 Z-6.350 F1800.000
G3 X-299.683 Y-105.487 Z-6.350 I-0.001 J0.005 K0.000 F1800.000
G2 X-301.775 Y-103.387 Z-6.350 I0.033 J2.125 K0.000 F1800.000
G1 X-301.775 Y-99.787 Z-6.350 F1800.000
G2 X-299.700 Y-97.696 Z-6.350 I2.094 J-0.003 K0.000 F1800.000
G3 X-299.683 Y-97.687 Z-6.350 I0.005 J0.012 K0.000 F1800.000
G3 X-299.765 Y-97.675 Z-6.350 I-0.045 J-0.017 K0.000 F1800.000
G1 X-306.037 Y-97.675 Z-6.350 F1800.000
G2 X-308.125 Y-95.587 Z-6.350 I0.000 J2.088 K0.000 F1800.000
G1 X-308.125 Y-88.287 Z-6.350 F1800.000
G2 X-306.050 Y-86.196 Z-6.350 I2.094 J-0.003 K0.000 F1800.000
G3 X-306.033 Y-86.187 Z-6.350 I0.005 J0.012 K0.000 F1800.000
G3 X-306.115 Y-86.175 Z-6.350 I-0.045 J-0.017 K0.000 F1800.000
G1 X-313.304 Y-86.175 Z-6.350 F1800.000
G1 X-313.388 Y-86.184 Z-6.350 F1800.000
G3 X-313.391 Y-86.188 Z-6.350 I0.001 J-0.004 K0.000 F1800.000
G2 X-311.300 Y-88.287 Z-6.350 I-0.035 J-2.127 K0.000 F1800.000
G1 X-311.300 Y-92.587 Z-6.350 F1800.000
G2 X-314.732 Y-96.167 Z-6.350 I-3.591 J0.008 K0.000 F1800.000
G1 X-318.887 Y-96.175 Z-6.350 F1800.000
G2 X-322.467 Y-92.743 Z-6.350 I0.008 J3.591 K0.000 F1800.000
G1 X-322.475 Y-76.587 Z-6.350 F1800.000
G2 X-319.043 Y-73.008 Z-6.350 I3.591 J-0.008 K0.000 F1800.000
G1 X-306.121 Y-73.000 Z-6.350 F1800.000
G1 X-306.037 Y-72.991 Z-6.350 F1800.000
G3 X-306.034 Y-72.987 Z-6.350 I-0.001 J0.004 K0.000 F1800.000
G2 X-308.125 Y-70.887 Z-6.350 I0.035 J2.127 K0.000 F1800.000
G1 X-308.125 Y-35.588 Z-6.350 F1800.000
G2 X-306.037 Y-33.500 Z-6.350 I2.088 J-0.000 K0.000 F1800.000
G1 X-299.765 Y-33.500 Z-6.350 F1800.000
G1 X-299.687 Y-33.492 Z-6.350 F1800.000
G3 X-299.683 Y-33.487 Z-6.350 I-0.001 J0.005 K0.000 F1800.000
G2 X-301.775 Y-31.388 Z-6.350 I0.033 J2.125 K0.000 F1800.000
G1 X-301.775 Y-27.788 Z-6.350 F1800.000
G2 X-299.700 Y-25.696 Z-6.350 I2.094 J-0.003 K0.000 F1800.000
G3 X-299.683 Y-25.688 Z-6.350 I0.005 J0.012 K0.000 F1800.000
G3 X-299.765 Y-25.675 Z-6.350 I-0.045 J-0.017 K0.000 F1800.000
G1 X-306.037 Y-25.675 Z-6.350 F1800.000
G2 X-308.125 Y-23.588 Z-6.350 I0.000 J2.088 K0.000 F1800.000
G1 X-308.125 Y-15.288 Z-6.350 F1800.000
G2 X-306.050 Y-13.196 Z-6.350 I2.094 J-0.003 K0.000 F1800.000
G3 X-306.033 Y-13.188 Z-6.350 I0.005 J0.012 K0.000 F1800.000
G3 X-306.115 Y-13.175 Z-6.350 I-0.045 J-0.017 K0.000 F1800.000
G1 X-313.310 Y-13.175 Z-6.350 F1800.000
G1 X-313.388 Y-13.183 Z-6.350 F1800.000
G3 X-313.392 Y-13.188 Z-6.350 I0.001 J-0.005 K0.000 F1800.000
G2 X-311.300 Y-15.288 Z-6.350 I-0.033 J-2.125 K0.000 F1800.000
G1 X-311.300 Y-16.588 Z-6.350 F1800.000
G2 X-314.732 Y-20.167 Z-6.350 I-3.591 J0.008 K0.000 F1800.000
G1 X-318.887 Y-20.175 Z-6.350 F1800.000
G2 X-322.467 Y-16.743 Z-6.350 I0.008 J3.591 K0.000 F1800.000
G1 X-322.475 Y-3.588 Z-6.350 F1800.000
G2 X-319.043 Y-0.008 Z-6.350 I3.591 J-0.008 K0.000 F1800.000
G1 X-3.588 Y-0.000 Z-6.350 F1800.000
G2 X-1.054 Y-1.053 Z-6.350 I-0.008 J-3.591 K0.000 F1800.000
G0 Z5.000
G0 Z5.000
(Finish operation: Profile002)
(Begin postamble)
M5
G17 G90
M2
