(Exported by FreeCAD)
(Post Processor: grbl_post)
(Output Time:2024-03-12 10:42:18.763395)
(Begin preamble)
G17 G90
G21
(Begin operation: Fixture)
(Path: Fixture)
G54
(Finish operation: Fixture)
(Begin operation: 1/8th in Endmill033)
(Path: 1/8th in Endmill033)
(1/8th in Endmill033)
(Begin toolchange)
( M6 T2 )
(Finish operation: 1/8th in Endmill033)
(Begin operation: Drilling004)
(Path: Drilling004)
(Drilling004)
(Begin Drilling)
G0 Z5.000
G90
( G98 )
G0 X-8.588 Y-7.838
(G83 X-8.588 Y-7.838 Z-6.400 F1400.000 Q1.000 R3.000)
G0 X-8.588 Y-7.838
G0 Z3.000 F1400.00
G1 Z2.000 F1400.00
G0 Z3.000
G0 Z2.050
G1 Z1.000 F1400.00
G0 Z3.000
G0 Z1.050
G1 Z0.000 F1400.00
G0 Z3.000
G0 Z0.050
G1 Z-1.000 F1400.00
G0 Z3.000
G0 Z-0.950
G1 Z-2.000 F1400.00
G0 Z3.000
G0 Z-1.950
G1 Z-3.000 F1400.00
G0 Z3.000
G0 Z-2.950
G1 Z-4.000 F1400.00
G0 Z3.000
G0 Z-3.950
G1 Z-5.000 F1400.00
G0 Z3.000
G0 Z-4.950
G1 Z-6.000 F1400.00
G0 Z3.000
G0 Z-5.950
G1 Z-6.400 F1400.00
G0 Z5.000
G0 X-8.588 Y-21.338
(G83 X-8.588 Y-21.338 Z-6.400 F1400.000 Q1.000 R3.000)
G0 X-8.588 Y-21.338
G0 Z3.000 F1400.00
G1 Z2.000 F1400.00
G0 Z3.000
G0 Z2.050
G1 Z1.000 F1400.00
G0 Z3.000
G0 Z1.050
G1 Z0.000 F1400.00
G0 Z3.000
G0 Z0.050
G1 Z-1.000 F1400.00
G0 Z3.000
G0 Z-0.950
G1 Z-2.000 F1400.00
G0 Z3.000
G0 Z-1.950
G1 Z-3.000 F1400.00
G0 Z3.000
G0 Z-2.950
G1 Z-4.000 F1400.00
G0 Z3.000
G0 Z-3.950
G1 Z-5.000 F1400.00
G0 Z3.000
G0 Z-4.950
G1 Z-6.000 F1400.00
G0 Z3.000
G0 Z-5.950
G1 Z-6.400 F1400.00
G0 Z5.000
G0 X-29.588 Y-21.338
(G83 X-29.588 Y-21.338 Z-6.400 F1400.000 Q1.000 R3.000)
G0 X-29.588 Y-21.338
G0 Z3.000 F1400.00
G1 Z2.000 F1400.00
G0 Z3.000
G0 Z2.050
G1 Z1.000 F1400.00
G0 Z3.000
G0 Z1.050
G1 Z0.000 F1400.00
G0 Z3.000
G0 Z0.050
G1 Z-1.000 F1400.00
G0 Z3.000
G0 Z-0.950
G1 Z-2.000 F1400.00
G0 Z3.000
G0 Z-1.950
G1 Z-3.000 F1400.00
G0 Z3.000
G0 Z-2.950
G1 Z-4.000 F1400.00
G0 Z3.000
G0 Z-3.950
G1 Z-5.000 F1400.00
G0 Z3.000
G0 Z-4.950
G1 Z-6.000 F1400.00
G0 Z3.000
G0 Z-5.950
G1 Z-6.400 F1400.00
G0 Z5.000
G0 X-29.588 Y-7.838
(G83 X-29.588 Y-7.838 Z-6.400 F1400.000 Q1.000 R3.000)
G0 X-29.588 Y-7.838
G0 Z3.000 F1400.00
G1 Z2.000 F1400.00
G0 Z3.000
G0 Z2.050
G1 Z1.000 F1400.00
G0 Z3.000
G0 Z1.050
G1 Z0.000 F1400.00
G0 Z3.000
G0 Z0.050
G1 Z-1.000 F1400.00
G0 Z3.000
G0 Z-0.950
G1 Z-2.000 F1400.00
G0 Z3.000
G0 Z-1.950
G1 Z-3.000 F1400.00
G0 Z3.000
G0 Z-2.950
G1 Z-4.000 F1400.00
G0 Z3.000
G0 Z-3.950
G1 Z-5.000 F1400.00
G0 Z3.000
G0 Z-4.950
G1 Z-6.000 F1400.00
G0 Z3.000
G0 Z-5.950
G1 Z-6.400 F1400.00
G0 Z5.000
( G80 )
G0 Z3.000
G0 Z5.000
(Finish operation: Drilling004)
(Begin operation: Profile035)
(Path: Profile035)
(Profile035)
(Compensated Tool Path. Diameter: 3.175)
G0 Z5.000
G0 X-8.513 Y-7.763
G0 Z3.000
G1 X-8.513 Y-7.763 Z-3.200 F1400.000
G2 X-8.556 Y-7.938 Z-3.200 I-0.074 J-0.074 K0.000 F1800.000
G2 X-8.619 Y-7.737 Z-3.200 I-0.031 J0.100 K0.000 F1800.000
G2 X-8.513 Y-7.763 Z-3.200 I0.031 J-0.100 K0.000 F1800.000
G1 X-8.513 Y-7.763 Z-6.400 F1400.000
G2 X-8.556 Y-7.938 Z-6.400 I-0.074 J-0.074 K0.000 F1800.000
G2 X-8.619 Y-7.737 Z-6.400 I-0.031 J0.100 K0.000 F1800.000
G2 X-8.513 Y-7.763 Z-6.400 I0.031 J-0.100 K0.000 F1800.000
G0 Z5.000
G0 Z5.000
G0 X-8.513 Y-7.763
G0 X-8.587 Y-21.233
G0 X-8.587 Y-21.233 Z3.000
G1 X-8.587 Y-21.233 Z-3.200 F1400.000
G2 X-8.556 Y-21.438 Z-3.200 I-0.001 J-0.105 K0.000 F1800.000
G2 X-8.688 Y-21.369 Z-3.200 I-0.031 J0.100 K0.000 F1800.000
G2 X-8.619 Y-21.237 Z-3.200 I0.100 J0.031 K0.000 F1800.000
G2 X-8.587 Y-21.233 Z-3.200 I0.031 J-0.100 K0.000 F1800.000
G1 X-8.587 Y-21.233 Z-6.400 F1400.000
G2 X-8.556 Y-21.438 Z-6.400 I-0.001 J-0.105 K0.000 F1800.000
G2 X-8.688 Y-21.369 Z-6.400 I-0.031 J0.100 K0.000 F1800.000
G2 X-8.619 Y-21.237 Z-6.400 I0.100 J0.031 K0.000 F1800.000
G2 X-8.587 Y-21.233 Z-6.400 I0.031 J-0.100 K0.000 F1800.000
G0 Z5.000
G0 Z5.000
G0 X-8.587 Y-21.233
G0 X-29.482 Y-21.337
G0 X-29.482 Y-21.337 Z3.000
G1 X-29.482 Y-21.337 Z-3.200 F1400.000
G2 X-29.537 Y-21.430 Z-3.200 I-0.104 J-0.001 K0.000 F1800.000
G1 X-29.556 Y-21.438 Z-3.200 F1800.000
G2 X-29.620 Y-21.239 Z-3.200 I-0.030 J0.100 K0.000 F1800.000
G2 X-29.482 Y-21.337 Z-3.200 I0.033 J-0.099 K0.000 F1800.000
G1 X-29.482 Y-21.337 Z-6.400 F1400.000
G2 X-29.537 Y-21.430 Z-6.400 I-0.104 J-0.001 K0.000 F1800.000
G1 X-29.556 Y-21.438 Z-6.400 F1800.000
G2 X-29.620 Y-21.239 Z-6.400 I-0.030 J0.100 K0.000 F1800.000
G2 X-29.482 Y-21.337 Z-6.400 I0.033 J-0.099 K0.000 F1800.000
G0 Z5.000
G0 Z5.000
G0 X-29.482 Y-21.337
G0 X-29.586 Y-7.942
G0 X-29.586 Y-7.942 Z3.000
G1 X-29.586 Y-7.942 Z-3.200 F1400.000
G2 X-29.620 Y-7.739 Z-3.200 I-0.001 J0.104 K0.000 F1800.000
G2 X-29.537 Y-7.930 Z-3.200 I0.033 J-0.099 K0.000 F1800.000
G1 X-29.556 Y-7.938 Z-3.200 F1800.000
G2 X-29.586 Y-7.942 Z-3.200 I-0.030 J0.100 K0.000 F1800.000
G1 X-29.586 Y-7.942 Z-6.400 F1400.000
G2 X-29.620 Y-7.739 Z-6.400 I-0.001 J0.104 K0.000 F1800.000
G2 X-29.537 Y-7.930 Z-6.400 I0.033 J-0.099 K0.000 F1800.000
G1 X-29.556 Y-7.938 Z-6.400 F1800.000
G2 X-29.586 Y-7.942 Z-6.400 I-0.030 J0.100 K0.000 F1800.000
G0 Z5.000
G0 Z5.000
(Finish operation: Profile035)
(Begin operation: Pocket_Shape006)
(Path: Pocket_Shape006)
(Pocket_Shape006)
G0 Z5.000
G0 X-14.909 Y-9.907
G0 Z3.000
G1 X-14.909 Y-9.907 Z-3.200 F1400.000
G3 X-19.387 Y-8.185 Z-3.200 I-4.178 J-4.181 K0.000 F1800.000
G3 X-18.788 Y-19.990 Z-3.200 I0.299 J-5.903 K0.000 F1800.000
G3 X-14.909 Y-9.907 Z-3.200 I-0.299 J5.903 K0.000 F1800.000
G0 Z5.000
G0 X-15.015 Y-18.371 Z5.000
G0 X-15.015 Y-18.371 Z3.000
G1 X-15.015 Y-18.371 Z-3.200 F1400.000
G3 X-13.308 Y-15.317 Z-3.200 I-4.055 J4.270 K0.000 F1800.000
G1 X-17.851 Y-19.860 Z-3.200 F1800.000
G2 X-19.328 Y-19.990 Z-3.200 I-1.208 J5.230 K0.000 F1800.000
G1 X-13.189 Y-13.851 Z-3.200 F1800.000
G3 X-13.357 Y-12.671 Z-3.200 I-4.284 J-0.007 K0.000 F1800.000
G1 X-20.507 Y-19.822 Z-3.200 F1800.000
G2 X-21.505 Y-19.473 Z-3.200 I1.065 J4.653 K0.000 F1800.000
G1 X-13.700 Y-11.668 Z-3.200 F1800.000
G3 X-14.180 Y-10.801 Z-3.200 I-4.501 J-1.930 K0.000 F1800.000
G1 X-22.372 Y-18.993 Z-3.200 F1800.000
G2 X-23.126 Y-18.400 Z-3.200 I2.539 J4.003 K0.000 F1800.000
G1 X-14.779 Y-10.053 Z-3.200 F1800.000
G3 X-15.480 Y-9.407 Z-3.200 I-2.672 J-2.196 K0.000 F1800.000
G1 X-23.763 Y-17.690 Z-3.200 F1800.000
G2 X-24.295 Y-16.875 Z-3.200 I2.756 J2.378 K0.000 F1800.000
G1 X-16.302 Y-8.882 Z-3.200 F1800.000
G3 X-17.246 Y-8.479 Z-3.200 I-2.046 J-3.479 K0.000 F1800.000
G1 X-24.699 Y-15.932 Z-3.200 F1800.000
G2 X-24.945 Y-14.831 Z-3.200 I4.716 J1.633 K0.000 F1800.000
G1 X-18.344 Y-8.230 Z-3.200 F1800.000
G3 X-19.675 Y-8.214 Z-3.200 I-0.720 J-4.563 K0.000 F1800.000
G1 X-24.969 Y-13.507 Z-3.200 F1800.000
G2 X-24.474 Y-11.666 Z-3.200 I5.648 J-0.529 K0.000 F1800.000
G1 X-21.514 Y-8.705 Z-3.200 F1800.000
G3 X-24.474 Y-11.666 Z-3.200 I2.364 J-5.325 K0.000 F1800.000
G1 X-24.474 Y-11.666 Z-6.400 F1400.000
G2 X-21.514 Y-8.705 Z-6.400 I5.325 J-2.364 K0.000 F1800.000
G1 X-24.474 Y-11.666 Z-6.400 F1800.000
G3 X-24.969 Y-13.507 Z-6.400 I5.154 J-2.370 K0.000 F1800.000
G1 X-19.675 Y-8.214 Z-6.400 F1800.000
G2 X-18.344 Y-8.230 Z-6.400 I0.611 J-4.579 K0.000 F1800.000
G1 X-24.945 Y-14.831 Z-6.400 F1800.000
G3 X-24.699 Y-15.932 Z-6.400 I4.962 J0.532 K0.000 F1800.000
G1 X-17.246 Y-8.479 Z-6.400 F1800.000
G2 X-16.302 Y-8.882 Z-6.400 I-1.102 J-3.883 K0.000 F1800.000
G1 X-24.295 Y-16.875 Z-6.400 F1800.000
G3 X-23.763 Y-17.690 Z-6.400 I3.288 J1.563 K0.000 F1800.000
G1 X-15.480 Y-9.407 Z-6.400 F1800.000
G2 X-14.779 Y-10.053 Z-6.400 I-1.970 J-2.842 K0.000 F1800.000
G1 X-23.126 Y-18.400 Z-6.400 F1800.000
G3 X-22.372 Y-18.993 Z-6.400 I3.293 J3.410 K0.000 F1800.000
G1 X-14.180 Y-10.801 Z-6.400 F1800.000
G2 X-13.700 Y-11.668 Z-6.400 I-4.020 J-2.796 K0.000 F1800.000
G1 X-21.505 Y-19.473 Z-6.400 F1800.000
G3 X-20.507 Y-19.822 Z-6.400 I2.063 J4.304 K0.000 F1800.000
G1 X-13.357 Y-12.671 Z-6.400 F1800.000
G2 X-13.189 Y-13.851 Z-6.400 I-4.116 J-1.186 K0.000 F1800.000
G1 X-19.328 Y-19.990 Z-6.400 F1800.000
G3 X-17.851 Y-19.860 Z-6.400 I0.270 J5.361 K0.000 F1800.000
G1 X-13.308 Y-15.317 Z-6.400 F1800.000
G2 X-15.015 Y-18.371 Z-6.400 I-5.762 J1.216 K0.000 F1800.000
G1 X-15.015 Y-18.371 Z-6.400 F1400.000
G3 X-19.387 Y-8.185 Z-6.400 I-4.072 J4.284 K0.000 F1800.000
G3 X-18.788 Y-19.990 Z-6.400 I0.299 J-5.903 K0.000 F1800.000
G3 X-15.015 Y-18.371 Z-6.400 I-0.299 J5.903 K0.000 F1800.000
G0 Z5.000
G0 Z5.000
(Finish operation: Pocket_Shape006)
(Begin operation: Profile038)
(Path: Profile038)
(Profile038)
(Compensated Tool Path. Diameter: 3.175)
G0 Z5.000
G0 X-1.054 Y-1.053
G0 Z3.000
G1 X-1.054 Y-1.053 Z-3.200 F1400.000
G2 X-0.008 Y-3.432 Z-3.200 I-2.541 J-2.538 K0.000 F1800.000
G1 X-0.000 Y-24.587 Z-3.200 F1800.000
G2 X-3.432 Y-28.167 Z-3.200 I-3.591 J0.008 K0.000 F1800.000
G1 X-34.587 Y-28.175 Z-3.200 F1800.000
G2 X-38.167 Y-24.743 Z-3.200 I0.008 J3.591 K0.000 F1800.000
G1 X-38.175 Y-3.588 Z-3.200 F1800.000
G2 X-34.743 Y-0.008 Z-3.200 I3.591 J-0.008 K0.000 F1800.000
G1 X-3.588 Y-0.000 Z-3.200 F1800.000
G2 X-1.054 Y-1.053 Z-3.200 I-0.008 J-3.591 K0.000 F1800.000
G1 X-1.054 Y-1.053 Z-6.400 F1400.000
G2 X-0.008 Y-3.432 Z-6.400 I-2.541 J-2.538 K0.000 F1800.000
G1 X-0.000 Y-24.587 Z-6.400 F1800.000
G2 X-3.432 Y-28.167 Z-6.400 I-3.591 J0.008 K0.000 F1800.000
G1 X-34.587 Y-28.175 Z-6.400 F1800.000
G2 X-38.167 Y-24.743 Z-6.400 I0.008 J3.591 K0.000 F1800.000
G1 X-38.175 Y-3.588 Z-6.400 F1800.000
G2 X-34.743 Y-0.008 Z-6.400 I3.591 J-0.008 K0.000 F1800.000
G1 X-3.588 Y-0.000 Z-6.400 F1800.000
G2 X-1.054 Y-1.053 Z-6.400 I-0.008 J-3.591 K0.000 F1800.000
G0 Z5.000
G0 Z5.000
(Finish operation: Profile038)
(Begin postamble)
M5
G17 G90
M2
