(Exported by FreeCAD)
(Post Processor: grbl_post)
(Output Time:2024-02-05 21:25:57.853162)
(Begin preamble)
G17 G90
G21
(Begin operation: Fixture)
(Path: Fixture)
G54
(Finish operation: Fixture)
(Begin operation: 1/8th in Endmill001)
(Path: 1/8th in Endmill001)
(1/8th in Endmill001)
(Begin toolchange)
( M6 T2 )
(Finish operation: 1/8th in Endmill001)
(Begin operation: Profile)
(Path: Profile)
(Profile)
(Compensated Tool Path. Diameter: 3.175)
G0 Z5.000
G0 X-62.479 Y-18.978
G0 Z3.000
G1 X-62.479 Y-18.978 Z-3.175 F1400.000
G2 X-62.540 Y-19.234 Z-3.175 I-0.109 J-0.109 K0.000 F1800.000
G1 X-62.577 Y-19.242 Z-3.175 F1800.000
G2 X-62.633 Y-18.940 Z-3.175 I-0.011 J0.154 K0.000 F1800.000
G2 X-62.479 Y-18.978 Z-3.175 I0.045 J-0.148 K0.000 F1800.000
G1 X-62.479 Y-18.978 Z-5.000 F1400.000
G2 X-62.540 Y-19.234 Z-5.000 I-0.109 J-0.109 K0.000 F1800.000
G1 X-62.577 Y-19.242 Z-5.000 F1800.000
G2 X-62.633 Y-18.940 Z-5.000 I-0.011 J0.154 K0.000 F1800.000
G2 X-62.479 Y-18.978 Z-5.000 I0.045 J-0.148 K0.000 F1800.000
G0 Z5.000
G0 Z5.000
G0 X-62.479 Y-18.978
G0 X-120.434 Y-19.087
G0 X-120.434 Y-19.087 Z3.000
G1 X-120.434 Y-19.087 Z-3.175 F1400.000
G2 X-120.540 Y-19.234 Z-3.175 I-0.154 J-0.000 K0.000 F1800.000
G1 X-120.577 Y-19.242 Z-3.175 F1800.000
G2 X-120.633 Y-18.940 Z-3.175 I-0.011 J0.154 K0.000 F1800.000
G2 X-120.434 Y-19.087 Z-3.175 I0.045 J-0.148 K0.000 F1800.000
G1 X-120.434 Y-19.087 Z-5.000 F1400.000
G2 X-120.540 Y-19.234 Z-5.000 I-0.154 J-0.000 K0.000 F1800.000
G1 X-120.577 Y-19.242 Z-5.000 F1800.000
G2 X-120.633 Y-18.940 Z-5.000 I-0.011 J0.154 K0.000 F1800.000
G2 X-120.434 Y-19.087 Z-5.000 I0.045 J-0.148 K0.000 F1800.000
G0 Z5.000
G0 Z5.000
G0 X-120.434 Y-19.087
G0 X-120.587 Y-105.933
G0 X-120.587 Y-105.933 Z3.000
G1 X-120.587 Y-105.933 Z-3.175 F1400.000
G2 X-120.542 Y-106.235 Z-3.175 I-0.000 J-0.155 K0.000 F1800.000
G2 X-120.735 Y-106.133 Z-3.175 I-0.046 J0.148 K0.000 F1800.000
G2 X-120.633 Y-105.940 Z-3.175 I0.148 J0.046 K0.000 F1800.000
G2 X-120.587 Y-105.933 Z-3.175 I0.046 J-0.148 K0.000 F1800.000
G1 X-120.587 Y-105.933 Z-5.000 F1400.000
G2 X-120.542 Y-106.235 Z-5.000 I-0.000 J-0.155 K0.000 F1800.000
G2 X-120.735 Y-106.133 Z-5.000 I-0.046 J0.148 K0.000 F1800.000
G2 X-120.633 Y-105.940 Z-5.000 I0.148 J0.046 K0.000 F1800.000
G2 X-120.587 Y-105.933 Z-5.000 I0.046 J-0.148 K0.000 F1800.000
G0 Z5.000
G0 Z5.000
G0 X-120.587 Y-105.933
G0 X-62.742 Y-106.087
G0 X-62.742 Y-106.087 Z3.000
G1 X-62.742 Y-106.087 Z-3.175 F1400.000
G2 X-62.633 Y-105.940 Z-3.175 I0.155 J-0.000 K0.000 F1800.000
G2 X-62.540 Y-106.234 Z-3.175 I0.045 J-0.148 K0.000 F1800.000
G1 X-62.577 Y-106.242 Z-3.175 F1800.000
G2 X-62.742 Y-106.087 Z-3.175 I-0.011 J0.154 K0.000 F1800.000
G1 X-62.742 Y-106.087 Z-5.000 F1400.000
G2 X-62.633 Y-105.940 Z-5.000 I0.155 J-0.000 K0.000 F1800.000
G2 X-62.540 Y-106.234 Z-5.000 I0.045 J-0.148 K0.000 F1800.000
G1 X-62.577 Y-106.242 Z-5.000 F1800.000
G2 X-62.742 Y-106.087 Z-5.000 I-0.011 J0.154 K0.000 F1800.000
G0 Z5.000
G0 Z5.000
(Finish operation: Profile)
(Begin operation: Profile001)
(Path: Profile001)
(Profile001)
(Compensated Tool Path. Diameter: 3.175)
G0 Z5.000
G0 X-6.411 Y-1.586
G0 Z3.000
G1 X-6.411 Y-1.586 Z-3.200 F1400.000
G2 X-6.350 Y-2.087 Z-3.200 I-2.027 J-0.501 K0.000 F1800.000
G1 X-6.350 Y-21.387 Z-3.200 F1800.000
G2 X-7.938 Y-22.983 Z-3.200 I-1.601 J0.006 K0.000 F1800.000
G3 X-7.942 Y-22.988 Z-3.200 I0.001 J-0.005 K0.000 F1800.000
G3 X-7.860 Y-23.000 Z-3.200 I0.045 J0.017 K0.000 F1800.000
G1 X-2.087 Y-23.000 Z-3.200 F1800.000
G2 X0.000 Y-25.087 Z-3.200 I-0.000 J-2.088 K0.000 F1800.000
G1 X0.000 Y-34.087 Z-3.200 F1800.000
G2 X-2.087 Y-36.175 Z-3.200 I-2.088 J0.000 K0.000 F1800.000
G1 X-7.854 Y-36.175 Z-3.200 F1800.000
G1 X-7.938 Y-36.184 Z-3.200 F1800.000
G3 X-7.941 Y-36.189 Z-3.200 I0.001 J-0.004 K0.000 F1800.000
G2 X-6.350 Y-37.788 Z-3.200 I-0.050 J-1.641 K0.000 F1800.000
G1 X-6.350 Y-93.388 Z-3.200 F1800.000
G2 X-7.938 Y-94.984 Z-3.200 I-1.603 J0.006 K0.000 F1800.000
G3 X-7.941 Y-94.989 Z-3.200 I0.001 J-0.004 K0.000 F1800.000
G3 X-7.854 Y-95.000 Z-3.200 I0.049 J0.034 K0.000 F1800.000
G1 X-2.087 Y-95.000 Z-3.200 F1800.000
G2 X0.000 Y-97.088 Z-3.200 I-0.000 J-2.088 K0.000 F1800.000
G1 X0.000 Y-106.088 Z-3.200 F1800.000
G2 X-2.087 Y-108.175 Z-3.200 I-2.088 J0.000 K0.000 F1800.000
G1 X-7.860 Y-108.175 Z-3.200 F1800.000
G1 X-7.938 Y-108.183 Z-3.200 F1800.000
G3 X-7.942 Y-108.190 Z-3.200 I0.001 J-0.005 K0.000 F1800.000
G2 X-6.350 Y-109.787 Z-3.200 I-0.045 J-1.637 K0.000 F1800.000
G1 X-6.350 Y-117.088 Z-3.200 F1800.000
G2 X-8.438 Y-119.175 Z-3.200 I-2.088 J0.000 K0.000 F1800.000
G1 X-174.738 Y-119.175 Z-3.200 F1800.000
G2 X-176.825 Y-117.088 Z-3.200 I0.000 J2.088 K0.000 F1800.000
G1 X-176.825 Y-109.787 Z-3.200 F1800.000
G2 X-175.237 Y-108.192 Z-3.200 I1.601 J-0.006 K0.000 F1800.000
G3 X-175.233 Y-108.188 Z-3.200 I-0.001 J0.005 K0.000 F1800.000
G3 X-175.315 Y-108.175 Z-3.200 I-0.045 J-0.017 K0.000 F1800.000
G1 X-181.088 Y-108.175 Z-3.200 F1800.000
G2 X-183.175 Y-106.088 Z-3.200 I0.000 J2.088 K0.000 F1800.000
G1 X-183.175 Y-97.088 Z-3.200 F1800.000
G2 X-181.088 Y-95.000 Z-3.200 I2.088 J-0.000 K0.000 F1800.000
G1 X-175.315 Y-95.000 Z-3.200 F1800.000
G1 X-175.237 Y-94.992 Z-3.200 F1800.000
G3 X-175.233 Y-94.985 Z-3.200 I-0.001 J0.005 K0.000 F1800.000
G2 X-176.825 Y-93.388 Z-3.200 I0.045 J1.637 K0.000 F1800.000
G1 X-176.825 Y-37.788 Z-3.200 F1800.000
G2 X-175.237 Y-36.192 Z-3.200 I1.601 J-0.006 K0.000 F1800.000
G3 X-175.233 Y-36.188 Z-3.200 I-0.001 J0.005 K0.000 F1800.000
G3 X-175.315 Y-36.175 Z-3.200 I-0.045 J-0.017 K0.000 F1800.000
G1 X-181.088 Y-36.175 Z-3.200 F1800.000
G2 X-183.175 Y-34.087 Z-3.200 I0.000 J2.088 K0.000 F1800.000
G1 X-183.175 Y-25.087 Z-3.200 F1800.000
G2 X-181.088 Y-23.000 Z-3.200 I2.088 J-0.000 K0.000 F1800.000
G1 X-175.315 Y-23.000 Z-3.200 F1800.000
G1 X-175.237 Y-22.992 Z-3.200 F1800.000
G3 X-175.233 Y-22.985 Z-3.200 I-0.001 J0.005 K0.000 F1800.000
G2 X-176.825 Y-21.387 Z-3.200 I0.045 J1.637 K0.000 F1800.000
G1 X-176.825 Y-2.087 Z-3.200 F1800.000
G2 X-174.738 Y0.000 Z-3.200 I2.088 J-0.000 K0.000 F1800.000
G1 X-98.188 Y0.000 Z-3.200 F1800.000
G2 X-95.008 Y-3.032 Z-3.200 I-0.007 J-3.191 K0.000 F1800.000
G1 X-95.000 Y-19.909 Z-3.200 F1800.000
G3 X-94.910 Y-20.000 Z-3.200 I0.056 J-0.035 K0.000 F1800.000
G1 X-88.265 Y-20.000 Z-3.200 F1800.000
G3 X-88.175 Y-19.910 Z-3.200 I0.035 J0.055 K0.000 F1800.000
G1 X-88.175 Y-3.188 Z-3.200 F1800.000
G2 X-85.143 Y-0.008 Z-3.200 I3.191 J-0.007 K0.000 F1800.000
G1 X-8.438 Y0.000 Z-3.200 F1800.000
G2 X-6.411 Y-1.586 Z-3.200 I-0.000 J-2.088 K0.000 F1800.000
G1 X-6.411 Y-1.586 Z-6.400 F1400.000
G2 X-6.350 Y-2.087 Z-6.400 I-2.027 J-0.501 K0.000 F1800.000
G1 X-6.350 Y-21.387 Z-6.400 F1800.000
G2 X-7.938 Y-22.983 Z-6.400 I-1.601 J0.006 K0.000 F1800.000
G3 X-7.942 Y-22.988 Z-6.400 I0.001 J-0.005 K0.000 F1800.000
G3 X-7.860 Y-23.000 Z-6.400 I0.045 J0.017 K0.000 F1800.000
G1 X-2.087 Y-23.000 Z-6.400 F1800.000
G2 X0.000 Y-25.087 Z-6.400 I-0.000 J-2.088 K0.000 F1800.000
G1 X0.000 Y-34.087 Z-6.400 F1800.000
G2 X-2.087 Y-36.175 Z-6.400 I-2.088 J0.000 K0.000 F1800.000
G1 X-7.854 Y-36.175 Z-6.400 F1800.000
G1 X-7.938 Y-36.184 Z-6.400 F1800.000
G3 X-7.941 Y-36.189 Z-6.400 I0.001 J-0.004 K0.000 F1800.000
G2 X-6.350 Y-37.788 Z-6.400 I-0.050 J-1.641 K0.000 F1800.000
G1 X-6.350 Y-93.388 Z-6.400 F1800.000
G2 X-7.938 Y-94.984 Z-6.400 I-1.603 J0.006 K0.000 F1800.000
G3 X-7.941 Y-94.989 Z-6.400 I0.001 J-0.004 K0.000 F1800.000
G3 X-7.854 Y-95.000 Z-6.400 I0.049 J0.034 K0.000 F1800.000
G1 X-2.087 Y-95.000 Z-6.400 F1800.000
G2 X0.000 Y-97.088 Z-6.400 I-0.000 J-2.088 K0.000 F1800.000
G1 X0.000 Y-106.088 Z-6.400 F1800.000
G2 X-2.087 Y-108.175 Z-6.400 I-2.088 J0.000 K0.000 F1800.000
G1 X-7.860 Y-108.175 Z-6.400 F1800.000
G1 X-7.938 Y-108.183 Z-6.400 F1800.000
G3 X-7.942 Y-108.190 Z-6.400 I0.001 J-0.005 K0.000 F1800.000
G2 X-6.350 Y-109.787 Z-6.400 I-0.045 J-1.637 K0.000 F1800.000
G1 X-6.350 Y-117.088 Z-6.400 F1800.000
G2 X-8.438 Y-119.175 Z-6.400 I-2.088 J0.000 K0.000 F1800.000
G1 X-174.738 Y-119.175 Z-6.400 F1800.000
G2 X-176.825 Y-117.088 Z-6.400 I0.000 J2.088 K0.000 F1800.000
G1 X-176.825 Y-109.787 Z-6.400 F1800.000
G2 X-175.237 Y-108.192 Z-6.400 I1.601 J-0.006 K0.000 F1800.000
G3 X-175.233 Y-108.188 Z-6.400 I-0.001 J0.005 K0.000 F1800.000
G3 X-175.315 Y-108.175 Z-6.400 I-0.045 J-0.017 K0.000 F1800.000
G1 X-181.088 Y-108.175 Z-6.400 F1800.000
G2 X-183.175 Y-106.088 Z-6.400 I0.000 J2.088 K0.000 F1800.000
G1 X-183.175 Y-97.088 Z-6.400 F1800.000
G2 X-181.088 Y-95.000 Z-6.400 I2.088 J-0.000 K0.000 F1800.000
G1 X-175.315 Y-95.000 Z-6.400 F1800.000
G1 X-175.237 Y-94.992 Z-6.400 F1800.000
G3 X-175.233 Y-94.985 Z-6.400 I-0.001 J0.005 K0.000 F1800.000
G2 X-176.825 Y-93.388 Z-6.400 I0.045 J1.637 K0.000 F1800.000
G1 X-176.825 Y-37.788 Z-6.400 F1800.000
G2 X-175.237 Y-36.192 Z-6.400 I1.601 J-0.006 K0.000 F1800.000
G3 X-175.233 Y-36.188 Z-6.400 I-0.001 J0.005 K0.000 F1800.000
G3 X-175.315 Y-36.175 Z-6.400 I-0.045 J-0.017 K0.000 F1800.000
G1 X-181.088 Y-36.175 Z-6.400 F1800.000
G2 X-183.175 Y-34.087 Z-6.400 I0.000 J2.088 K0.000 F1800.000
G1 X-183.175 Y-25.087 Z-6.400 F1800.000
G2 X-181.088 Y-23.000 Z-6.400 I2.088 J-0.000 K0.000 F1800.000
G1 X-175.315 Y-23.000 Z-6.400 F1800.000
G1 X-175.237 Y-22.992 Z-6.400 F1800.000
G3 X-175.233 Y-22.985 Z-6.400 I-0.001 J0.005 K0.000 F1800.000
G2 X-176.825 Y-21.387 Z-6.400 I0.045 J1.637 K0.000 F1800.000
G1 X-176.825 Y-2.087 Z-6.400 F1800.000
G2 X-174.738 Y0.000 Z-6.400 I2.088 J-0.000 K0.000 F1800.000
G1 X-98.188 Y0.000 Z-6.400 F1800.000
G2 X-95.008 Y-3.032 Z-6.400 I-0.007 J-3.191 K0.000 F1800.000
G1 X-95.000 Y-19.909 Z-6.400 F1800.000
G3 X-94.910 Y-20.000 Z-6.400 I0.056 J-0.035 K0.000 F1800.000
G1 X-88.265 Y-20.000 Z-6.400 F1800.000
G3 X-88.175 Y-19.910 Z-6.400 I0.035 J0.055 K0.000 F1800.000
G1 X-88.175 Y-3.188 Z-6.400 F1800.000
G2 X-85.143 Y-0.008 Z-6.400 I3.191 J-0.007 K0.000 F1800.000
G1 X-8.438 Y0.000 Z-6.400 F1800.000
G2 X-6.411 Y-1.586 Z-6.400 I-0.000 J-2.088 K0.000 F1800.000
G0 Z5.000
G0 Z5.000
(Finish operation: Profile001)
(Begin postamble)
M5
G17 G90
M2
