(Exported by FreeCAD)
(Post Processor: grbl_post)
(Output Time:2024-03-12 11:17:37.944943)
(Begin preamble)
G17 G90
G21
(Begin operation: Fixture)
(Path: Fixture)
G54
(Finish operation: Fixture)
(Begin operation: 1/8th in Endmill023)
(Path: 1/8th in Endmill023)
(1/8th in Endmill023)
(Begin toolchange)
( M6 T2 )
(Finish operation: 1/8th in Endmill023)
(Begin operation: Drilling008)
(Path: Drilling008)
(Drilling008)
(Begin Drilling)
G0 Z5.000
G90
( G98 )
G0 X-115.175 Y-129.762
(G81 X-115.175 Y-129.762 Z-1.000 F1400.000 R3.000)
G0 X-115.175 Y-129.762
G0 Z3.000 F1400.00
G1 Z-1.000 F1400.00
G0 Z3.000
G0 X-129.762 Y-115.175
(G81 X-129.762 Y-115.175 Z-1.000 F1400.000 R3.000)
G0 X-129.762 Y-115.175
G0 Z3.000 F1400.00
G1 Z-1.000 F1400.00
G0 Z3.000
G0 X-455.262 Y-115.175
(G81 X-455.262 Y-115.175 Z-1.000 F1400.000 R3.000)
G0 X-455.262 Y-115.175
G0 Z3.000 F1400.00
G1 Z-1.000 F1400.00
G0 Z3.000
G0 X-469.850 Y-129.762
(G81 X-469.850 Y-129.762 Z-1.000 F1400.000 R3.000)
G0 X-469.850 Y-129.762
G0 Z3.000 F1400.00
G1 Z-1.000 F1400.00
G0 Z3.000
G0 X-469.850 Y-455.262
(G81 X-469.850 Y-455.262 Z-1.000 F1400.000 R3.000)
G0 X-469.850 Y-455.262
G0 Z3.000 F1400.00
G1 Z-1.000 F1400.00
G0 Z3.000
G0 X-455.262 Y-469.850
(G81 X-455.262 Y-469.850 Z-1.000 F1400.000 R3.000)
G0 X-455.262 Y-469.850
G0 Z3.000 F1400.00
G1 Z-1.000 F1400.00
G0 Z3.000
G0 X-129.762 Y-469.850
(G81 X-129.762 Y-469.850 Z-1.000 F1400.000 R3.000)
G0 X-129.762 Y-469.850
G0 Z3.000 F1400.00
G1 Z-1.000 F1400.00
G0 Z3.000
G0 X-115.175 Y-455.262
(G81 X-115.175 Y-455.262 Z-1.000 F1400.000 R3.000)
G0 X-115.175 Y-455.262
G0 Z3.000 F1400.00
G1 Z-1.000 F1400.00
G0 Z3.000
( G80 )
G0 Z3.000
G0 Z5.000
(Finish operation: Drilling008)
(Begin operation: Drilling009)
(Path: Drilling009)
(Drilling009)
(Begin Drilling)
G0 Z5.000
G90
( G98 )
G0 X-88.237 Y-146.112
(G83 X-88.237 Y-146.112 Z-6.400 F1400.000 Q1.000 R3.000)
G0 X-88.237 Y-146.112
G0 Z3.000 F1400.00
G1 Z2.000 F1400.00
G0 Z3.000
G0 Z2.050
G1 Z1.000 F1400.00
G0 Z3.000
G0 Z1.050
G1 Z0.000 F1400.00
G0 Z3.000
G0 Z0.050
G1 Z-1.000 F1400.00
G0 Z3.000
G0 Z-0.950
G1 Z-2.000 F1400.00
G0 Z3.000
G0 Z-1.950
G1 Z-3.000 F1400.00
G0 Z3.000
G0 Z-2.950
G1 Z-4.000 F1400.00
G0 Z3.000
G0 Z-3.950
G1 Z-5.000 F1400.00
G0 Z3.000
G0 Z-4.950
G1 Z-6.000 F1400.00
G0 Z3.000
G0 Z-5.950
G1 Z-6.400 F1400.00
G0 Z5.000
G0 X-88.237 Y-164.112
(G83 X-88.237 Y-164.112 Z-6.400 F1400.000 Q1.000 R3.000)
G0 X-88.237 Y-164.112
G0 Z3.000 F1400.00
G1 Z2.000 F1400.00
G0 Z3.000
G0 Z2.050
G1 Z1.000 F1400.00
G0 Z3.000
G0 Z1.050
G1 Z0.000 F1400.00
G0 Z3.000
G0 Z0.050
G1 Z-1.000 F1400.00
G0 Z3.000
G0 Z-0.950
G1 Z-2.000 F1400.00
G0 Z3.000
G0 Z-1.950
G1 Z-3.000 F1400.00
G0 Z3.000
G0 Z-2.950
G1 Z-4.000 F1400.00
G0 Z3.000
G0 Z-3.950
G1 Z-5.000 F1400.00
G0 Z3.000
G0 Z-4.950
G1 Z-6.000 F1400.00
G0 Z3.000
G0 Z-5.950
G1 Z-6.400 F1400.00
G0 Z5.000
G0 X-70.237 Y-164.112
(G83 X-70.237 Y-164.112 Z-6.400 F1400.000 Q1.000 R3.000)
G0 X-70.237 Y-164.112
G0 Z3.000 F1400.00
G1 Z2.000 F1400.00
G0 Z3.000
G0 Z2.050
G1 Z1.000 F1400.00
G0 Z3.000
G0 Z1.050
G1 Z0.000 F1400.00
G0 Z3.000
G0 Z0.050
G1 Z-1.000 F1400.00
G0 Z3.000
G0 Z-0.950
G1 Z-2.000 F1400.00
G0 Z3.000
G0 Z-1.950
G1 Z-3.000 F1400.00
G0 Z3.000
G0 Z-2.950
G1 Z-4.000 F1400.00
G0 Z3.000
G0 Z-3.950
G1 Z-5.000 F1400.00
G0 Z3.000
G0 Z-4.950
G1 Z-6.000 F1400.00
G0 Z3.000
G0 Z-5.950
G1 Z-6.400 F1400.00
G0 Z5.000
G0 X-88.237 Y-182.112
(G83 X-88.237 Y-182.112 Z-6.400 F1400.000 Q1.000 R3.000)
G0 X-88.237 Y-182.112
G0 Z3.000 F1400.00
G1 Z2.000 F1400.00
G0 Z3.000
G0 Z2.050
G1 Z1.000 F1400.00
G0 Z3.000
G0 Z1.050
G1 Z0.000 F1400.00
G0 Z3.000
G0 Z0.050
G1 Z-1.000 F1400.00
G0 Z3.000
G0 Z-0.950
G1 Z-2.000 F1400.00
G0 Z3.000
G0 Z-1.950
G1 Z-3.000 F1400.00
G0 Z3.000
G0 Z-2.950
G1 Z-4.000 F1400.00
G0 Z3.000
G0 Z-3.950
G1 Z-5.000 F1400.00
G0 Z3.000
G0 Z-4.950
G1 Z-6.000 F1400.00
G0 Z3.000
G0 Z-5.950
G1 Z-6.400 F1400.00
G0 Z5.000
G0 X-106.237 Y-164.112
(G83 X-106.237 Y-164.112 Z-6.400 F1400.000 Q1.000 R3.000)
G0 X-106.237 Y-164.112
G0 Z3.000 F1400.00
G1 Z2.000 F1400.00
G0 Z3.000
G0 Z2.050
G1 Z1.000 F1400.00
G0 Z3.000
G0 Z1.050
G1 Z0.000 F1400.00
G0 Z3.000
G0 Z0.050
G1 Z-1.000 F1400.00
G0 Z3.000
G0 Z-0.950
G1 Z-2.000 F1400.00
G0 Z3.000
G0 Z-1.950
G1 Z-3.000 F1400.00
G0 Z3.000
G0 Z-2.950
G1 Z-4.000 F1400.00
G0 Z3.000
G0 Z-3.950
G1 Z-5.000 F1400.00
G0 Z3.000
G0 Z-4.950
G1 Z-6.000 F1400.00
G0 Z3.000
G0 Z-5.950
G1 Z-6.400 F1400.00
G0 Z5.000
G0 X-192.512 Y-96.587
(G83 X-192.512 Y-96.587 Z-6.400 F1400.000 Q1.000 R3.000)
G0 X-192.512 Y-96.587
G0 Z3.000 F1400.00
G1 Z2.000 F1400.00
G0 Z3.000
G0 Z2.050
G1 Z1.000 F1400.00
G0 Z3.000
G0 Z1.050
G1 Z0.000 F1400.00
G0 Z3.000
G0 Z0.050
G1 Z-1.000 F1400.00
G0 Z3.000
G0 Z-0.950
G1 Z-2.000 F1400.00
G0 Z3.000
G0 Z-1.950
G1 Z-3.000 F1400.00
G0 Z3.000
G0 Z-2.950
G1 Z-4.000 F1400.00
G0 Z3.000
G0 Z-3.950
G1 Z-5.000 F1400.00
G0 Z3.000
G0 Z-4.950
G1 Z-6.000 F1400.00
G0 Z3.000
G0 Z-5.950
G1 Z-6.400 F1400.00
G0 Z5.000
G0 X-192.512 Y-26.587
(G83 X-192.512 Y-26.587 Z-6.400 F1400.000 Q1.000 R3.000)
G0 X-192.512 Y-26.587
G0 Z3.000 F1400.00
G1 Z2.000 F1400.00
G0 Z3.000
G0 Z2.050
G1 Z1.000 F1400.00
G0 Z3.000
G0 Z1.050
G1 Z0.000 F1400.00
G0 Z3.000
G0 Z0.050
G1 Z-1.000 F1400.00
G0 Z3.000
G0 Z-0.950
G1 Z-2.000 F1400.00
G0 Z3.000
G0 Z-1.950
G1 Z-3.000 F1400.00
G0 Z3.000
G0 Z-2.950
G1 Z-4.000 F1400.00
G0 Z3.000
G0 Z-3.950
G1 Z-5.000 F1400.00
G0 Z3.000
G0 Z-4.950
G1 Z-6.000 F1400.00
G0 Z3.000
G0 Z-5.950
G1 Z-6.400 F1400.00
G0 Z5.000
G0 X-392.512 Y-26.587
(G83 X-392.512 Y-26.587 Z-6.400 F1400.000 Q1.000 R3.000)
G0 X-392.512 Y-26.587
G0 Z3.000 F1400.00
G1 Z2.000 F1400.00
G0 Z3.000
G0 Z2.050
G1 Z1.000 F1400.00
G0 Z3.000
G0 Z1.050
G1 Z0.000 F1400.00
G0 Z3.000
G0 Z0.050
G1 Z-1.000 F1400.00
G0 Z3.000
G0 Z-0.950
G1 Z-2.000 F1400.00
G0 Z3.000
G0 Z-1.950
G1 Z-3.000 F1400.00
G0 Z3.000
G0 Z-2.950
G1 Z-4.000 F1400.00
G0 Z3.000
G0 Z-3.950
G1 Z-5.000 F1400.00
G0 Z3.000
G0 Z-4.950
G1 Z-6.000 F1400.00
G0 Z3.000
G0 Z-5.950
G1 Z-6.400 F1400.00
G0 Z5.000
G0 X-392.512 Y-96.587
(G83 X-392.512 Y-96.587 Z-6.400 F1400.000 Q1.000 R3.000)
G0 X-392.512 Y-96.587
G0 Z3.000 F1400.00
G1 Z2.000 F1400.00
G0 Z3.000
G0 Z2.050
G1 Z1.000 F1400.00
G0 Z3.000
G0 Z1.050
G1 Z0.000 F1400.00
G0 Z3.000
G0 Z0.050
G1 Z-1.000 F1400.00
G0 Z3.000
G0 Z-0.950
G1 Z-2.000 F1400.00
G0 Z3.000
G0 Z-1.950
G1 Z-3.000 F1400.00
G0 Z3.000
G0 Z-2.950
G1 Z-4.000 F1400.00
G0 Z3.000
G0 Z-3.950
G1 Z-5.000 F1400.00
G0 Z3.000
G0 Z-4.950
G1 Z-6.000 F1400.00
G0 Z3.000
G0 Z-5.950
G1 Z-6.400 F1400.00
G0 Z5.000
G0 X-478.788 Y-164.112
(G83 X-478.788 Y-164.112 Z-6.400 F1400.000 Q1.000 R3.000)
G0 X-478.788 Y-164.112
G0 Z3.000 F1400.00
G1 Z2.000 F1400.00
G0 Z3.000
G0 Z2.050
G1 Z1.000 F1400.00
G0 Z3.000
G0 Z1.050
G1 Z0.000 F1400.00
G0 Z3.000
G0 Z0.050
G1 Z-1.000 F1400.00
G0 Z3.000
G0 Z-0.950
G1 Z-2.000 F1400.00
G0 Z3.000
G0 Z-1.950
G1 Z-3.000 F1400.00
G0 Z3.000
G0 Z-2.950
G1 Z-4.000 F1400.00
G0 Z3.000
G0 Z-3.950
G1 Z-5.000 F1400.00
G0 Z3.000
G0 Z-4.950
G1 Z-6.000 F1400.00
G0 Z3.000
G0 Z-5.950
G1 Z-6.400 F1400.00
G0 Z5.000
G0 X-496.788 Y-164.112
(G83 X-496.788 Y-164.112 Z-6.400 F1400.000 Q1.000 R3.000)
G0 X-496.788 Y-164.112
G0 Z3.000 F1400.00
G1 Z2.000 F1400.00
G0 Z3.000
G0 Z2.050
G1 Z1.000 F1400.00
G0 Z3.000
G0 Z1.050
G1 Z0.000 F1400.00
G0 Z3.000
G0 Z0.050
G1 Z-1.000 F1400.00
G0 Z3.000
G0 Z-0.950
G1 Z-2.000 F1400.00
G0 Z3.000
G0 Z-1.950
G1 Z-3.000 F1400.00
G0 Z3.000
G0 Z-2.950
G1 Z-4.000 F1400.00
G0 Z3.000
G0 Z-3.950
G1 Z-5.000 F1400.00
G0 Z3.000
G0 Z-4.950
G1 Z-6.000 F1400.00
G0 Z3.000
G0 Z-5.950
G1 Z-6.400 F1400.00
G0 Z5.000
G0 X-496.788 Y-182.112
(G83 X-496.788 Y-182.112 Z-6.400 F1400.000 Q1.000 R3.000)
G0 X-496.788 Y-182.112
G0 Z3.000 F1400.00
G1 Z2.000 F1400.00
G0 Z3.000
G0 Z2.050
G1 Z1.000 F1400.00
G0 Z3.000
G0 Z1.050
G1 Z0.000 F1400.00
G0 Z3.000
G0 Z0.050
G1 Z-1.000 F1400.00
G0 Z3.000
G0 Z-0.950
G1 Z-2.000 F1400.00
G0 Z3.000
G0 Z-1.950
G1 Z-3.000 F1400.00
G0 Z3.000
G0 Z-2.950
G1 Z-4.000 F1400.00
G0 Z3.000
G0 Z-3.950
G1 Z-5.000 F1400.00
G0 Z3.000
G0 Z-4.950
G1 Z-6.000 F1400.00
G0 Z3.000
G0 Z-5.950
G1 Z-6.400 F1400.00
G0 Z5.000
G0 X-514.788 Y-164.112
(G83 X-514.788 Y-164.112 Z-6.400 F1400.000 Q1.000 R3.000)
G0 X-514.788 Y-164.112
G0 Z3.000 F1400.00
G1 Z2.000 F1400.00
G0 Z3.000
G0 Z2.050
G1 Z1.000 F1400.00
G0 Z3.000
G0 Z1.050
G1 Z0.000 F1400.00
G0 Z3.000
G0 Z0.050
G1 Z-1.000 F1400.00
G0 Z3.000
G0 Z-0.950
G1 Z-2.000 F1400.00
G0 Z3.000
G0 Z-1.950
G1 Z-3.000 F1400.00
G0 Z3.000
G0 Z-2.950
G1 Z-4.000 F1400.00
G0 Z3.000
G0 Z-3.950
G1 Z-5.000 F1400.00
G0 Z3.000
G0 Z-4.950
G1 Z-6.000 F1400.00
G0 Z3.000
G0 Z-5.950
G1 Z-6.400 F1400.00
G0 Z5.000
G0 X-496.788 Y-146.112
(G83 X-496.788 Y-146.112 Z-6.400 F1400.000 Q1.000 R3.000)
G0 X-496.788 Y-146.112
G0 Z3.000 F1400.00
G1 Z2.000 F1400.00
G0 Z3.000
G0 Z2.050
G1 Z1.000 F1400.00
G0 Z3.000
G0 Z1.050
G1 Z0.000 F1400.00
G0 Z3.000
G0 Z0.050
G1 Z-1.000 F1400.00
G0 Z3.000
G0 Z-0.950
G1 Z-2.000 F1400.00
G0 Z3.000
G0 Z-1.950
G1 Z-3.000 F1400.00
G0 Z3.000
G0 Z-2.950
G1 Z-4.000 F1400.00
G0 Z3.000
G0 Z-3.950
G1 Z-5.000 F1400.00
G0 Z3.000
G0 Z-4.950
G1 Z-6.000 F1400.00
G0 Z3.000
G0 Z-5.950
G1 Z-6.400 F1400.00
G0 Z5.000
G0 X-488.438 Y-292.512
(G83 X-488.438 Y-292.512 Z-6.400 F1400.000 Q1.000 R3.000)
G0 X-488.438 Y-292.512
G0 Z3.000 F1400.00
G1 Z2.000 F1400.00
G0 Z3.000
G0 Z2.050
G1 Z1.000 F1400.00
G0 Z3.000
G0 Z1.050
G1 Z0.000 F1400.00
G0 Z3.000
G0 Z0.050
G1 Z-1.000 F1400.00
G0 Z3.000
G0 Z-0.950
G1 Z-2.000 F1400.00
G0 Z3.000
G0 Z-1.950
G1 Z-3.000 F1400.00
G0 Z3.000
G0 Z-2.950
G1 Z-4.000 F1400.00
G0 Z3.000
G0 Z-3.950
G1 Z-5.000 F1400.00
G0 Z3.000
G0 Z-4.950
G1 Z-6.000 F1400.00
G0 Z3.000
G0 Z-5.950
G1 Z-6.400 F1400.00
G0 Z5.000
G0 X-558.438 Y-292.512
(G83 X-558.438 Y-292.512 Z-6.400 F1400.000 Q1.000 R3.000)
G0 X-558.438 Y-292.512
G0 Z3.000 F1400.00
G1 Z2.000 F1400.00
G0 Z3.000
G0 Z2.050
G1 Z1.000 F1400.00
G0 Z3.000
G0 Z1.050
G1 Z0.000 F1400.00
G0 Z3.000
G0 Z0.050
G1 Z-1.000 F1400.00
G0 Z3.000
G0 Z-0.950
G1 Z-2.000 F1400.00
G0 Z3.000
G0 Z-1.950
G1 Z-3.000 F1400.00
G0 Z3.000
G0 Z-2.950
G1 Z-4.000 F1400.00
G0 Z3.000
G0 Z-3.950
G1 Z-5.000 F1400.00
G0 Z3.000
G0 Z-4.950
G1 Z-6.000 F1400.00
G0 Z3.000
G0 Z-5.950
G1 Z-6.400 F1400.00
G0 Z5.000
G0 X-496.788 Y-402.913
(G83 X-496.788 Y-402.913 Z-6.400 F1400.000 Q1.000 R3.000)
G0 X-496.788 Y-402.913
G0 Z3.000 F1400.00
G1 Z2.000 F1400.00
G0 Z3.000
G0 Z2.050
G1 Z1.000 F1400.00
G0 Z3.000
G0 Z1.050
G1 Z0.000 F1400.00
G0 Z3.000
G0 Z0.050
G1 Z-1.000 F1400.00
G0 Z3.000
G0 Z-0.950
G1 Z-2.000 F1400.00
G0 Z3.000
G0 Z-1.950
G1 Z-3.000 F1400.00
G0 Z3.000
G0 Z-2.950
G1 Z-4.000 F1400.00
G0 Z3.000
G0 Z-3.950
G1 Z-5.000 F1400.00
G0 Z3.000
G0 Z-4.950
G1 Z-6.000 F1400.00
G0 Z3.000
G0 Z-5.950
G1 Z-6.400 F1400.00
G0 Z5.000
G0 X-496.788 Y-420.913
(G83 X-496.788 Y-420.913 Z-6.400 F1400.000 Q1.000 R3.000)
G0 X-496.788 Y-420.913
G0 Z3.000 F1400.00
G1 Z2.000 F1400.00
G0 Z3.000
G0 Z2.050
G1 Z1.000 F1400.00
G0 Z3.000
G0 Z1.050
G1 Z0.000 F1400.00
G0 Z3.000
G0 Z0.050
G1 Z-1.000 F1400.00
G0 Z3.000
G0 Z-0.950
G1 Z-2.000 F1400.00
G0 Z3.000
G0 Z-1.950
G1 Z-3.000 F1400.00
G0 Z3.000
G0 Z-2.950
G1 Z-4.000 F1400.00
G0 Z3.000
G0 Z-3.950
G1 Z-5.000 F1400.00
G0 Z3.000
G0 Z-4.950
G1 Z-6.000 F1400.00
G0 Z3.000
G0 Z-5.950
G1 Z-6.400 F1400.00
G0 Z5.000
G0 X-478.788 Y-420.913
(G83 X-478.788 Y-420.913 Z-6.400 F1400.000 Q1.000 R3.000)
G0 X-478.788 Y-420.913
G0 Z3.000 F1400.00
G1 Z2.000 F1400.00
G0 Z3.000
G0 Z2.050
G1 Z1.000 F1400.00
G0 Z3.000
G0 Z1.050
G1 Z0.000 F1400.00
G0 Z3.000
G0 Z0.050
G1 Z-1.000 F1400.00
G0 Z3.000
G0 Z-0.950
G1 Z-2.000 F1400.00
G0 Z3.000
G0 Z-1.950
G1 Z-3.000 F1400.00
G0 Z3.000
G0 Z-2.950
G1 Z-4.000 F1400.00
G0 Z3.000
G0 Z-3.950
G1 Z-5.000 F1400.00
G0 Z3.000
G0 Z-4.950
G1 Z-6.000 F1400.00
G0 Z3.000
G0 Z-5.950
G1 Z-6.400 F1400.00
G0 Z5.000
G0 X-496.788 Y-438.913
(G83 X-496.788 Y-438.913 Z-6.400 F1400.000 Q1.000 R3.000)
G0 X-496.788 Y-438.913
G0 Z3.000 F1400.00
G1 Z2.000 F1400.00
G0 Z3.000
G0 Z2.050
G1 Z1.000 F1400.00
G0 Z3.000
G0 Z1.050
G1 Z0.000 F1400.00
G0 Z3.000
G0 Z0.050
G1 Z-1.000 F1400.00
G0 Z3.000
G0 Z-0.950
G1 Z-2.000 F1400.00
G0 Z3.000
G0 Z-1.950
G1 Z-3.000 F1400.00
G0 Z3.000
G0 Z-2.950
G1 Z-4.000 F1400.00
G0 Z3.000
G0 Z-3.950
G1 Z-5.000 F1400.00
G0 Z3.000
G0 Z-4.950
G1 Z-6.000 F1400.00
G0 Z3.000
G0 Z-5.950
G1 Z-6.400 F1400.00
G0 Z5.000
G0 X-514.788 Y-420.913
(G83 X-514.788 Y-420.913 Z-6.400 F1400.000 Q1.000 R3.000)
G0 X-514.788 Y-420.913
G0 Z3.000 F1400.00
G1 Z2.000 F1400.00
G0 Z3.000
G0 Z2.050
G1 Z1.000 F1400.00
G0 Z3.000
G0 Z1.050
G1 Z0.000 F1400.00
G0 Z3.000
G0 Z0.050
G1 Z-1.000 F1400.00
G0 Z3.000
G0 Z-0.950
G1 Z-2.000 F1400.00
G0 Z3.000
G0 Z-1.950
G1 Z-3.000 F1400.00
G0 Z3.000
G0 Z-2.950
G1 Z-4.000 F1400.00
G0 Z3.000
G0 Z-3.950
G1 Z-5.000 F1400.00
G0 Z3.000
G0 Z-4.950
G1 Z-6.000 F1400.00
G0 Z3.000
G0 Z-5.950
G1 Z-6.400 F1400.00
G0 Z5.000
G0 X-420.012 Y-488.438
(G83 X-420.012 Y-488.438 Z-6.400 F1400.000 Q1.000 R3.000)
G0 X-420.012 Y-488.438
G0 Z3.000 F1400.00
G1 Z2.000 F1400.00
G0 Z3.000
G0 Z2.050
G1 Z1.000 F1400.00
G0 Z3.000
G0 Z1.050
G1 Z0.000 F1400.00
G0 Z3.000
G0 Z0.050
G1 Z-1.000 F1400.00
G0 Z3.000
G0 Z-0.950
G1 Z-2.000 F1400.00
G0 Z3.000
G0 Z-1.950
G1 Z-3.000 F1400.00
G0 Z3.000
G0 Z-2.950
G1 Z-4.000 F1400.00
G0 Z3.000
G0 Z-3.950
G1 Z-5.000 F1400.00
G0 Z3.000
G0 Z-4.950
G1 Z-6.000 F1400.00
G0 Z3.000
G0 Z-5.950
G1 Z-6.400 F1400.00
G0 Z5.000
G0 X-420.012 Y-558.438
(G83 X-420.012 Y-558.438 Z-6.400 F1400.000 Q1.000 R3.000)
G0 X-420.012 Y-558.438
G0 Z3.000 F1400.00
G1 Z2.000 F1400.00
G0 Z3.000
G0 Z2.050
G1 Z1.000 F1400.00
G0 Z3.000
G0 Z1.050
G1 Z0.000 F1400.00
G0 Z3.000
G0 Z0.050
G1 Z-1.000 F1400.00
G0 Z3.000
G0 Z-0.950
G1 Z-2.000 F1400.00
G0 Z3.000
G0 Z-1.950
G1 Z-3.000 F1400.00
G0 Z3.000
G0 Z-2.950
G1 Z-4.000 F1400.00
G0 Z3.000
G0 Z-3.950
G1 Z-5.000 F1400.00
G0 Z3.000
G0 Z-4.950
G1 Z-6.000 F1400.00
G0 Z3.000
G0 Z-5.950
G1 Z-6.400 F1400.00
G0 Z5.000
G0 X-292.512 Y-560.438
(G83 X-292.512 Y-560.438 Z-6.400 F1400.000 Q1.000 R3.000)
G0 X-292.512 Y-560.438
G0 Z3.000 F1400.00
G1 Z2.000 F1400.00
G0 Z3.000
G0 Z2.050
G1 Z1.000 F1400.00
G0 Z3.000
G0 Z1.050
G1 Z0.000 F1400.00
G0 Z3.000
G0 Z0.050
G1 Z-1.000 F1400.00
G0 Z3.000
G0 Z-0.950
G1 Z-2.000 F1400.00
G0 Z3.000
G0 Z-1.950
G1 Z-3.000 F1400.00
G0 Z3.000
G0 Z-2.950
G1 Z-4.000 F1400.00
G0 Z3.000
G0 Z-3.950
G1 Z-5.000 F1400.00
G0 Z3.000
G0 Z-4.950
G1 Z-6.000 F1400.00
G0 Z3.000
G0 Z-5.950
G1 Z-6.400 F1400.00
G0 Z5.000
G0 X-165.012 Y-558.438
(G83 X-165.012 Y-558.438 Z-6.400 F1400.000 Q1.000 R3.000)
G0 X-165.012 Y-558.438
G0 Z3.000 F1400.00
G1 Z2.000 F1400.00
G0 Z3.000
G0 Z2.050
G1 Z1.000 F1400.00
G0 Z3.000
G0 Z1.050
G1 Z0.000 F1400.00
G0 Z3.000
G0 Z0.050
G1 Z-1.000 F1400.00
G0 Z3.000
G0 Z-0.950
G1 Z-2.000 F1400.00
G0 Z3.000
G0 Z-1.950
G1 Z-3.000 F1400.00
G0 Z3.000
G0 Z-2.950
G1 Z-4.000 F1400.00
G0 Z3.000
G0 Z-3.950
G1 Z-5.000 F1400.00
G0 Z3.000
G0 Z-4.950
G1 Z-6.000 F1400.00
G0 Z3.000
G0 Z-5.950
G1 Z-6.400 F1400.00
G0 Z5.000
G0 X-165.012 Y-488.438
(G83 X-165.012 Y-488.438 Z-6.400 F1400.000 Q1.000 R3.000)
G0 X-165.012 Y-488.438
G0 Z3.000 F1400.00
G1 Z2.000 F1400.00
G0 Z3.000
G0 Z2.050
G1 Z1.000 F1400.00
G0 Z3.000
G0 Z1.050
G1 Z0.000 F1400.00
G0 Z3.000
G0 Z0.050
G1 Z-1.000 F1400.00
G0 Z3.000
G0 Z-0.950
G1 Z-2.000 F1400.00
G0 Z3.000
G0 Z-1.950
G1 Z-3.000 F1400.00
G0 Z3.000
G0 Z-2.950
G1 Z-4.000 F1400.00
G0 Z3.000
G0 Z-3.950
G1 Z-5.000 F1400.00
G0 Z3.000
G0 Z-4.950
G1 Z-6.000 F1400.00
G0 Z3.000
G0 Z-5.950
G1 Z-6.400 F1400.00
G0 Z5.000
G0 X-106.237 Y-420.913
(G83 X-106.237 Y-420.913 Z-6.400 F1400.000 Q1.000 R3.000)
G0 X-106.237 Y-420.913
G0 Z3.000 F1400.00
G1 Z2.000 F1400.00
G0 Z3.000
G0 Z2.050
G1 Z1.000 F1400.00
G0 Z3.000
G0 Z1.050
G1 Z0.000 F1400.00
G0 Z3.000
G0 Z0.050
G1 Z-1.000 F1400.00
G0 Z3.000
G0 Z-0.950
G1 Z-2.000 F1400.00
G0 Z3.000
G0 Z-1.950
G1 Z-3.000 F1400.00
G0 Z3.000
G0 Z-2.950
G1 Z-4.000 F1400.00
G0 Z3.000
G0 Z-3.950
G1 Z-5.000 F1400.00
G0 Z3.000
G0 Z-4.950
G1 Z-6.000 F1400.00
G0 Z3.000
G0 Z-5.950
G1 Z-6.400 F1400.00
G0 Z5.000
G0 X-88.237 Y-420.913
(G83 X-88.237 Y-420.913 Z-6.400 F1400.000 Q1.000 R3.000)
G0 X-88.237 Y-420.913
G0 Z3.000 F1400.00
G1 Z2.000 F1400.00
G0 Z3.000
G0 Z2.050
G1 Z1.000 F1400.00
G0 Z3.000
G0 Z1.050
G1 Z0.000 F1400.00
G0 Z3.000
G0 Z0.050
G1 Z-1.000 F1400.00
G0 Z3.000
G0 Z-0.950
G1 Z-2.000 F1400.00
G0 Z3.000
G0 Z-1.950
G1 Z-3.000 F1400.00
G0 Z3.000
G0 Z-2.950
G1 Z-4.000 F1400.00
G0 Z3.000
G0 Z-3.950
G1 Z-5.000 F1400.00
G0 Z3.000
G0 Z-4.950
G1 Z-6.000 F1400.00
G0 Z3.000
G0 Z-5.950
G1 Z-6.400 F1400.00
G0 Z5.000
G0 X-70.237 Y-420.913
(G83 X-70.237 Y-420.913 Z-6.400 F1400.000 Q1.000 R3.000)
G0 X-70.237 Y-420.913
G0 Z3.000 F1400.00
G1 Z2.000 F1400.00
G0 Z3.000
G0 Z2.050
G1 Z1.000 F1400.00
G0 Z3.000
G0 Z1.050
G1 Z0.000 F1400.00
G0 Z3.000
G0 Z0.050
G1 Z-1.000 F1400.00
G0 Z3.000
G0 Z-0.950
G1 Z-2.000 F1400.00
G0 Z3.000
G0 Z-1.950
G1 Z-3.000 F1400.00
G0 Z3.000
G0 Z-2.950
G1 Z-4.000 F1400.00
G0 Z3.000
G0 Z-3.950
G1 Z-5.000 F1400.00
G0 Z3.000
G0 Z-4.950
G1 Z-6.000 F1400.00
G0 Z3.000
G0 Z-5.950
G1 Z-6.400 F1400.00
G0 Z5.000
G0 X-88.237 Y-438.913
(G83 X-88.237 Y-438.913 Z-6.400 F1400.000 Q1.000 R3.000)
G0 X-88.237 Y-438.913
G0 Z3.000 F1400.00
G1 Z2.000 F1400.00
G0 Z3.000
G0 Z2.050
G1 Z1.000 F1400.00
G0 Z3.000
G0 Z1.050
G1 Z0.000 F1400.00
G0 Z3.000
G0 Z0.050
G1 Z-1.000 F1400.00
G0 Z3.000
G0 Z-0.950
G1 Z-2.000 F1400.00
G0 Z3.000
G0 Z-1.950
G1 Z-3.000 F1400.00
G0 Z3.000
G0 Z-2.950
G1 Z-4.000 F1400.00
G0 Z3.000
G0 Z-3.950
G1 Z-5.000 F1400.00
G0 Z3.000
G0 Z-4.950
G1 Z-6.000 F1400.00
G0 Z3.000
G0 Z-5.950
G1 Z-6.400 F1400.00
G0 Z5.000
G0 X-88.237 Y-402.913
(G83 X-88.237 Y-402.913 Z-6.400 F1400.000 Q1.000 R3.000)
G0 X-88.237 Y-402.913
G0 Z3.000 F1400.00
G1 Z2.000 F1400.00
G0 Z3.000
G0 Z2.050
G1 Z1.000 F1400.00
G0 Z3.000
G0 Z1.050
G1 Z0.000 F1400.00
G0 Z3.000
G0 Z0.050
G1 Z-1.000 F1400.00
G0 Z3.000
G0 Z-0.950
G1 Z-2.000 F1400.00
G0 Z3.000
G0 Z-1.950
G1 Z-3.000 F1400.00
G0 Z3.000
G0 Z-2.950
G1 Z-4.000 F1400.00
G0 Z3.000
G0 Z-3.950
G1 Z-5.000 F1400.00
G0 Z3.000
G0 Z-4.950
G1 Z-6.000 F1400.00
G0 Z3.000
G0 Z-5.950
G1 Z-6.400 F1400.00
G0 Z5.000
G0 X-96.587 Y-292.512
(G83 X-96.587 Y-292.512 Z-6.400 F1400.000 Q1.000 R3.000)
G0 X-96.587 Y-292.512
G0 Z3.000 F1400.00
G1 Z2.000 F1400.00
G0 Z3.000
G0 Z2.050
G1 Z1.000 F1400.00
G0 Z3.000
G0 Z1.050
G1 Z0.000 F1400.00
G0 Z3.000
G0 Z0.050
G1 Z-1.000 F1400.00
G0 Z3.000
G0 Z-0.950
G1 Z-2.000 F1400.00
G0 Z3.000
G0 Z-1.950
G1 Z-3.000 F1400.00
G0 Z3.000
G0 Z-2.950
G1 Z-4.000 F1400.00
G0 Z3.000
G0 Z-3.950
G1 Z-5.000 F1400.00
G0 Z3.000
G0 Z-4.950
G1 Z-6.000 F1400.00
G0 Z3.000
G0 Z-5.950
G1 Z-6.400 F1400.00
G0 Z5.000
G0 X-26.587 Y-292.512
(G83 X-26.587 Y-292.512 Z-6.400 F1400.000 Q1.000 R3.000)
G0 X-26.587 Y-292.512
G0 Z3.000 F1400.00
G1 Z2.000 F1400.00
G0 Z3.000
G0 Z2.050
G1 Z1.000 F1400.00
G0 Z3.000
G0 Z1.050
G1 Z0.000 F1400.00
G0 Z3.000
G0 Z0.050
G1 Z-1.000 F1400.00
G0 Z3.000
G0 Z-0.950
G1 Z-2.000 F1400.00
G0 Z3.000
G0 Z-1.950
G1 Z-3.000 F1400.00
G0 Z3.000
G0 Z-2.950
G1 Z-4.000 F1400.00
G0 Z3.000
G0 Z-3.950
G1 Z-5.000 F1400.00
G0 Z3.000
G0 Z-4.950
G1 Z-6.000 F1400.00
G0 Z3.000
G0 Z-5.950
G1 Z-6.400 F1400.00
G0 Z5.000
( G80 )
G0 Z3.000
G0 Z5.000
(Finish operation: Drilling009)
(Begin operation: Drilling010)
(Path: Drilling010)
(Drilling010)
(Begin Drilling)
G0 Z5.000
G90
( G98 )
G0 X-282.012 Y-553.188
(G83 X-282.012 Y-553.188 Z-5.000 F1400.000 Q1.000 R3.000)
G0 X-282.012 Y-553.188
G0 Z3.000 F1400.00
G1 Z2.000 F1400.00
G0 Z3.000
G0 Z2.050
G1 Z1.000 F1400.00
G0 Z3.000
G0 Z1.050
G1 Z0.000 F1400.00
G0 Z3.000
G0 Z0.050
G1 Z-1.000 F1400.00
G0 Z3.000
G0 Z-0.950
G1 Z-2.000 F1400.00
G0 Z3.000
G0 Z-1.950
G1 Z-3.000 F1400.00
G0 Z3.000
G0 Z-2.950
G1 Z-4.000 F1400.00
G0 Z3.000
G0 Z-3.950
G1 Z-5.000 F1400.00
G0 Z5.000
G0 X-282.012 Y-566.688
(G83 X-282.012 Y-566.688 Z-5.000 F1400.000 Q1.000 R3.000)
G0 X-282.012 Y-566.688
G0 Z3.000 F1400.00
G1 Z2.000 F1400.00
G0 Z3.000
G0 Z2.050
G1 Z1.000 F1400.00
G0 Z3.000
G0 Z1.050
G1 Z0.000 F1400.00
G0 Z3.000
G0 Z0.050
G1 Z-1.000 F1400.00
G0 Z3.000
G0 Z-0.950
G1 Z-2.000 F1400.00
G0 Z3.000
G0 Z-1.950
G1 Z-3.000 F1400.00
G0 Z3.000
G0 Z-2.950
G1 Z-4.000 F1400.00
G0 Z3.000
G0 Z-3.950
G1 Z-5.000 F1400.00
G0 Z5.000
G0 X-303.012 Y-566.688
(G83 X-303.012 Y-566.688 Z-5.000 F1400.000 Q1.000 R3.000)
G0 X-303.012 Y-566.688
G0 Z3.000 F1400.00
G1 Z2.000 F1400.00
G0 Z3.000
G0 Z2.050
G1 Z1.000 F1400.00
G0 Z3.000
G0 Z1.050
G1 Z0.000 F1400.00
G0 Z3.000
G0 Z0.050
G1 Z-1.000 F1400.00
G0 Z3.000
G0 Z-0.950
G1 Z-2.000 F1400.00
G0 Z3.000
G0 Z-1.950
G1 Z-3.000 F1400.00
G0 Z3.000
G0 Z-2.950
G1 Z-4.000 F1400.00
G0 Z3.000
G0 Z-3.950
G1 Z-5.000 F1400.00
G0 Z5.000
G0 X-303.012 Y-553.188
(G83 X-303.012 Y-553.188 Z-5.000 F1400.000 Q1.000 R3.000)
G0 X-303.012 Y-553.188
G0 Z3.000 F1400.00
G1 Z2.000 F1400.00
G0 Z3.000
G0 Z2.050
G1 Z1.000 F1400.00
G0 Z3.000
G0 Z1.050
G1 Z0.000 F1400.00
G0 Z3.000
G0 Z0.050
G1 Z-1.000 F1400.00
G0 Z3.000
G0 Z-0.950
G1 Z-2.000 F1400.00
G0 Z3.000
G0 Z-1.950
G1 Z-3.000 F1400.00
G0 Z3.000
G0 Z-2.950
G1 Z-4.000 F1400.00
G0 Z3.000
G0 Z-3.950
G1 Z-5.000 F1400.00
G0 Z5.000
( G80 )
G0 Z3.000
G0 Z5.000
(Finish operation: Drilling010)
(Begin operation: Pocket_Shape010)
(Path: Pocket_Shape010)
(Pocket_Shape010)
G0 Z5.000
G0 X-281.939 Y-553.114
G0 Z3.000
G1 X-281.939 Y-553.114 Z-2.000 F1400.000
G2 X-281.961 Y-553.277 Z-2.000 I-0.073 J-0.073 K0.000 F1800.000
G2 X-282.102 Y-553.239 Z-2.000 I-0.052 J0.090 K0.000 F1800.000
G2 X-282.064 Y-553.098 Z-2.000 I0.090 J0.052 K0.000 F1800.000
G2 X-281.939 Y-553.114 Z-2.000 I0.052 J-0.090 K0.000 F1800.000
G1 X-281.939 Y-553.114 Z-4.000 F1400.000
G2 X-281.961 Y-553.277 Z-4.000 I-0.073 J-0.073 K0.000 F1800.000
G2 X-282.102 Y-553.239 Z-4.000 I-0.052 J0.090 K0.000 F1800.000
G2 X-282.064 Y-553.098 Z-4.000 I0.090 J0.052 K0.000 F1800.000
G2 X-281.939 Y-553.114 Z-4.000 I0.052 J-0.090 K0.000 F1800.000
G0 Z5.000
G0 Z5.000
G0 X-281.939 Y-553.114
G0 X-282.012 Y-566.584
G0 X-282.012 Y-566.584 Z3.000
G1 X-282.012 Y-566.584 Z-2.000 F1400.000
G2 X-281.961 Y-566.777 Z-2.000 I-0.001 J-0.104 K0.000 F1800.000
G2 X-282.102 Y-566.739 Z-2.000 I-0.052 J0.090 K0.000 F1800.000
G2 X-282.064 Y-566.598 Z-2.000 I0.090 J0.052 K0.000 F1800.000
G2 X-282.012 Y-566.584 Z-2.000 I0.052 J-0.090 K0.000 F1800.000
G1 X-282.012 Y-566.584 Z-4.000 F1400.000
G2 X-281.961 Y-566.777 Z-4.000 I-0.001 J-0.104 K0.000 F1800.000
G2 X-282.102 Y-566.739 Z-4.000 I-0.052 J0.090 K0.000 F1800.000
G2 X-282.064 Y-566.598 Z-4.000 I0.090 J0.052 K0.000 F1800.000
G2 X-282.012 Y-566.584 Z-4.000 I0.052 J-0.090 K0.000 F1800.000
G0 Z5.000
G0 Z5.000
G0 X-282.012 Y-566.584
G0 X-302.909 Y-566.687
G0 X-302.909 Y-566.687 Z3.000
G1 X-302.909 Y-566.687 Z-2.000 F1400.000
G2 X-302.961 Y-566.777 Z-2.000 I-0.104 J-0.001 K0.000 F1800.000
G2 X-303.102 Y-566.739 Z-2.000 I-0.052 J0.090 K0.000 F1800.000
G2 X-303.064 Y-566.598 Z-2.000 I0.090 J0.052 K0.000 F1800.000
G2 X-302.909 Y-566.687 Z-2.000 I0.052 J-0.090 K0.000 F1800.000
G1 X-302.909 Y-566.687 Z-4.000 F1400.000
G2 X-302.961 Y-566.777 Z-4.000 I-0.104 J-0.001 K0.000 F1800.000
G2 X-303.102 Y-566.739 Z-4.000 I-0.052 J0.090 K0.000 F1800.000
G2 X-303.064 Y-566.598 Z-4.000 I0.090 J0.052 K0.000 F1800.000
G2 X-302.909 Y-566.687 Z-4.000 I0.052 J-0.090 K0.000 F1800.000
G0 Z5.000
G0 Z5.000
G0 X-302.909 Y-566.687
G0 X-303.012 Y-553.291
G0 X-303.012 Y-553.291 Z3.000
G1 X-303.012 Y-553.291 Z-2.000 F1400.000
G2 X-303.064 Y-553.098 Z-2.000 I-0.001 J0.104 K0.000 F1800.000
G2 X-302.961 Y-553.277 Z-2.000 I0.052 J-0.090 K0.000 F1800.000
G2 X-303.012 Y-553.291 Z-2.000 I-0.052 J0.090 K0.000 F1800.000
G1 X-303.012 Y-553.291 Z-4.000 F1400.000
G2 X-303.064 Y-553.098 Z-4.000 I-0.001 J0.104 K0.000 F1800.000
G2 X-302.961 Y-553.277 Z-4.000 I0.052 J-0.090 K0.000 F1800.000
G2 X-303.012 Y-553.291 Z-4.000 I-0.052 J0.090 K0.000 F1800.000
G0 Z5.000
G0 Z5.000
(Finish operation: Pocket_Shape010)
(Begin operation: Pocket_Shape011)
(Path: Pocket_Shape011)
(Pocket_Shape011)
G0 Z5.000
G0 X-87.118 Y-144.993
G0 Z3.000
G1 X-87.118 Y-144.993 Z-3.200 F1400.000
G3 X-88.237 Y-144.530 Z-3.200 I-1.119 J-1.119 K0.000 F1800.000
G3 X-88.237 Y-147.695 Z-3.200 I0.000 J-1.583 K0.000 F1800.000
G3 X-87.118 Y-144.993 Z-3.200 I0.000 J1.583 K0.000 F1800.000
G0 Z5.000
G0 X-88.477 Y-144.549 Z5.000
G0 X-88.477 Y-144.549 Z3.000
G1 X-88.477 Y-144.549 Z-3.200 F1400.000
G1 X-89.801 Y-145.873 Z-3.200 F1800.000
G2 X-88.477 Y-144.549 Z-3.200 I1.561 J-0.237 K0.000 F1800.000
G2 X-87.373 Y-144.792 Z-3.200 I0.241 J-1.531 K0.000 F1800.000
G1 X-89.558 Y-146.977 Z-3.200 F1800.000
G3 X-88.815 Y-147.581 Z-3.200 I1.259 J0.790 K0.000 F1800.000
G1 X-86.769 Y-145.535 Z-3.200 F1800.000
G2 X-87.118 Y-147.232 Z-3.200 I-1.454 J-0.585 K0.000 F1800.000
G1 X-87.118 Y-147.232 Z-6.400 F1400.000
G3 X-86.769 Y-145.535 Z-6.400 I-1.105 J1.112 K0.000 F1800.000
G1 X-88.815 Y-147.581 Z-6.400 F1800.000
G2 X-89.558 Y-146.977 Z-6.400 I0.516 J1.394 K0.000 F1800.000
G1 X-87.373 Y-144.792 Z-6.400 F1800.000
G3 X-88.477 Y-144.549 Z-6.400 I-0.862 J-1.288 K0.000 F1800.000
G3 X-89.801 Y-145.873 Z-6.400 I0.237 J-1.561 K0.000 F1800.000
G1 X-88.477 Y-144.549 Z-6.400 F1800.000
G0 Z5.000
G0 X-88.477 Y-144.548 Z5.000
G0 X-88.477 Y-144.548 Z3.000
G1 X-88.477 Y-144.548 Z-6.400 F1400.000
G3 X-88.237 Y-147.695 Z-6.400 I0.239 J-1.564 K0.000 F1800.000
G3 X-88.237 Y-144.530 Z-6.400 I0.000 J1.583 K0.000 F1800.000
G3 X-88.477 Y-144.548 Z-6.400 I0.000 J-1.583 K0.000 F1800.000
G0 Z5.000
G0 Z5.000
G0 X-88.477 Y-144.548
G0 X-88.328 Y-156.702
G0 X-88.328 Y-156.702 Z3.000
G1 X-88.328 Y-156.702 Z-3.200 F1400.000
G3 X-88.237 Y-171.523 Z-3.200 I0.091 J-7.410 K0.000 F1800.000
G3 X-88.237 Y-156.702 Z-3.200 I0.000 J7.411 K0.000 F1800.000
G3 X-88.328 Y-156.702 Z-3.200 I0.000 J-7.411 K0.000 F1800.000
G0 Z5.000
G0 X-91.181 Y-157.320 Z5.000
G0 X-91.181 Y-157.320 Z3.000
G1 X-91.181 Y-157.320 Z-3.200 F1400.000
G3 X-95.030 Y-161.169 Z-3.200 I2.865 J-6.715 K0.000 F1800.000
G1 X-91.181 Y-157.320 Z-3.200 F1800.000
G2 X-89.300 Y-156.786 Z-3.200 I2.727 J-6.030 K0.000 F1800.000
G1 X-95.564 Y-163.050 Z-3.200 F1800.000
G3 X-95.632 Y-164.465 Z-3.200 I5.652 J-0.982 K0.000 F1800.000
G1 X-87.885 Y-156.718 Z-3.200 F1800.000
G2 X-86.691 Y-156.871 Z-3.200 I-0.082 J-5.364 K0.000 F1800.000
G1 X-95.479 Y-165.659 Z-3.200 F1800.000
G3 X-95.177 Y-166.704 Z-3.200 I5.790 J1.107 K0.000 F1800.000
G1 X-85.646 Y-157.173 Z-3.200 F1800.000
G2 X-84.723 Y-157.596 Z-3.200 I-1.346 J-4.157 K0.000 F1800.000
G1 X-94.754 Y-167.627 Z-3.200 F1800.000
G3 X-94.235 Y-168.456 Z-3.200 I4.731 J2.382 K0.000 F1800.000
G1 X-83.894 Y-158.115 Z-3.200 F1800.000
G2 X-83.156 Y-158.724 Z-3.200 I-2.478 J-3.748 K0.000 F1800.000
G1 X-93.626 Y-169.194 Z-3.200 F1800.000
G3 X-92.926 Y-169.841 Z-3.200 I3.845 J3.449 K0.000 F1800.000
G1 X-82.509 Y-159.424 Z-3.200 F1800.000
G2 X-81.942 Y-160.204 Z-3.200 I-3.926 J-3.449 K0.000 F1800.000
G1 X-92.146 Y-170.408 Z-3.200 F1800.000
G3 X-91.261 Y-170.870 Z-3.200 I2.342 J3.412 K0.000 F1800.000
G1 X-81.480 Y-161.089 Z-3.200 F1800.000
G2 X-81.114 Y-162.070 Z-3.200 I-5.112 J-2.464 K0.000 F1800.000
G1 X-90.280 Y-171.236 Z-3.200 F1800.000
G3 X-89.156 Y-171.459 Z-3.200 I1.423 J4.222 K0.000 F1800.000
G1 X-80.891 Y-163.194 Z-3.200 F1800.000
G2 X-80.844 Y-164.495 Z-3.200 I-5.130 J-0.835 K0.000 F1800.000
G1 X-87.855 Y-171.506 Z-3.200 F1800.000
G3 X-86.254 Y-171.251 Z-3.200 I-0.123 J5.936 K0.000 F1800.000
G1 X-81.099 Y-166.096 Z-3.200 F1800.000
G2 X-83.245 Y-169.589 Z-3.200 I-7.109 J1.962 K0.000 F1800.000
G1 X-83.245 Y-169.589 Z-6.400 F1400.000
G3 X-81.099 Y-166.096 Z-6.400 I-4.963 J5.454 K0.000 F1800.000
G1 X-86.254 Y-171.251 Z-6.400 F1800.000
G2 X-87.855 Y-171.506 Z-6.400 I-1.725 J5.682 K0.000 F1800.000
G1 X-80.844 Y-164.495 Z-6.400 F1800.000
G3 X-80.891 Y-163.194 Z-6.400 I-5.176 J0.465 K0.000 F1800.000
G1 X-89.156 Y-171.459 Z-6.400 F1800.000
G2 X-90.280 Y-171.236 Z-6.400 I0.299 J4.445 K0.000 F1800.000
G1 X-81.114 Y-162.070 Z-6.400 F1800.000
G3 X-81.480 Y-161.089 Z-6.400 I-5.478 J-1.483 K0.000 F1800.000
G1 X-91.261 Y-170.870 Z-6.400 F1800.000
G2 X-92.146 Y-170.408 Z-6.400 I1.457 J3.873 K0.000 F1800.000
G1 X-81.942 Y-160.204 Z-6.400 F1800.000
G3 X-82.509 Y-159.424 Z-6.400 I-4.493 J-2.669 K0.000 F1800.000
G1 X-92.926 Y-169.841 Z-6.400 F1800.000
G2 X-93.626 Y-169.194 Z-6.400 I3.146 J4.097 K0.000 F1800.000
G1 X-83.156 Y-158.724 Z-6.400 F1800.000
G3 X-83.894 Y-158.115 Z-6.400 I-3.215 J-3.139 K0.000 F1800.000
G1 X-94.235 Y-168.456 Z-6.400 F1800.000
G2 X-94.754 Y-167.627 Z-6.400 I4.213 J3.211 K0.000 F1800.000
G1 X-84.723 Y-157.596 Z-6.400 F1800.000
G3 X-85.646 Y-157.173 Z-6.400 I-2.269 J-3.734 K0.000 F1800.000
G1 X-95.177 Y-166.704 Z-6.400 F1800.000
G2 X-95.479 Y-165.659 Z-6.400 I5.488 J2.152 K0.000 F1800.000
G1 X-86.691 Y-156.871 Z-6.400 F1800.000
G3 X-87.885 Y-156.718 Z-6.400 I-1.276 J-5.211 K0.000 F1800.000
G1 X-95.632 Y-164.465 Z-6.400 F1800.000
G2 X-95.564 Y-163.050 Z-6.400 I5.720 J0.434 K0.000 F1800.000
G1 X-89.300 Y-156.786 Z-6.400 F1800.000
G3 X-91.181 Y-157.320 Z-6.400 I0.846 J-6.564 K0.000 F1800.000
G1 X-95.030 Y-161.169 Z-6.400 F1800.000
G2 X-91.181 Y-157.320 Z-6.400 I6.715 J-2.865 K0.000 F1800.000
G0 Z5.000
G0 X-91.184 Y-157.313 Z5.000
G0 X-91.184 Y-157.313 Z3.000
G1 X-91.184 Y-157.313 Z-6.400 F1400.000
G3 X-88.237 Y-171.523 Z-6.400 I2.947 J-6.800 K0.000 F1800.000
G3 X-88.237 Y-156.702 Z-6.400 I0.000 J7.411 K0.000 F1800.000
G3 X-91.184 Y-157.313 Z-6.400 I0.000 J-7.411 K0.000 F1800.000
G0 Z5.000
G0 Z5.000
G0 X-91.184 Y-157.313
G0 X-71.743 Y-163.624
G0 X-71.743 Y-163.624 Z3.000
G1 X-71.743 Y-163.624 Z-3.200 F1400.000
G3 X-70.237 Y-165.695 Z-3.200 I1.505 J-0.489 K0.000 F1800.000
G3 X-70.237 Y-162.530 Z-3.200 I0.000 J1.583 K0.000 F1800.000
G3 X-71.743 Y-163.624 Z-3.200 I0.000 J-1.583 K0.000 F1800.000
G0 Z5.000
G0 X-70.477 Y-162.549 Z5.000
G0 X-70.477 Y-162.549 Z3.000
G1 X-70.477 Y-162.549 Z-3.200 F1400.000
G1 X-71.801 Y-163.873 Z-3.200 F1800.000
G2 X-70.477 Y-162.549 Z-3.200 I1.561 J-0.237 K0.000 F1800.000
G2 X-69.373 Y-162.792 Z-3.200 I0.241 J-1.531 K0.000 F1800.000
G1 X-71.558 Y-164.977 Z-3.200 F1800.000
G3 X-70.815 Y-165.581 Z-3.200 I1.259 J0.790 K0.000 F1800.000
G1 X-68.769 Y-163.535 Z-3.200 F1800.000
G2 X-69.118 Y-165.232 Z-3.200 I-1.454 J-0.585 K0.000 F1800.000
G1 X-69.118 Y-165.232 Z-6.400 F1400.000
G3 X-68.769 Y-163.535 Z-6.400 I-1.105 J1.112 K0.000 F1800.000
G1 X-70.815 Y-165.581 Z-6.400 F1800.000
G2 X-71.558 Y-164.977 Z-6.400 I0.516 J1.394 K0.000 F1800.000
G1 X-69.373 Y-162.792 Z-6.400 F1800.000
G3 X-70.477 Y-162.549 Z-6.400 I-0.862 J-1.288 K0.000 F1800.000
G3 X-71.801 Y-163.873 Z-6.400 I0.237 J-1.561 K0.000 F1800.000
G1 X-70.477 Y-162.549 Z-6.400 F1800.000
G0 Z5.000
G0 X-70.477 Y-162.548 Z5.000
G0 X-70.477 Y-162.548 Z3.000
G1 X-70.477 Y-162.548 Z-6.400 F1400.000
G3 X-70.237 Y-165.695 Z-6.400 I0.239 J-1.564 K0.000 F1800.000
G3 X-70.237 Y-162.530 Z-6.400 I0.000 J1.583 K0.000 F1800.000
G3 X-70.477 Y-162.548 Z-6.400 I0.000 J-1.583 K0.000 F1800.000
G0 Z5.000
G0 Z5.000
G0 X-70.477 Y-162.548
G0 X-87.174 Y-180.941
G0 X-87.174 Y-180.941 Z3.000
G1 X-87.174 Y-180.941 Z-3.200 F1400.000
G3 X-88.237 Y-180.530 Z-3.200 I-1.064 J-1.172 K0.000 F1800.000
G3 X-88.237 Y-183.695 Z-3.200 I0.000 J-1.583 K0.000 F1800.000
G3 X-87.174 Y-180.941 Z-3.200 I0.000 J1.583 K0.000 F1800.000
G0 Z5.000
G0 X-88.477 Y-180.549 Z5.000
G0 X-88.477 Y-180.549 Z3.000
G1 X-88.477 Y-180.549 Z-3.200 F1400.000
G1 X-89.801 Y-181.873 Z-3.200 F1800.000
G2 X-88.477 Y-180.549 Z-3.200 I1.561 J-0.237 K0.000 F1800.000
G2 X-87.373 Y-180.792 Z-3.200 I0.241 J-1.531 K0.000 F1800.000
G1 X-89.558 Y-182.977 Z-3.200 F1800.000
G3 X-88.815 Y-183.581 Z-3.200 I1.259 J0.790 K0.000 F1800.000
G1 X-86.769 Y-181.535 Z-3.200 F1800.000
G2 X-87.118 Y-183.232 Z-3.200 I-1.454 J-0.585 K0.000 F1800.000
G1 X-87.118 Y-183.232 Z-6.400 F1400.000
G3 X-86.769 Y-181.535 Z-6.400 I-1.105 J1.112 K0.000 F1800.000
G1 X-88.815 Y-183.581 Z-6.400 F1800.000
G2 X-89.558 Y-182.977 Z-6.400 I0.516 J1.394 K0.000 F1800.000
G1 X-87.373 Y-180.792 Z-6.400 F1800.000
G3 X-88.477 Y-180.549 Z-6.400 I-0.862 J-1.288 K0.000 F1800.000
G3 X-89.801 Y-181.873 Z-6.400 I0.237 J-1.561 K0.000 F1800.000
G1 X-88.477 Y-180.549 Z-6.400 F1800.000
G0 Z5.000
G0 X-88.477 Y-180.548 Z5.000
G0 X-88.477 Y-180.548 Z3.000
G1 X-88.477 Y-180.548 Z-6.400 F1400.000
G3 X-88.237 Y-183.695 Z-6.400 I0.239 J-1.564 K0.000 F1800.000
G3 X-88.237 Y-180.530 Z-6.400 I0.000 J1.583 K0.000 F1800.000
G3 X-88.477 Y-180.548 Z-6.400 I0.000 J-1.583 K0.000 F1800.000
G0 Z5.000
G0 Z5.000
G0 X-88.477 Y-180.548
G0 X-105.076 Y-165.187
G0 X-105.076 Y-165.187 Z3.000
G1 X-105.076 Y-165.187 Z-3.200 F1400.000
G3 X-106.237 Y-162.530 Z-3.200 I-1.162 J1.075 K0.000 F1800.000
G3 X-106.237 Y-165.695 Z-3.200 I0.000 J-1.583 K0.000 F1800.000
G3 X-105.076 Y-165.187 Z-3.200 I0.000 J1.583 K0.000 F1800.000
G0 Z5.000
G0 X-105.118 Y-165.232 Z5.000
G0 X-105.118 Y-165.232 Z3.000
G1 X-105.118 Y-165.232 Z-3.200 F1400.000
G3 X-104.769 Y-163.535 Z-3.200 I-1.105 J1.112 K0.000 F1800.000
G1 X-106.815 Y-165.581 Z-3.200 F1800.000
G2 X-107.558 Y-164.977 Z-3.200 I0.516 J1.394 K0.000 F1800.000
G1 X-105.373 Y-162.792 Z-3.200 F1800.000
G3 X-106.477 Y-162.549 Z-3.200 I-0.862 J-1.288 K0.000 F1800.000
G3 X-107.801 Y-163.873 Z-3.200 I0.237 J-1.561 K0.000 F1800.000
G1 X-106.477 Y-162.549 Z-3.200 F1800.000
G1 X-106.477 Y-162.549 Z-6.400 F1400.000
G1 X-107.801 Y-163.873 Z-6.400 F1800.000
G2 X-106.477 Y-162.549 Z-6.400 I1.561 J-0.237 K0.000 F1800.000
G2 X-105.373 Y-162.792 Z-6.400 I0.241 J-1.531 K0.000 F1800.000
G1 X-107.558 Y-164.977 Z-6.400 F1800.000
G3 X-106.815 Y-165.581 Z-6.400 I1.259 J0.790 K0.000 F1800.000
G1 X-104.769 Y-163.535 Z-6.400 F1800.000
G2 X-105.118 Y-165.232 Z-6.400 I-1.454 J-0.585 K0.000 F1800.000
G0 Z5.000
G0 X-105.118 Y-165.232 Z5.000
G0 X-105.118 Y-165.232 Z3.000
G1 X-105.118 Y-165.232 Z-6.400 F1400.000
G3 X-106.237 Y-162.530 Z-6.400 I-1.119 J1.119 K0.000 F1800.000
G3 X-106.237 Y-165.695 Z-6.400 I0.000 J-1.583 K0.000 F1800.000
G3 X-105.118 Y-165.232 Z-6.400 I0.000 J1.583 K0.000 F1800.000
G0 Z5.000
G0 Z5.000
G0 X-105.118 Y-165.232
G0 X-191.268 Y-97.565
G0 X-191.268 Y-97.565 Z3.000
G1 X-191.268 Y-97.565 Z-3.200 F1400.000
G3 X-192.512 Y-95.005 Z-3.200 I-1.245 J0.978 K0.000 F1800.000
G3 X-192.512 Y-98.170 Z-3.200 I0.000 J-1.583 K0.000 F1800.000
G3 X-191.268 Y-97.565 Z-3.200 I0.000 J1.583 K0.000 F1800.000
G0 Z5.000
G0 X-191.393 Y-97.707 Z5.000
G0 X-191.393 Y-97.707 Z3.000
G1 X-191.393 Y-97.707 Z-3.200 F1400.000
G3 X-191.044 Y-96.010 Z-3.200 I-1.105 J1.112 K0.000 F1800.000
G1 X-193.090 Y-98.056 Z-3.200 F1800.000
G2 X-193.833 Y-97.452 Z-3.200 I0.516 J1.394 K0.000 F1800.000
G1 X-191.648 Y-95.267 Z-3.200 F1800.000
G3 X-192.752 Y-95.024 Z-3.200 I-0.862 J-1.288 K0.000 F1800.000
G3 X-194.076 Y-96.348 Z-3.200 I0.237 J-1.561 K0.000 F1800.000
G1 X-192.752 Y-95.024 Z-3.200 F1800.000
G1 X-192.752 Y-95.024 Z-6.400 F1400.000
G1 X-194.076 Y-96.348 Z-6.400 F1800.000
G2 X-192.752 Y-95.024 Z-6.400 I1.561 J-0.237 K0.000 F1800.000
G2 X-191.648 Y-95.267 Z-6.400 I0.241 J-1.531 K0.000 F1800.000
G1 X-193.833 Y-97.452 Z-6.400 F1800.000
G3 X-193.090 Y-98.056 Z-6.400 I1.259 J0.790 K0.000 F1800.000
G1 X-191.044 Y-96.010 Z-6.400 F1800.000
G2 X-191.393 Y-97.707 Z-6.400 I-1.454 J-0.585 K0.000 F1800.000
G0 Z5.000
G0 X-191.393 Y-97.707 Z5.000
G0 X-191.393 Y-97.707 Z3.000
G1 X-191.393 Y-97.707 Z-6.400 F1400.000
G3 X-192.512 Y-95.005 Z-6.400 I-1.119 J1.119 K0.000 F1800.000
G3 X-192.512 Y-98.170 Z-6.400 I0.000 J-1.583 K0.000 F1800.000
G3 X-191.393 Y-97.707 Z-6.400 I0.000 J1.583 K0.000 F1800.000
G0 Z5.000
G0 Z5.000
G0 X-191.393 Y-97.707
G0 X-192.488 Y-28.170
G0 X-192.488 Y-28.170 Z3.000
G1 X-192.488 Y-28.170 Z-3.200 F1400.000
G3 X-192.512 Y-25.005 Z-3.200 I-0.025 J1.582 K0.000 F1800.000
G3 X-194.095 Y-26.588 Z-3.200 I-0.000 J-1.583 K0.000 F1800.000
G3 X-192.512 Y-28.170 Z-3.200 I1.583 J0.000 K0.000 F1800.000
G3 X-192.488 Y-28.170 Z-3.200 I-0.000 J1.583 K0.000 F1800.000
G0 Z5.000
G0 X-191.393 Y-27.707 Z5.000
G0 X-191.393 Y-27.707 Z3.000
G1 X-191.393 Y-27.707 Z-3.200 F1400.000
G3 X-191.044 Y-26.010 Z-3.200 I-1.105 J1.112 K0.000 F1800.000
G1 X-193.090 Y-28.056 Z-3.200 F1800.000
G2 X-193.833 Y-27.452 Z-3.200 I0.516 J1.394 K0.000 F1800.000
G1 X-191.648 Y-25.267 Z-3.200 F1800.000
G3 X-192.752 Y-25.024 Z-3.200 I-0.862 J-1.288 K0.000 F1800.000
G3 X-194.076 Y-26.348 Z-3.200 I0.237 J-1.561 K0.000 F1800.000
G1 X-192.752 Y-25.024 Z-3.200 F1800.000
G1 X-192.752 Y-25.024 Z-6.400 F1400.000
G1 X-194.076 Y-26.348 Z-6.400 F1800.000
G2 X-192.752 Y-25.024 Z-6.400 I1.561 J-0.237 K0.000 F1800.000
G2 X-191.648 Y-25.267 Z-6.400 I0.241 J-1.531 K0.000 F1800.000
G1 X-193.833 Y-27.452 Z-6.400 F1800.000
G3 X-193.090 Y-28.056 Z-6.400 I1.259 J0.790 K0.000 F1800.000
G1 X-191.044 Y-26.010 Z-6.400 F1800.000
G2 X-191.393 Y-27.707 Z-6.400 I-1.454 J-0.585 K0.000 F1800.000
G0 Z5.000
G0 X-191.393 Y-27.707 Z5.000
G0 X-191.393 Y-27.707 Z3.000
G1 X-191.393 Y-27.707 Z-6.400 F1400.000
G3 X-192.512 Y-25.005 Z-6.400 I-1.119 J1.119 K0.000 F1800.000
G3 X-194.095 Y-26.588 Z-6.400 I-0.000 J-1.583 K0.000 F1800.000
G3 X-192.512 Y-28.170 Z-6.400 I1.583 J0.000 K0.000 F1800.000
G3 X-191.393 Y-27.707 Z-6.400 I-0.000 J1.583 K0.000 F1800.000
G0 Z5.000
G0 Z5.000
G0 X-191.393 Y-27.707
G0 X-390.930 Y-26.596
G0 X-390.930 Y-26.596 Z3.000
G1 X-390.930 Y-26.596 Z-3.200 F1400.000
G3 X-392.512 Y-25.005 Z-3.200 I-1.583 J0.009 K0.000 F1800.000
G3 X-394.095 Y-26.588 Z-3.200 I-0.000 J-1.583 K0.000 F1800.000
G3 X-392.512 Y-28.170 Z-3.200 I1.583 J0.000 K0.000 F1800.000
G3 X-390.930 Y-26.596 Z-3.200 I-0.000 J1.583 K0.000 F1800.000
G0 Z5.000
G0 X-391.393 Y-27.707 Z5.000
G0 X-391.393 Y-27.707 Z3.000
G1 X-391.393 Y-27.707 Z-3.200 F1400.000
G3 X-391.044 Y-26.010 Z-3.200 I-1.105 J1.112 K0.000 F1800.000
G1 X-393.090 Y-28.056 Z-3.200 F1800.000
G2 X-393.833 Y-27.452 Z-3.200 I0.516 J1.394 K0.000 F1800.000
G1 X-391.648 Y-25.267 Z-3.200 F1800.000
G3 X-392.752 Y-25.024 Z-3.200 I-0.862 J-1.288 K0.000 F1800.000
G3 X-394.076 Y-26.348 Z-3.200 I0.237 J-1.561 K0.000 F1800.000
G1 X-392.752 Y-25.024 Z-3.200 F1800.000
G1 X-392.752 Y-25.024 Z-6.400 F1400.000
G1 X-394.076 Y-26.348 Z-6.400 F1800.000
G2 X-392.752 Y-25.024 Z-6.400 I1.561 J-0.237 K0.000 F1800.000
G2 X-391.648 Y-25.267 Z-6.400 I0.241 J-1.531 K0.000 F1800.000
G1 X-393.833 Y-27.452 Z-6.400 F1800.000
G3 X-393.090 Y-28.056 Z-6.400 I1.259 J0.790 K0.000 F1800.000
G1 X-391.044 Y-26.010 Z-6.400 F1800.000
G2 X-391.393 Y-27.707 Z-6.400 I-1.454 J-0.585 K0.000 F1800.000
G0 Z5.000
G0 X-391.393 Y-27.707 Z5.000
G0 X-391.393 Y-27.707 Z3.000
G1 X-391.393 Y-27.707 Z-6.400 F1400.000
G3 X-392.512 Y-25.005 Z-6.400 I-1.119 J1.119 K0.000 F1800.000
G3 X-394.095 Y-26.588 Z-6.400 I-0.000 J-1.583 K0.000 F1800.000
G3 X-392.512 Y-28.170 Z-6.400 I1.583 J0.000 K0.000 F1800.000
G3 X-391.393 Y-27.707 Z-6.400 I-0.000 J1.583 K0.000 F1800.000
G0 Z5.000
G0 Z5.000
G0 X-391.393 Y-27.707
G0 X-392.487 Y-95.005
G0 X-392.487 Y-95.005 Z3.000
G1 X-392.487 Y-95.005 Z-3.200 F1400.000
G3 X-392.512 Y-95.005 Z-3.200 I-0.026 J-1.582 K0.000 F1800.000
G3 X-392.512 Y-98.170 Z-3.200 I0.000 J-1.583 K0.000 F1800.000
G3 X-392.487 Y-95.005 Z-3.200 I0.000 J1.583 K0.000 F1800.000
G0 Z5.000
G0 X-392.752 Y-95.024 Z5.000
G0 X-392.752 Y-95.024 Z3.000
G1 X-392.752 Y-95.024 Z-3.200 F1400.000
G1 X-394.076 Y-96.348 Z-3.200 F1800.000
G2 X-392.752 Y-95.024 Z-3.200 I1.561 J-0.237 K0.000 F1800.000
G2 X-391.648 Y-95.267 Z-3.200 I0.241 J-1.531 K0.000 F1800.000
G1 X-393.833 Y-97.452 Z-3.200 F1800.000
G3 X-393.090 Y-98.056 Z-3.200 I1.259 J0.790 K0.000 F1800.000
G1 X-391.044 Y-96.010 Z-3.200 F1800.000
G2 X-391.393 Y-97.707 Z-3.200 I-1.454 J-0.585 K0.000 F1800.000
G1 X-391.393 Y-97.707 Z-6.400 F1400.000
G3 X-391.044 Y-96.010 Z-6.400 I-1.105 J1.112 K0.000 F1800.000
G1 X-393.090 Y-98.056 Z-6.400 F1800.000
G2 X-393.833 Y-97.452 Z-6.400 I0.516 J1.394 K0.000 F1800.000
G1 X-391.648 Y-95.267 Z-6.400 F1800.000
G3 X-392.752 Y-95.024 Z-6.400 I-0.862 J-1.288 K0.000 F1800.000
G3 X-394.076 Y-96.348 Z-6.400 I0.237 J-1.561 K0.000 F1800.000
G1 X-392.752 Y-95.024 Z-6.400 F1800.000
G0 Z5.000
G0 X-392.752 Y-95.023 Z5.000
G0 X-392.752 Y-95.023 Z3.000
G1 X-392.752 Y-95.023 Z-6.400 F1400.000
G3 X-392.512 Y-98.170 Z-6.400 I0.239 J-1.564 K0.000 F1800.000
G3 X-392.512 Y-95.005 Z-6.400 I0.000 J1.583 K0.000 F1800.000
G3 X-392.752 Y-95.023 Z-6.400 I0.000 J-1.583 K0.000 F1800.000
G0 Z5.000
G0 Z5.000
G0 X-392.752 Y-95.023
G0 X-477.554 Y-163.122
G0 X-477.554 Y-163.122 Z3.000
G1 X-477.554 Y-163.122 Z-3.200 F1400.000
G3 X-478.787 Y-162.530 Z-3.200 I-1.234 J-0.991 K0.000 F1800.000
G3 X-478.787 Y-165.695 Z-3.200 I0.000 J-1.583 K0.000 F1800.000
G3 X-477.554 Y-163.122 Z-3.200 I-0.000 J1.583 K0.000 F1800.000
G0 Z5.000
G0 X-479.027 Y-162.549 Z5.000
G0 X-479.027 Y-162.549 Z3.000
G1 X-479.027 Y-162.549 Z-3.200 F1400.000
G1 X-480.351 Y-163.873 Z-3.200 F1800.000
G2 X-479.027 Y-162.549 Z-3.200 I1.561 J-0.237 K0.000 F1800.000
G2 X-477.923 Y-162.792 Z-3.200 I0.241 J-1.531 K0.000 F1800.000
G1 X-480.108 Y-164.977 Z-3.200 F1800.000
G3 X-479.365 Y-165.581 Z-3.200 I1.259 J0.790 K0.000 F1800.000
G1 X-477.319 Y-163.535 Z-3.200 F1800.000
G2 X-477.668 Y-165.232 Z-3.200 I-1.454 J-0.585 K0.000 F1800.000
G1 X-477.668 Y-165.232 Z-6.400 F1400.000
G3 X-477.319 Y-163.535 Z-6.400 I-1.105 J1.112 K0.000 F1800.000
G1 X-479.365 Y-165.581 Z-6.400 F1800.000
G2 X-480.108 Y-164.977 Z-6.400 I0.516 J1.394 K0.000 F1800.000
G1 X-477.923 Y-162.792 Z-6.400 F1800.000
G3 X-479.027 Y-162.549 Z-6.400 I-0.862 J-1.288 K0.000 F1800.000
G3 X-480.351 Y-163.873 Z-6.400 I0.237 J-1.561 K0.000 F1800.000
G1 X-479.027 Y-162.549 Z-6.400 F1800.000
G0 Z5.000
G0 X-479.027 Y-162.548 Z5.000
G0 X-479.027 Y-162.548 Z3.000
G1 X-479.027 Y-162.548 Z-6.400 F1400.000
G3 X-478.787 Y-165.695 Z-6.400 I0.239 J-1.564 K0.000 F1800.000
G3 X-478.787 Y-162.530 Z-6.400 I-0.000 J1.583 K0.000 F1800.000
G3 X-479.027 Y-162.548 Z-6.400 I0.000 J-1.583 K0.000 F1800.000
G0 Z5.000
G0 Z5.000
G0 X-479.027 Y-162.548
G0 X-489.405 Y-163.462
G0 X-489.405 Y-163.462 Z3.000
G1 X-489.405 Y-163.462 Z-3.200 F1400.000
G3 X-496.787 Y-156.702 Z-3.200 I-7.382 J-0.650 K0.000 F1800.000
G3 X-496.787 Y-171.523 Z-3.200 I0.000 J-7.411 K0.000 F1800.000
G3 X-489.405 Y-163.462 Z-3.200 I-0.000 J7.411 K0.000 F1800.000
G0 Z5.000
G0 X-491.795 Y-169.589 Z5.000
G0 X-491.795 Y-169.589 Z3.000
G1 X-491.795 Y-169.589 Z-3.200 F1400.000
G3 X-489.649 Y-166.096 Z-3.200 I-4.963 J5.454 K0.000 F1800.000
G1 X-494.804 Y-171.251 Z-3.200 F1800.000
G2 X-496.405 Y-171.506 Z-3.200 I-1.725 J5.682 K0.000 F1800.000
G1 X-489.394 Y-164.495 Z-3.200 F1800.000
G3 X-489.441 Y-163.194 Z-3.200 I-5.176 J0.465 K0.000 F1800.000
G1 X-497.706 Y-171.459 Z-3.200 F1800.000
G2 X-498.830 Y-171.236 Z-3.200 I0.299 J4.445 K0.000 F1800.000
G1 X-489.664 Y-162.070 Z-3.200 F1800.000
G3 X-490.030 Y-161.089 Z-3.200 I-5.478 J-1.483 K0.000 F1800.000
G1 X-499.811 Y-170.870 Z-3.200 F1800.000
G2 X-500.696 Y-170.408 Z-3.200 I1.457 J3.873 K0.000 F1800.000
G1 X-490.492 Y-160.204 Z-3.200 F1800.000
G3 X-491.059 Y-159.424 Z-3.200 I-4.493 J-2.669 K0.000 F1800.000
G1 X-501.476 Y-169.841 Z-3.200 F1800.000
G2 X-502.176 Y-169.194 Z-3.200 I3.146 J4.097 K0.000 F1800.000
G1 X-491.706 Y-158.724 Z-3.200 F1800.000
G3 X-492.444 Y-158.115 Z-3.200 I-3.215 J-3.139 K0.000 F1800.000
G1 X-502.785 Y-168.456 Z-3.200 F1800.000
G2 X-503.304 Y-167.627 Z-3.200 I4.213 J3.211 K0.000 F1800.000
G1 X-493.273 Y-157.596 Z-3.200 F1800.000
G3 X-494.196 Y-157.173 Z-3.200 I-2.269 J-3.734 K0.000 F1800.000
G1 X-503.727 Y-166.704 Z-3.200 F1800.000
G2 X-504.029 Y-165.659 Z-3.200 I5.488 J2.152 K0.000 F1800.000
G1 X-495.241 Y-156.871 Z-3.200 F1800.000
G3 X-496.435 Y-156.718 Z-3.200 I-1.276 J-5.211 K0.000 F1800.000
G1 X-504.182 Y-164.465 Z-3.200 F1800.000
G2 X-504.114 Y-163.050 Z-3.200 I5.720 J0.434 K0.000 F1800.000
G1 X-497.850 Y-156.786 Z-3.200 F1800.000
G3 X-499.731 Y-157.320 Z-3.200 I0.846 J-6.564 K0.000 F1800.000
G1 X-503.580 Y-161.169 Z-3.200 F1800.000
G2 X-499.731 Y-157.320 Z-3.200 I6.715 J-2.865 K0.000 F1800.000
G1 X-499.731 Y-157.320 Z-6.400 F1400.000
G3 X-503.580 Y-161.169 Z-6.400 I2.865 J-6.715 K0.000 F1800.000
G1 X-499.731 Y-157.320 Z-6.400 F1800.000
G2 X-497.850 Y-156.786 Z-6.400 I2.727 J-6.030 K0.000 F1800.000
G1 X-504.114 Y-163.050 Z-6.400 F1800.000
G3 X-504.182 Y-164.465 Z-6.400 I5.652 J-0.982 K0.000 F1800.000
G1 X-496.435 Y-156.718 Z-6.400 F1800.000
G2 X-495.241 Y-156.871 Z-6.400 I-0.082 J-5.364 K0.000 F1800.000
G1 X-504.029 Y-165.659 Z-6.400 F1800.000
G3 X-503.727 Y-166.704 Z-6.400 I5.790 J1.107 K0.000 F1800.000
G1 X-494.196 Y-157.173 Z-6.400 F1800.000
G2 X-493.273 Y-157.596 Z-6.400 I-1.346 J-4.157 K0.000 F1800.000
G1 X-503.304 Y-167.627 Z-6.400 F1800.000
G3 X-502.785 Y-168.456 Z-6.400 I4.731 J2.382 K0.000 F1800.000
G1 X-492.444 Y-158.115 Z-6.400 F1800.000
G2 X-491.706 Y-158.724 Z-6.400 I-2.478 J-3.748 K0.000 F1800.000
G1 X-502.176 Y-169.194 Z-6.400 F1800.000
G3 X-501.476 Y-169.841 Z-6.400 I3.845 J3.449 K0.000 F1800.000
G1 X-491.059 Y-159.424 Z-6.400 F1800.000
G2 X-490.492 Y-160.204 Z-6.400 I-3.926 J-3.449 K0.000 F1800.000
G1 X-500.696 Y-170.408 Z-6.400 F1800.000
G3 X-499.811 Y-170.870 Z-6.400 I2.342 J3.412 K0.000 F1800.000
G1 X-490.030 Y-161.089 Z-6.400 F1800.000
G2 X-489.664 Y-162.070 Z-6.400 I-5.112 J-2.464 K0.000 F1800.000
G1 X-498.830 Y-171.236 Z-6.400 F1800.000
G3 X-497.706 Y-171.459 Z-6.400 I1.423 J4.222 K0.000 F1800.000
G1 X-489.441 Y-163.194 Z-6.400 F1800.000
G2 X-489.394 Y-164.495 Z-6.400 I-5.130 J-0.835 K0.000 F1800.000
G1 X-496.405 Y-171.506 Z-6.400 F1800.000
G3 X-494.804 Y-171.251 Z-6.400 I-0.123 J5.936 K0.000 F1800.000
G1 X-489.649 Y-166.096 Z-6.400 F1800.000
G2 X-491.795 Y-169.589 Z-6.400 I-7.109 J1.962 K0.000 F1800.000
G0 Z5.000
G0 X-491.795 Y-169.589 Z5.000
G0 X-491.795 Y-169.589 Z3.000
G1 X-491.795 Y-169.589 Z-6.400 F1400.000
G3 X-496.787 Y-156.702 Z-6.400 I-4.993 J5.477 K0.000 F1800.000
G3 X-496.787 Y-171.523 Z-6.400 I0.000 J-7.411 K0.000 F1800.000
G3 X-491.795 Y-169.589 Z-6.400 I-0.000 J7.411 K0.000 F1800.000
G0 Z5.000
G0 Z5.000
G0 X-491.795 Y-169.589
G0 X-496.458 Y-147.660
G0 X-496.458 Y-147.660 Z3.000
G1 X-496.458 Y-147.660 Z-3.200 F1400.000
G3 X-496.787 Y-144.530 Z-3.200 I-0.329 J1.548 K0.000 F1800.000
G3 X-496.787 Y-147.695 Z-3.200 I0.000 J-1.583 K0.000 F1800.000
G3 X-496.458 Y-147.660 Z-3.200 I-0.000 J1.583 K0.000 F1800.000
G0 Z5.000
G0 X-495.668 Y-147.232 Z5.000
G0 X-495.668 Y-147.232 Z3.000
G1 X-495.668 Y-147.232 Z-3.200 F1400.000
G3 X-495.319 Y-145.535 Z-3.200 I-1.105 J1.112 K0.000 F1800.000
G1 X-497.365 Y-147.581 Z-3.200 F1800.000
G2 X-498.108 Y-146.977 Z-3.200 I0.516 J1.394 K0.000 F1800.000
G1 X-495.923 Y-144.792 Z-3.200 F1800.000
G3 X-497.027 Y-144.549 Z-3.200 I-0.862 J-1.288 K0.000 F1800.000
G3 X-498.351 Y-145.873 Z-3.200 I0.237 J-1.561 K0.000 F1800.000
G1 X-497.027 Y-144.549 Z-3.200 F1800.000
G1 X-497.027 Y-144.549 Z-6.400 F1400.000
G1 X-498.351 Y-145.873 Z-6.400 F1800.000
G2 X-497.027 Y-144.549 Z-6.400 I1.561 J-0.237 K0.000 F1800.000
G2 X-495.923 Y-144.792 Z-6.400 I0.241 J-1.531 K0.000 F1800.000
G1 X-498.108 Y-146.977 Z-6.400 F1800.000
G3 X-497.365 Y-147.581 Z-6.400 I1.259 J0.790 K0.000 F1800.000
G1 X-495.319 Y-145.535 Z-6.400 F1800.000
G2 X-495.668 Y-147.232 Z-6.400 I-1.454 J-0.585 K0.000 F1800.000
G0 Z5.000
G0 Z5.000
G0 Z3.000
G1 X-495.668 Y-147.232 Z-6.400 F1400.000
G3 X-496.787 Y-144.530 Z-6.400 I-1.119 J1.119 K0.000 F1800.000
G3 X-496.787 Y-147.695 Z-6.400 I0.000 J-1.583 K0.000 F1800.000
G3 X-495.668 Y-147.232 Z-6.400 I-0.000 J1.583 K0.000 F1800.000
G0 Z5.000
G0 Z5.000
G0 X-495.668 Y-147.232
G0 X-513.601 Y-163.065
G0 X-513.601 Y-163.065 Z3.000
G1 X-513.601 Y-163.065 Z-3.200 F1400.000
G3 X-514.788 Y-162.530 Z-3.200 I-1.186 J-1.047 K0.000 F1800.000
G3 X-514.788 Y-165.695 Z-3.200 I0.000 J-1.583 K0.000 F1800.000
G3 X-513.601 Y-163.065 Z-3.200 I0.000 J1.583 K0.000 F1800.000
G0 Z5.000
G0 X-515.027 Y-162.549 Z5.000
G0 X-515.027 Y-162.549 Z3.000
G1 X-515.027 Y-162.549 Z-3.200 F1400.000
G1 X-516.351 Y-163.873 Z-3.200 F1800.000
G2 X-515.027 Y-162.549 Z-3.200 I1.561 J-0.237 K0.000 F1800.000
G2 X-513.923 Y-162.792 Z-3.200 I0.241 J-1.531 K0.000 F1800.000
G1 X-516.108 Y-164.977 Z-3.200 F1800.000
G3 X-515.365 Y-165.581 Z-3.200 I1.259 J0.790 K0.000 F1800.000
G1 X-513.319 Y-163.535 Z-3.200 F1800.000
G2 X-513.668 Y-165.232 Z-3.200 I-1.454 J-0.585 K0.000 F1800.000
G1 X-513.668 Y-165.232 Z-6.400 F1400.000
G3 X-513.319 Y-163.535 Z-6.400 I-1.105 J1.112 K0.000 F1800.000
G1 X-515.365 Y-165.581 Z-6.400 F1800.000
G2 X-516.108 Y-164.977 Z-6.400 I0.516 J1.394 K0.000 F1800.000
G1 X-513.923 Y-162.792 Z-6.400 F1800.000
G3 X-515.027 Y-162.549 Z-6.400 I-0.862 J-1.288 K0.000 F1800.000
G3 X-516.351 Y-163.873 Z-6.400 I0.237 J-1.561 K0.000 F1800.000
G1 X-515.027 Y-162.549 Z-6.400 F1800.000
G0 Z5.000
G0 X-515.027 Y-162.548 Z5.000
G0 X-515.027 Y-162.548 Z3.000
G1 X-515.027 Y-162.548 Z-6.400 F1400.000
G3 X-514.788 Y-165.695 Z-6.400 I0.239 J-1.564 K0.000 F1800.000
G3 X-514.788 Y-162.530 Z-6.400 I0.000 J1.583 K0.000 F1800.000
G3 X-515.027 Y-162.548 Z-6.400 I0.000 J-1.583 K0.000 F1800.000
G0 Z5.000
G0 Z5.000
G0 X-515.027 Y-162.548
G0 X-497.867 Y-180.955
G0 X-497.867 Y-180.955 Z3.000
G1 X-497.867 Y-180.955 Z-3.200 F1400.000
G3 X-496.787 Y-183.695 Z-3.200 I1.079 J-1.158 K0.000 F1800.000
G3 X-496.787 Y-180.530 Z-3.200 I-0.000 J1.583 K0.000 F1800.000
G3 X-497.867 Y-180.955 Z-3.200 I0.000 J-1.583 K0.000 F1800.000
G0 Z5.000
G0 X-497.027 Y-180.549 Z5.000
G0 X-497.027 Y-180.549 Z3.000
G1 X-497.027 Y-180.549 Z-3.200 F1400.000
G1 X-498.351 Y-181.873 Z-3.200 F1800.000
G2 X-497.027 Y-180.549 Z-3.200 I1.561 J-0.237 K0.000 F1800.000
G2 X-495.923 Y-180.792 Z-3.200 I0.241 J-1.531 K0.000 F1800.000
G1 X-498.108 Y-182.977 Z-3.200 F1800.000
G3 X-497.365 Y-183.581 Z-3.200 I1.259 J0.790 K0.000 F1800.000
G1 X-495.319 Y-181.535 Z-3.200 F1800.000
G2 X-495.668 Y-183.232 Z-3.200 I-1.454 J-0.585 K0.000 F1800.000
G1 X-495.668 Y-183.232 Z-6.400 F1400.000
G3 X-495.319 Y-181.535 Z-6.400 I-1.105 J1.112 K0.000 F1800.000
G1 X-497.365 Y-183.581 Z-6.400 F1800.000
G2 X-498.108 Y-182.977 Z-6.400 I0.516 J1.394 K0.000 F1800.000
G1 X-495.923 Y-180.792 Z-6.400 F1800.000
G3 X-497.027 Y-180.549 Z-6.400 I-0.862 J-1.288 K0.000 F1800.000
G3 X-498.351 Y-181.873 Z-6.400 I0.237 J-1.561 K0.000 F1800.000
G1 X-497.027 Y-180.549 Z-6.400 F1800.000
G0 Z5.000
G0 X-497.027 Y-180.548 Z5.000
G0 X-497.027 Y-180.548 Z3.000
G1 X-497.027 Y-180.548 Z-6.400 F1400.000
G3 X-496.787 Y-183.695 Z-6.400 I0.239 J-1.564 K0.000 F1800.000
G3 X-496.787 Y-180.530 Z-6.400 I-0.000 J1.583 K0.000 F1800.000
G3 X-497.027 Y-180.548 Z-6.400 I0.000 J-1.583 K0.000 F1800.000
G0 Z5.000
G0 Z5.000
G0 X-497.027 Y-180.548
G0 X-488.559 Y-290.935
G0 X-488.559 Y-290.935 Z3.000
G1 X-488.559 Y-290.935 Z-3.200 F1400.000
G3 X-488.438 Y-294.095 Z-3.200 I0.121 J-1.578 K0.000 F1800.000
G3 X-488.438 Y-290.930 Z-3.200 I0.000 J1.583 K0.000 F1800.000
G3 X-488.559 Y-290.935 Z-3.200 I0.000 J-1.583 K0.000 F1800.000
G0 Z5.000
G0 X-488.677 Y-290.949 Z5.000
G0 X-488.677 Y-290.949 Z3.000
G1 X-488.677 Y-290.949 Z-3.200 F1400.000
G1 X-490.001 Y-292.273 Z-3.200 F1800.000
G2 X-488.677 Y-290.949 Z-3.200 I1.561 J-0.237 K0.000 F1800.000
G2 X-487.573 Y-291.192 Z-3.200 I0.241 J-1.531 K0.000 F1800.000
G1 X-489.758 Y-293.377 Z-3.200 F1800.000
G3 X-489.015 Y-293.981 Z-3.200 I1.259 J0.790 K0.000 F1800.000
G1 X-486.969 Y-291.935 Z-3.200 F1800.000
G2 X-487.318 Y-293.632 Z-3.200 I-1.454 J-0.585 K0.000 F1800.000
G1 X-487.318 Y-293.632 Z-6.400 F1400.000
G3 X-486.969 Y-291.935 Z-6.400 I-1.105 J1.112 K0.000 F1800.000
G1 X-489.015 Y-293.981 Z-6.400 F1800.000
G2 X-489.758 Y-293.377 Z-6.400 I0.516 J1.394 K0.000 F1800.000
G1 X-487.573 Y-291.192 Z-6.400 F1800.000
G3 X-488.677 Y-290.949 Z-6.400 I-0.862 J-1.288 K0.000 F1800.000
G3 X-490.001 Y-292.273 Z-6.400 I0.237 J-1.561 K0.000 F1800.000
G1 X-488.677 Y-290.949 Z-6.400 F1800.000
G0 Z5.000
G0 X-488.677 Y-290.948 Z5.000
G0 X-488.677 Y-290.948 Z3.000
G1 X-488.677 Y-290.948 Z-6.400 F1400.000
G3 X-488.438 Y-294.095 Z-6.400 I0.239 J-1.564 K0.000 F1800.000
G3 X-488.438 Y-290.930 Z-6.400 I0.000 J1.583 K0.000 F1800.000
G3 X-488.677 Y-290.948 Z-6.400 I0.000 J-1.583 K0.000 F1800.000
G0 Z5.000
G0 Z5.000
G0 X-488.677 Y-290.948
G0 X-556.855 Y-292.477
G0 X-556.855 Y-292.477 Z3.000
G1 X-556.855 Y-292.477 Z-3.200 F1400.000
G3 X-558.438 Y-290.930 Z-3.200 I-1.582 J-0.035 K0.000 F1800.000
G3 X-558.438 Y-294.095 Z-3.200 I0.000 J-1.583 K0.000 F1800.000
G3 X-556.855 Y-292.477 Z-3.200 I0.000 J1.583 K0.000 F1800.000
G0 Z5.000
G0 X-557.318 Y-293.632 Z5.000
G0 X-557.318 Y-293.632 Z3.000
G1 X-557.318 Y-293.632 Z-3.200 F1400.000
G3 X-556.969 Y-291.935 Z-3.200 I-1.105 J1.112 K0.000 F1800.000
G1 X-559.015 Y-293.981 Z-3.200 F1800.000
G2 X-559.758 Y-293.377 Z-3.200 I0.516 J1.394 K0.000 F1800.000
G1 X-557.573 Y-291.192 Z-3.200 F1800.000
G3 X-558.677 Y-290.949 Z-3.200 I-0.862 J-1.288 K0.000 F1800.000
G3 X-560.001 Y-292.273 Z-3.200 I0.237 J-1.561 K0.000 F1800.000
G1 X-558.677 Y-290.949 Z-3.200 F1800.000
G1 X-558.677 Y-290.949 Z-6.400 F1400.000
G1 X-560.001 Y-292.273 Z-6.400 F1800.000
G2 X-558.677 Y-290.949 Z-6.400 I1.561 J-0.237 K0.000 F1800.000
G2 X-557.573 Y-291.192 Z-6.400 I0.241 J-1.531 K0.000 F1800.000
G1 X-559.758 Y-293.377 Z-6.400 F1800.000
G3 X-559.015 Y-293.981 Z-6.400 I1.259 J0.790 K0.000 F1800.000
G1 X-556.969 Y-291.935 Z-6.400 F1800.000
G2 X-557.318 Y-293.632 Z-6.400 I-1.454 J-0.585 K0.000 F1800.000
G0 Z5.000
G0 X-557.318 Y-293.632 Z5.000
G0 X-557.318 Y-293.632 Z3.000
G1 X-557.318 Y-293.632 Z-6.400 F1400.000
G3 X-558.438 Y-290.930 Z-6.400 I-1.119 J1.119 K0.000 F1800.000
G3 X-558.438 Y-294.095 Z-6.400 I0.000 J-1.583 K0.000 F1800.000
G3 X-557.318 Y-293.632 Z-6.400 I0.000 J1.583 K0.000 F1800.000
G0 Z5.000
G0 Z5.000
G0 X-557.318 Y-293.632
G0 X-497.554 Y-401.528
G0 X-497.554 Y-401.528 Z3.000
G1 X-497.554 Y-401.528 Z-3.200 F1400.000
G3 X-496.788 Y-404.495 Z-3.200 I0.767 J-1.384 K0.000 F1800.000
G3 X-496.788 Y-401.330 Z-3.200 I0.000 J1.583 K0.000 F1800.000
G3 X-497.554 Y-401.528 Z-3.200 I0.000 J-1.583 K0.000 F1800.000
G0 Z5.000
G0 X-497.027 Y-401.349 Z5.000
G0 X-497.027 Y-401.349 Z3.000
G1 X-497.027 Y-401.349 Z-3.200 F1400.000
G1 X-498.351 Y-402.673 Z-3.200 F1800.000
G2 X-497.027 Y-401.349 Z-3.200 I1.561 J-0.237 K0.000 F1800.000
G2 X-495.923 Y-401.592 Z-3.200 I0.241 J-1.531 K0.000 F1800.000
G1 X-498.108 Y-403.777 Z-3.200 F1800.000
G3 X-497.365 Y-404.381 Z-3.200 I1.259 J0.790 K0.000 F1800.000
G1 X-495.319 Y-402.335 Z-3.200 F1800.000
G2 X-495.668 Y-404.032 Z-3.200 I-1.454 J-0.585 K0.000 F1800.000
G1 X-495.668 Y-404.032 Z-6.400 F1400.000
G3 X-495.319 Y-402.335 Z-6.400 I-1.105 J1.112 K0.000 F1800.000
G1 X-497.365 Y-404.381 Z-6.400 F1800.000
G2 X-498.108 Y-403.777 Z-6.400 I0.516 J1.394 K0.000 F1800.000
G1 X-495.923 Y-401.592 Z-6.400 F1800.000
G3 X-497.027 Y-401.349 Z-6.400 I-0.862 J-1.288 K0.000 F1800.000
G3 X-498.351 Y-402.673 Z-6.400 I0.237 J-1.561 K0.000 F1800.000
G1 X-497.027 Y-401.349 Z-6.400 F1800.000
G0 Z5.000
G0 X-497.027 Y-401.348 Z5.000
G0 X-497.027 Y-401.348 Z3.000
G1 X-497.027 Y-401.348 Z-6.400 F1400.000
G3 X-496.788 Y-404.495 Z-6.400 I0.239 J-1.564 K0.000 F1800.000
G3 X-496.788 Y-401.330 Z-6.400 I0.000 J1.583 K0.000 F1800.000
G3 X-497.027 Y-401.348 Z-6.400 I0.000 J-1.583 K0.000 F1800.000
G0 Z5.000
G0 Z5.000
G0 X-497.027 Y-401.348
G0 X-496.878 Y-413.502
G0 X-496.878 Y-413.502 Z3.000
G1 X-496.878 Y-413.502 Z-3.200 F1400.000
G3 X-496.788 Y-428.323 Z-3.200 I0.091 J-7.410 K0.000 F1800.000
G3 X-489.377 Y-420.912 Z-3.200 I0.000 J7.411 K0.000 F1800.000
G3 X-496.788 Y-413.502 Z-3.200 I-7.411 J0.000 K0.000 F1800.000
G3 X-496.878 Y-413.502 Z-3.200 I-0.000 J-7.411 K0.000 F1800.000
G0 Z5.000
G0 X-499.731 Y-414.120 Z5.000
G0 X-499.731 Y-414.120 Z3.000
G1 X-499.731 Y-414.120 Z-3.200 F1400.000
G3 X-503.580 Y-417.969 Z-3.200 I2.865 J-6.715 K0.000 F1800.000
G1 X-499.731 Y-414.120 Z-3.200 F1800.000
G2 X-497.850 Y-413.586 Z-3.200 I2.727 J-6.030 K0.000 F1800.000
G1 X-504.114 Y-419.850 Z-3.200 F1800.000
G3 X-504.182 Y-421.265 Z-3.200 I5.652 J-0.982 K0.000 F1800.000
G1 X-496.435 Y-413.518 Z-3.200 F1800.000
G2 X-495.241 Y-413.671 Z-3.200 I-0.082 J-5.364 K0.000 F1800.000
G1 X-504.029 Y-422.459 Z-3.200 F1800.000
G3 X-503.727 Y-423.504 Z-3.200 I5.790 J1.107 K0.000 F1800.000
G1 X-494.196 Y-413.973 Z-3.200 F1800.000
G2 X-493.273 Y-414.396 Z-3.200 I-1.346 J-4.157 K0.000 F1800.000
G1 X-503.304 Y-424.427 Z-3.200 F1800.000
G3 X-502.785 Y-425.256 Z-3.200 I4.731 J2.382 K0.000 F1800.000
G1 X-492.444 Y-414.915 Z-3.200 F1800.000
G2 X-491.706 Y-415.524 Z-3.200 I-2.478 J-3.748 K0.000 F1800.000
G1 X-502.176 Y-425.994 Z-3.200 F1800.000
G3 X-501.476 Y-426.641 Z-3.200 I3.845 J3.449 K0.000 F1800.000
G1 X-491.059 Y-416.224 Z-3.200 F1800.000
G2 X-490.492 Y-417.004 Z-3.200 I-3.926 J-3.449 K0.000 F1800.000
G1 X-500.696 Y-427.208 Z-3.200 F1800.000
G3 X-499.811 Y-427.670 Z-3.200 I2.342 J3.412 K0.000 F1800.000
G1 X-490.030 Y-417.889 Z-3.200 F1800.000
G2 X-489.664 Y-418.870 Z-3.200 I-5.112 J-2.464 K0.000 F1800.000
G1 X-498.830 Y-428.036 Z-3.200 F1800.000
G3 X-497.706 Y-428.259 Z-3.200 I1.423 J4.222 K0.000 F1800.000
G1 X-489.441 Y-419.994 Z-3.200 F1800.000
G2 X-489.394 Y-421.295 Z-3.200 I-5.130 J-0.835 K0.000 F1800.000
G1 X-496.405 Y-428.306 Z-3.200 F1800.000
G3 X-494.804 Y-428.051 Z-3.200 I-0.123 J5.936 K0.000 F1800.000
G1 X-489.649 Y-422.896 Z-3.200 F1800.000
G2 X-491.795 Y-426.389 Z-3.200 I-7.109 J1.962 K0.000 F1800.000
G1 X-491.795 Y-426.389 Z-6.400 F1400.000
G3 X-489.649 Y-422.896 Z-6.400 I-4.963 J5.454 K0.000 F1800.000
G1 X-494.804 Y-428.051 Z-6.400 F1800.000
G2 X-496.405 Y-428.306 Z-6.400 I-1.725 J5.682 K0.000 F1800.000
G1 X-489.394 Y-421.295 Z-6.400 F1800.000
G3 X-489.441 Y-419.994 Z-6.400 I-5.176 J0.465 K0.000 F1800.000
G1 X-497.706 Y-428.259 Z-6.400 F1800.000
G2 X-498.830 Y-428.036 Z-6.400 I0.299 J4.445 K0.000 F1800.000
G1 X-489.664 Y-418.870 Z-6.400 F1800.000
G3 X-490.030 Y-417.889 Z-6.400 I-5.478 J-1.483 K0.000 F1800.000
G1 X-499.811 Y-427.670 Z-6.400 F1800.000
G2 X-500.696 Y-427.208 Z-6.400 I1.457 J3.873 K0.000 F1800.000
G1 X-490.492 Y-417.004 Z-6.400 F1800.000
G3 X-491.059 Y-416.224 Z-6.400 I-4.493 J-2.669 K0.000 F1800.000
G1 X-501.476 Y-426.641 Z-6.400 F1800.000
G2 X-502.176 Y-425.994 Z-6.400 I3.146 J4.097 K0.000 F1800.000
G1 X-491.706 Y-415.524 Z-6.400 F1800.000
G3 X-492.444 Y-414.915 Z-6.400 I-3.215 J-3.139 K0.000 F1800.000
G1 X-502.785 Y-425.256 Z-6.400 F1800.000
G2 X-503.304 Y-424.427 Z-6.400 I4.213 J3.211 K0.000 F1800.000
G1 X-493.273 Y-414.396 Z-6.400 F1800.000
G3 X-494.196 Y-413.973 Z-6.400 I-2.269 J-3.734 K0.000 F1800.000
G1 X-503.727 Y-423.504 Z-6.400 F1800.000
G2 X-504.029 Y-422.459 Z-6.400 I5.488 J2.152 K0.000 F1800.000
G1 X-495.241 Y-413.671 Z-6.400 F1800.000
G3 X-496.435 Y-413.518 Z-6.400 I-1.276 J-5.211 K0.000 F1800.000
G1 X-504.182 Y-421.265 Z-6.400 F1800.000
G2 X-504.114 Y-419.850 Z-6.400 I5.720 J0.434 K0.000 F1800.000
G1 X-497.850 Y-413.586 Z-6.400 F1800.000
G3 X-499.731 Y-414.120 Z-6.400 I0.846 J-6.564 K0.000 F1800.000
G1 X-503.580 Y-417.969 Z-6.400 F1800.000
G2 X-499.731 Y-414.120 Z-6.400 I6.715 J-2.865 K0.000 F1800.000
G0 Z5.000
G0 X-499.734 Y-414.113 Z5.000
G0 X-499.734 Y-414.113 Z3.000
G1 X-499.734 Y-414.113 Z-6.400 F1400.000
G3 X-496.788 Y-428.323 Z-6.400 I2.947 J-6.800 K0.000 F1800.000
G3 X-489.377 Y-420.912 Z-6.400 I0.000 J7.411 K0.000 F1800.000
G3 X-496.788 Y-413.502 Z-6.400 I-7.411 J0.000 K0.000 F1800.000
G3 X-499.734 Y-414.113 Z-6.400 I-0.000 J-7.411 K0.000 F1800.000
G0 Z5.000
G0 Z5.000
G0 X-499.734 Y-414.113
G0 X-480.293 Y-420.424
G0 X-480.293 Y-420.424 Z3.000
G1 X-480.293 Y-420.424 Z-3.200 F1400.000
G3 X-478.788 Y-422.495 Z-3.200 I1.505 J-0.489 K0.000 F1800.000
G3 X-477.205 Y-420.912 Z-3.200 I0.000 J1.583 K0.000 F1800.000
G3 X-478.788 Y-419.330 Z-3.200 I-1.583 J0.000 K0.000 F1800.000
G3 X-480.293 Y-420.424 Z-3.200 I-0.000 J-1.583 K0.000 F1800.000
G0 Z5.000
G0 X-479.027 Y-419.349 Z5.000
G0 X-479.027 Y-419.349 Z3.000
G1 X-479.027 Y-419.349 Z-3.200 F1400.000
G1 X-480.351 Y-420.673 Z-3.200 F1800.000
G2 X-479.027 Y-419.349 Z-3.200 I1.561 J-0.237 K0.000 F1800.000
G2 X-477.923 Y-419.592 Z-3.200 I0.241 J-1.531 K0.000 F1800.000
G1 X-480.108 Y-421.777 Z-3.200 F1800.000
G3 X-479.365 Y-422.381 Z-3.200 I1.259 J0.790 K0.000 F1800.000
G1 X-477.319 Y-420.335 Z-3.200 F1800.000
G2 X-477.668 Y-422.032 Z-3.200 I-1.454 J-0.585 K0.000 F1800.000
G1 X-477.668 Y-422.032 Z-6.400 F1400.000
G3 X-477.319 Y-420.335 Z-6.400 I-1.105 J1.112 K0.000 F1800.000
G1 X-479.365 Y-422.381 Z-6.400 F1800.000
G2 X-480.108 Y-421.777 Z-6.400 I0.516 J1.394 K0.000 F1800.000
G1 X-477.923 Y-419.592 Z-6.400 F1800.000
G3 X-479.027 Y-419.349 Z-6.400 I-0.862 J-1.288 K0.000 F1800.000
G3 X-480.351 Y-420.673 Z-6.400 I0.237 J-1.561 K0.000 F1800.000
G1 X-479.027 Y-419.349 Z-6.400 F1800.000
G0 Z5.000
G0 X-479.027 Y-419.348 Z5.000
G0 X-479.027 Y-419.348 Z3.000
G1 X-479.027 Y-419.348 Z-6.400 F1400.000
G3 X-478.788 Y-422.495 Z-6.400 I0.239 J-1.564 K0.000 F1800.000
G3 X-477.205 Y-420.912 Z-6.400 I0.000 J1.583 K0.000 F1800.000
G3 X-478.788 Y-419.330 Z-6.400 I-1.583 J0.000 K0.000 F1800.000
G3 X-479.027 Y-419.348 Z-6.400 I-0.000 J-1.583 K0.000 F1800.000
G0 Z5.000
G0 Z5.000
G0 X-479.027 Y-419.348
G0 X-495.724 Y-437.741
G0 X-495.724 Y-437.741 Z3.000
G1 X-495.724 Y-437.741 Z-3.200 F1400.000
G3 X-496.788 Y-437.330 Z-3.200 I-1.064 J-1.172 K0.000 F1800.000
G3 X-498.370 Y-438.913 Z-3.200 I-0.000 J-1.583 K0.000 F1800.000
G3 X-496.788 Y-440.495 Z-3.200 I1.583 J0.000 K0.000 F1800.000
G3 X-495.724 Y-437.741 Z-3.200 I0.000 J1.583 K0.000 F1800.000
G0 Z5.000
G0 X-497.027 Y-437.349 Z5.000
G0 X-497.027 Y-437.349 Z3.000
G1 X-497.027 Y-437.349 Z-3.200 F1400.000
G1 X-498.351 Y-438.673 Z-3.200 F1800.000
G2 X-497.027 Y-437.349 Z-3.200 I1.561 J-0.237 K0.000 F1800.000
G2 X-495.923 Y-437.592 Z-3.200 I0.241 J-1.531 K0.000 F1800.000
G1 X-498.108 Y-439.777 Z-3.200 F1800.000
G3 X-497.365 Y-440.381 Z-3.200 I1.259 J0.790 K0.000 F1800.000
G1 X-495.319 Y-438.335 Z-3.200 F1800.000
G2 X-495.668 Y-440.032 Z-3.200 I-1.454 J-0.585 K0.000 F1800.000
G1 X-495.668 Y-440.032 Z-6.400 F1400.000
G3 X-495.319 Y-438.335 Z-6.400 I-1.105 J1.112 K0.000 F1800.000
G1 X-497.365 Y-440.381 Z-6.400 F1800.000
G2 X-498.108 Y-439.777 Z-6.400 I0.516 J1.394 K0.000 F1800.000
G1 X-495.923 Y-437.592 Z-6.400 F1800.000
G3 X-497.027 Y-437.349 Z-6.400 I-0.862 J-1.288 K0.000 F1800.000
G3 X-498.351 Y-438.673 Z-6.400 I0.237 J-1.561 K0.000 F1800.000
G1 X-497.027 Y-437.349 Z-6.400 F1800.000
G0 Z5.000
G0 X-497.027 Y-437.348 Z5.000
G0 X-497.027 Y-437.348 Z3.000
G1 X-497.027 Y-437.348 Z-6.400 F1400.000
G3 X-496.788 Y-440.495 Z-6.400 I0.239 J-1.564 K0.000 F1800.000
G3 X-495.205 Y-438.913 Z-6.400 I0.000 J1.583 K0.000 F1800.000
G3 X-496.788 Y-437.330 Z-6.400 I-1.583 J0.000 K0.000 F1800.000
G3 X-497.027 Y-437.348 Z-6.400 I-0.000 J-1.583 K0.000 F1800.000
G0 Z5.000
G0 Z5.000
G0 X-497.027 Y-437.348
G0 X-513.626 Y-421.987
G0 X-513.626 Y-421.987 Z3.000
G1 X-513.626 Y-421.987 Z-3.200 F1400.000
G3 X-514.788 Y-419.330 Z-3.200 I-1.162 J1.075 K0.000 F1800.000
G3 X-516.370 Y-420.912 Z-3.200 I-0.000 J-1.583 K0.000 F1800.000
G3 X-514.788 Y-422.495 Z-3.200 I1.583 J0.000 K0.000 F1800.000
G3 X-513.626 Y-421.987 Z-3.200 I0.000 J1.583 K0.000 F1800.000
G0 Z5.000
G0 X-513.668 Y-422.032 Z5.000
G0 X-513.668 Y-422.032 Z3.000
G1 X-513.668 Y-422.032 Z-3.200 F1400.000
G3 X-513.319 Y-420.335 Z-3.200 I-1.105 J1.112 K0.000 F1800.000
G1 X-515.365 Y-422.381 Z-3.200 F1800.000
G2 X-516.108 Y-421.777 Z-3.200 I0.516 J1.394 K0.000 F1800.000
G1 X-513.923 Y-419.592 Z-3.200 F1800.000
G3 X-515.027 Y-419.349 Z-3.200 I-0.862 J-1.288 K0.000 F1800.000
G3 X-516.351 Y-420.673 Z-3.200 I0.237 J-1.561 K0.000 F1800.000
G1 X-515.027 Y-419.349 Z-3.200 F1800.000
G1 X-515.027 Y-419.349 Z-6.400 F1400.000
G1 X-516.351 Y-420.673 Z-6.400 F1800.000
G2 X-515.027 Y-419.349 Z-6.400 I1.561 J-0.237 K0.000 F1800.000
G2 X-513.923 Y-419.592 Z-6.400 I0.241 J-1.531 K0.000 F1800.000
G1 X-516.108 Y-421.777 Z-6.400 F1800.000
G3 X-515.365 Y-422.381 Z-6.400 I1.259 J0.790 K0.000 F1800.000
G1 X-513.319 Y-420.335 Z-6.400 F1800.000
G2 X-513.668 Y-422.032 Z-6.400 I-1.454 J-0.585 K0.000 F1800.000
G0 Z5.000
G0 X-513.668 Y-422.032 Z5.000
G0 X-513.668 Y-422.032 Z3.000
G1 X-513.668 Y-422.032 Z-6.400 F1400.000
G3 X-514.788 Y-419.330 Z-6.400 I-1.119 J1.119 K0.000 F1800.000
G3 X-516.370 Y-420.912 Z-6.400 I-0.000 J-1.583 K0.000 F1800.000
G3 X-514.788 Y-422.495 Z-6.400 I1.583 J0.000 K0.000 F1800.000
G3 X-513.668 Y-422.032 Z-6.400 I0.000 J1.583 K0.000 F1800.000
G0 Z5.000
G0 Z5.000
G0 X-513.668 Y-422.032
G0 X-421.304 Y-487.522
G0 X-421.304 Y-487.522 Z3.000
G1 X-421.304 Y-487.522 Z-3.200 F1400.000
G3 X-420.012 Y-490.020 Z-3.200 I1.291 J-0.915 K0.000 F1800.000
G3 X-420.012 Y-486.855 Z-3.200 I-0.000 J1.583 K0.000 F1800.000
G3 X-421.304 Y-487.522 Z-3.200 I-0.000 J-1.583 K0.000 F1800.000
G0 Z5.000
G0 X-420.252 Y-486.874 Z5.000
G0 X-420.252 Y-486.874 Z3.000
G1 X-420.252 Y-486.874 Z-3.200 F1400.000
G1 X-421.576 Y-488.198 Z-3.200 F1800.000
G2 X-420.252 Y-486.874 Z-3.200 I1.561 J-0.237 K0.000 F1800.000
G2 X-419.148 Y-487.117 Z-3.200 I0.241 J-1.531 K0.000 F1800.000
G1 X-421.333 Y-489.302 Z-3.200 F1800.000
G3 X-420.590 Y-489.906 Z-3.200 I1.259 J0.790 K0.000 F1800.000
G1 X-418.544 Y-487.860 Z-3.200 F1800.000
G2 X-418.893 Y-489.557 Z-3.200 I-1.454 J-0.585 K0.000 F1800.000
G1 X-418.893 Y-489.557 Z-6.400 F1400.000
G3 X-418.544 Y-487.860 Z-6.400 I-1.105 J1.112 K0.000 F1800.000
G1 X-420.590 Y-489.906 Z-6.400 F1800.000
G2 X-421.333 Y-489.302 Z-6.400 I0.516 J1.394 K0.000 F1800.000
G1 X-419.148 Y-487.117 Z-6.400 F1800.000
G3 X-420.252 Y-486.874 Z-6.400 I-0.862 J-1.288 K0.000 F1800.000
G3 X-421.576 Y-488.198 Z-6.400 I0.237 J-1.561 K0.000 F1800.000
G1 X-420.252 Y-486.874 Z-6.400 F1800.000
G0 Z5.000
G0 X-420.252 Y-486.873 Z5.000
G0 X-420.252 Y-486.873 Z3.000
G1 X-420.252 Y-486.873 Z-6.400 F1400.000
G3 X-420.012 Y-490.020 Z-6.400 I0.239 J-1.564 K0.000 F1800.000
G3 X-420.012 Y-486.855 Z-6.400 I-0.000 J1.583 K0.000 F1800.000
G3 X-420.252 Y-486.873 Z-6.400 I-0.000 J-1.583 K0.000 F1800.000
G0 Z5.000
G0 Z5.000
G0 X-420.252 Y-486.873
G0 X-420.012 Y-556.855
G0 X-420.012 Y-556.855 Z3.000
G1 X-420.012 Y-556.855 Z-3.200 F1400.000
G3 X-420.012 Y-560.020 Z-3.200 I0.000 J-1.583 K0.000 F1800.000
G3 X-420.012 Y-556.855 Z-3.200 I0.000 J1.583 K0.000 F1800.000
G0 Z5.000
G0 X-420.252 Y-556.874 Z5.000
G0 X-420.252 Y-556.874 Z3.000
G1 X-420.252 Y-556.874 Z-3.200 F1400.000
G1 X-421.576 Y-558.198 Z-3.200 F1800.000
G2 X-420.252 Y-556.874 Z-3.200 I1.561 J-0.237 K0.000 F1800.000
G2 X-419.148 Y-557.117 Z-3.200 I0.241 J-1.531 K0.000 F1800.000
G1 X-421.333 Y-559.302 Z-3.200 F1800.000
G3 X-420.590 Y-559.906 Z-3.200 I1.259 J0.790 K0.000 F1800.000
G1 X-418.544 Y-557.860 Z-3.200 F1800.000
G2 X-418.893 Y-559.557 Z-3.200 I-1.454 J-0.585 K0.000 F1800.000
G1 X-418.893 Y-559.557 Z-6.400 F1400.000
G3 X-418.544 Y-557.860 Z-6.400 I-1.105 J1.112 K0.000 F1800.000
G1 X-420.590 Y-559.906 Z-6.400 F1800.000
G2 X-421.333 Y-559.302 Z-6.400 I0.516 J1.394 K0.000 F1800.000
G1 X-419.148 Y-557.117 Z-6.400 F1800.000
G3 X-420.252 Y-556.874 Z-6.400 I-0.862 J-1.288 K0.000 F1800.000
G3 X-421.576 Y-558.198 Z-6.400 I0.237 J-1.561 K0.000 F1800.000
G1 X-420.252 Y-556.874 Z-6.400 F1800.000
G0 Z5.000
G0 X-420.252 Y-556.873 Z5.000
G0 X-420.252 Y-556.873 Z3.000
G1 X-420.252 Y-556.873 Z-6.400 F1400.000
G3 X-420.012 Y-560.020 Z-6.400 I0.239 J-1.564 K0.000 F1800.000
G3 X-420.012 Y-556.855 Z-6.400 I0.000 J1.583 K0.000 F1800.000
G3 X-420.252 Y-556.873 Z-6.400 I0.000 J-1.583 K0.000 F1800.000
G0 Z5.000
G0 Z5.000
G0 X-420.252 Y-556.873
G0 X-298.421 Y-560.273
G0 X-298.421 Y-560.273 Z3.000
G1 X-298.421 Y-560.273 Z-3.200 F1400.000
G3 X-292.213 Y-566.340 Z-3.200 I5.908 J-0.165 K0.000 F1800.000
G3 X-292.812 Y-554.535 Z-3.200 I-0.299 J5.903 K0.000 F1800.000
G3 X-298.421 Y-560.273 Z-3.200 I0.299 J-5.903 K0.000 F1800.000
G0 Z5.000
G0 X-297.899 Y-558.016 Z5.000
G0 X-297.899 Y-558.016 Z3.000
G1 X-297.899 Y-558.016 Z-3.200 F1400.000
G2 X-294.939 Y-555.055 Z-3.200 I5.325 J-2.364 K0.000 F1800.000
G1 X-297.899 Y-558.016 Z-3.200 F1800.000
G3 X-298.394 Y-559.857 Z-3.200 I5.154 J-2.370 K0.000 F1800.000
G1 X-293.100 Y-554.564 Z-3.200 F1800.000
G2 X-291.769 Y-554.580 Z-3.200 I0.611 J-4.579 K0.000 F1800.000
G1 X-298.370 Y-561.181 Z-3.200 F1800.000
G3 X-298.124 Y-562.282 Z-3.200 I4.962 J0.532 K0.000 F1800.000
G1 X-290.671 Y-554.829 Z-3.200 F1800.000
G2 X-289.727 Y-555.232 Z-3.200 I-1.102 J-3.883 K0.000 F1800.000
G1 X-297.720 Y-563.225 Z-3.200 F1800.000
G3 X-297.188 Y-564.040 Z-3.200 I3.288 J1.563 K0.000 F1800.000
G1 X-288.905 Y-555.757 Z-3.200 F1800.000
G2 X-288.204 Y-556.403 Z-3.200 I-1.970 J-2.842 K0.000 F1800.000
G1 X-296.551 Y-564.750 Z-3.200 F1800.000
G3 X-295.797 Y-565.343 Z-3.200 I3.293 J3.410 K0.000 F1800.000
G1 X-287.605 Y-557.151 Z-3.200 F1800.000
G2 X-287.125 Y-558.018 Z-3.200 I-4.020 J-2.796 K0.000 F1800.000
G1 X-294.930 Y-565.823 Z-3.200 F1800.000
G3 X-293.932 Y-566.172 Z-3.200 I2.063 J4.304 K0.000 F1800.000
G1 X-286.782 Y-559.021 Z-3.200 F1800.000
G2 X-286.614 Y-560.201 Z-3.200 I-4.116 J-1.186 K0.000 F1800.000
G1 X-292.753 Y-566.340 Z-3.200 F1800.000
G3 X-291.276 Y-566.210 Z-3.200 I0.270 J5.361 K0.000 F1800.000
G1 X-286.733 Y-561.667 Z-3.200 F1800.000
G2 X-288.440 Y-564.721 Z-3.200 I-5.762 J1.216 K0.000 F1800.000
G1 X-288.440 Y-564.721 Z-6.400 F1400.000
G3 X-286.733 Y-561.667 Z-6.400 I-4.055 J4.270 K0.000 F1800.000
G1 X-291.276 Y-566.210 Z-6.400 F1800.000
G2 X-292.753 Y-566.340 Z-6.400 I-1.208 J5.230 K0.000 F1800.000
G1 X-286.614 Y-560.201 Z-6.400 F1800.000
G3 X-286.782 Y-559.021 Z-6.400 I-4.284 J-0.007 K0.000 F1800.000
G1 X-293.932 Y-566.172 Z-6.400 F1800.000
G2 X-294.930 Y-565.823 Z-6.400 I1.065 J4.653 K0.000 F1800.000
G1 X-287.125 Y-558.018 Z-6.400 F1800.000
G3 X-287.605 Y-557.151 Z-6.400 I-4.501 J-1.930 K0.000 F1800.000
G1 X-295.797 Y-565.343 Z-6.400 F1800.000
G2 X-296.551 Y-564.750 Z-6.400 I2.539 J4.003 K0.000 F1800.000
G1 X-288.204 Y-556.403 Z-6.400 F1800.000
G3 X-288.905 Y-555.757 Z-6.400 I-2.672 J-2.196 K0.000 F1800.000
G1 X-297.188 Y-564.040 Z-6.400 F1800.000
G2 X-297.720 Y-563.225 Z-6.400 I2.756 J2.378 K0.000 F1800.000
G1 X-289.727 Y-555.232 Z-6.400 F1800.000
G3 X-290.671 Y-554.829 Z-6.400 I-2.046 J-3.479 K0.000 F1800.000
G1 X-298.124 Y-562.282 Z-6.400 F1800.000
G2 X-298.370 Y-561.181 Z-6.400 I4.716 J1.633 K0.000 F1800.000
G1 X-291.769 Y-554.580 Z-6.400 F1800.000
G3 X-293.100 Y-554.564 Z-6.400 I-0.720 J-4.563 K0.000 F1800.000
G1 X-298.394 Y-559.857 Z-6.400 F1800.000
G2 X-297.899 Y-558.016 Z-6.400 I5.648 J-0.529 K0.000 F1800.000
G1 X-294.939 Y-555.055 Z-6.400 F1800.000
G3 X-297.899 Y-558.016 Z-6.400 I2.364 J-5.325 K0.000 F1800.000
G0 Z5.000
G0 X-297.903 Y-558.014 Z5.000
G0 X-297.903 Y-558.014 Z3.000
G1 X-297.903 Y-558.014 Z-6.400 F1400.000
G3 X-292.213 Y-566.340 Z-6.400 I5.391 J-2.423 K0.000 F1800.000
G3 X-292.812 Y-554.535 Z-6.400 I-0.299 J5.903 K0.000 F1800.000
G3 X-297.903 Y-558.014 Z-6.400 I0.299 J-5.903 K0.000 F1800.000
G0 Z5.000
G0 Z5.000
G0 X-297.903 Y-558.014
G0 X-166.595 Y-558.432
G0 X-166.595 Y-558.432 Z3.000
G1 X-166.595 Y-558.432 Z-3.200 F1400.000
G3 X-165.012 Y-560.020 Z-3.200 I1.583 J-0.005 K0.000 F1800.000
G3 X-165.012 Y-556.855 Z-3.200 I0.000 J1.583 K0.000 F1800.000
G3 X-166.595 Y-558.432 Z-3.200 I0.000 J-1.583 K0.000 F1800.000
G0 Z5.000
G0 X-165.252 Y-556.874 Z5.000
G0 X-165.252 Y-556.874 Z3.000
G1 X-165.252 Y-556.874 Z-3.200 F1400.000
G1 X-166.576 Y-558.198 Z-3.200 F1800.000
G2 X-165.252 Y-556.874 Z-3.200 I1.561 J-0.237 K0.000 F1800.000
G2 X-164.148 Y-557.117 Z-3.200 I0.241 J-1.531 K0.000 F1800.000
G1 X-166.333 Y-559.302 Z-3.200 F1800.000
G3 X-165.590 Y-559.906 Z-3.200 I1.259 J0.790 K0.000 F1800.000
G1 X-163.544 Y-557.860 Z-3.200 F1800.000
G2 X-163.893 Y-559.557 Z-3.200 I-1.454 J-0.585 K0.000 F1800.000
G1 X-163.893 Y-559.557 Z-6.400 F1400.000
G3 X-163.544 Y-557.860 Z-6.400 I-1.105 J1.112 K0.000 F1800.000
G1 X-165.590 Y-559.906 Z-6.400 F1800.000
G2 X-166.333 Y-559.302 Z-6.400 I0.516 J1.394 K0.000 F1800.000
G1 X-164.148 Y-557.117 Z-6.400 F1800.000
G3 X-165.252 Y-556.874 Z-6.400 I-0.862 J-1.288 K0.000 F1800.000
G3 X-166.576 Y-558.198 Z-6.400 I0.237 J-1.561 K0.000 F1800.000
G1 X-165.252 Y-556.874 Z-6.400 F1800.000
G0 Z5.000
G0 X-165.252 Y-556.873 Z5.000
G0 X-165.252 Y-556.873 Z3.000
G1 X-165.252 Y-556.873 Z-6.400 F1400.000
G3 X-165.012 Y-560.020 Z-6.400 I0.239 J-1.564 K0.000 F1800.000
G3 X-165.012 Y-556.855 Z-6.400 I0.000 J1.583 K0.000 F1800.000
G3 X-165.252 Y-556.873 Z-6.400 I0.000 J-1.583 K0.000 F1800.000
G0 Z5.000
G0 Z5.000
G0 X-165.252 Y-556.873
G0 X-165.012 Y-490.020
G0 X-165.012 Y-490.020 Z3.000
G1 X-165.012 Y-490.020 Z-3.200 F1400.000
G3 X-163.430 Y-488.438 Z-3.200 I0.000 J1.583 K0.000 F1800.000
G3 X-165.012 Y-486.855 Z-3.200 I-1.583 J0.000 K0.000 F1800.000
G3 X-166.595 Y-488.438 Z-3.200 I-0.000 J-1.583 K0.000 F1800.000
G3 X-165.012 Y-490.020 Z-3.200 I1.583 J0.000 K0.000 F1800.000
G0 Z5.000
G0 X-163.893 Y-489.557 Z5.000
G0 X-163.893 Y-489.557 Z3.000
G1 X-163.893 Y-489.557 Z-3.200 F1400.000
G3 X-163.544 Y-487.860 Z-3.200 I-1.105 J1.112 K0.000 F1800.000
G1 X-165.590 Y-489.906 Z-3.200 F1800.000
G2 X-166.333 Y-489.302 Z-3.200 I0.516 J1.394 K0.000 F1800.000
G1 X-164.148 Y-487.117 Z-3.200 F1800.000
G3 X-165.252 Y-486.874 Z-3.200 I-0.862 J-1.288 K0.000 F1800.000
G3 X-166.576 Y-488.198 Z-3.200 I0.237 J-1.561 K0.000 F1800.000
G1 X-165.252 Y-486.874 Z-3.200 F1800.000
G1 X-165.252 Y-486.874 Z-6.400 F1400.000
G1 X-166.576 Y-488.198 Z-6.400 F1800.000
G2 X-165.252 Y-486.874 Z-6.400 I1.561 J-0.237 K0.000 F1800.000
G2 X-164.148 Y-487.117 Z-6.400 I0.241 J-1.531 K0.000 F1800.000
G1 X-166.333 Y-489.302 Z-6.400 F1800.000
G3 X-165.590 Y-489.906 Z-6.400 I1.259 J0.790 K0.000 F1800.000
G1 X-163.544 Y-487.860 Z-6.400 F1800.000
G2 X-163.893 Y-489.557 Z-6.400 I-1.454 J-0.585 K0.000 F1800.000
G0 Z5.000
G0 X-163.893 Y-489.557 Z5.000
G0 X-163.893 Y-489.557 Z3.000
G1 X-163.893 Y-489.557 Z-6.400 F1400.000
G3 X-165.012 Y-486.855 Z-6.400 I-1.119 J1.119 K0.000 F1800.000
G3 X-166.595 Y-488.438 Z-6.400 I-0.000 J-1.583 K0.000 F1800.000
G3 X-165.012 Y-490.020 Z-6.400 I1.583 J0.000 K0.000 F1800.000
G3 X-163.893 Y-489.557 Z-6.400 I0.000 J1.583 K0.000 F1800.000
G0 Z5.000
G0 Z5.000
G0 X-163.893 Y-489.557
G0 X-107.255 Y-422.124
G0 X-107.255 Y-422.124 Z3.000
G1 X-107.255 Y-422.124 Z-3.200 F1400.000
G3 X-106.237 Y-422.495 Z-3.200 I1.018 J1.212 K0.000 F1800.000
G3 X-104.655 Y-420.912 Z-3.200 I0.000 J1.583 K0.000 F1800.000
G3 X-106.237 Y-419.330 Z-3.200 I-1.583 J0.000 K0.000 F1800.000
G3 X-107.255 Y-422.124 Z-3.200 I-0.000 J-1.583 K0.000 F1800.000
G0 Z5.000
G0 X-105.118 Y-422.032 Z5.000
G0 X-105.118 Y-422.032 Z3.000
G1 X-105.118 Y-422.032 Z-3.200 F1400.000
G3 X-104.769 Y-420.335 Z-3.200 I-1.105 J1.112 K0.000 F1800.000
G1 X-106.815 Y-422.381 Z-3.200 F1800.000
G2 X-107.558 Y-421.777 Z-3.200 I0.516 J1.394 K0.000 F1800.000
G1 X-105.373 Y-419.592 Z-3.200 F1800.000
G3 X-106.477 Y-419.349 Z-3.200 I-0.862 J-1.288 K0.000 F1800.000
G3 X-107.801 Y-420.673 Z-3.200 I0.237 J-1.561 K0.000 F1800.000
G1 X-106.477 Y-419.349 Z-3.200 F1800.000
G1 X-106.477 Y-419.349 Z-6.400 F1400.000
G1 X-107.801 Y-420.673 Z-6.400 F1800.000
G2 X-106.477 Y-419.349 Z-6.400 I1.561 J-0.237 K0.000 F1800.000
G2 X-105.373 Y-419.592 Z-6.400 I0.241 J-1.531 K0.000 F1800.000
G1 X-107.558 Y-421.777 Z-6.400 F1800.000
G3 X-106.815 Y-422.381 Z-6.400 I1.259 J0.790 K0.000 F1800.000
G1 X-104.769 Y-420.335 Z-6.400 F1800.000
G2 X-105.118 Y-422.032 Z-6.400 I-1.454 J-0.585 K0.000 F1800.000
G0 Z5.000
G0 X-105.118 Y-422.032 Z5.000
G0 X-105.118 Y-422.032 Z3.000
G1 X-105.118 Y-422.032 Z-6.400 F1400.000
G3 X-106.237 Y-419.330 Z-6.400 I-1.119 J1.119 K0.000 F1800.000
G3 X-107.820 Y-420.912 Z-6.400 I-0.000 J-1.583 K0.000 F1800.000
G3 X-106.237 Y-422.495 Z-6.400 I1.583 J0.000 K0.000 F1800.000
G3 X-105.118 Y-422.032 Z-6.400 I0.000 J1.583 K0.000 F1800.000
G0 Z5.000
G0 Z5.000
G0 X-105.118 Y-422.032
G0 X-95.632 Y-421.403
G0 X-95.632 Y-421.403 Z3.000
G1 X-95.632 Y-421.403 Z-3.200 F1400.000
G3 X-88.237 Y-428.323 Z-3.200 I7.395 J0.490 K0.000 F1800.000
G3 X-80.827 Y-420.912 Z-3.200 I0.000 J7.411 K0.000 F1800.000
G3 X-88.237 Y-413.502 Z-3.200 I-7.411 J0.000 K0.000 F1800.000
G3 X-95.632 Y-421.403 Z-3.200 I-0.000 J-7.411 K0.000 F1800.000
G0 Z5.000
G0 X-91.181 Y-414.120 Z5.000
G0 X-91.181 Y-414.120 Z3.000
G1 X-91.181 Y-414.120 Z-3.200 F1400.000
G3 X-95.030 Y-417.969 Z-3.200 I2.865 J-6.715 K0.000 F1800.000
G1 X-91.181 Y-414.120 Z-3.200 F1800.000
G2 X-89.300 Y-413.586 Z-3.200 I2.727 J-6.030 K0.000 F1800.000
G1 X-95.564 Y-419.850 Z-3.200 F1800.000
G3 X-95.632 Y-421.265 Z-3.200 I5.652 J-0.982 K0.000 F1800.000
G1 X-87.885 Y-413.518 Z-3.200 F1800.000
G2 X-86.691 Y-413.671 Z-3.200 I-0.082 J-5.364 K0.000 F1800.000
G1 X-95.479 Y-422.459 Z-3.200 F1800.000
G3 X-95.177 Y-423.504 Z-3.200 I5.790 J1.107 K0.000 F1800.000
G1 X-85.646 Y-413.973 Z-3.200 F1800.000
G2 X-84.723 Y-414.396 Z-3.200 I-1.346 J-4.157 K0.000 F1800.000
G1 X-94.754 Y-424.427 Z-3.200 F1800.000
G3 X-94.235 Y-425.256 Z-3.200 I4.731 J2.382 K0.000 F1800.000
G1 X-83.894 Y-414.915 Z-3.200 F1800.000
G2 X-83.156 Y-415.524 Z-3.200 I-2.478 J-3.748 K0.000 F1800.000
G1 X-93.626 Y-425.994 Z-3.200 F1800.000
G3 X-92.926 Y-426.641 Z-3.200 I3.845 J3.449 K0.000 F1800.000
G1 X-82.509 Y-416.224 Z-3.200 F1800.000
G2 X-81.942 Y-417.004 Z-3.200 I-3.926 J-3.449 K0.000 F1800.000
G1 X-92.146 Y-427.208 Z-3.200 F1800.000
G3 X-91.261 Y-427.670 Z-3.200 I2.342 J3.412 K0.000 F1800.000
G1 X-81.480 Y-417.889 Z-3.200 F1800.000
G2 X-81.114 Y-418.870 Z-3.200 I-5.112 J-2.464 K0.000 F1800.000
G1 X-90.280 Y-428.036 Z-3.200 F1800.000
G3 X-89.156 Y-428.259 Z-3.200 I1.423 J4.222 K0.000 F1800.000
G1 X-80.891 Y-419.994 Z-3.200 F1800.000
G2 X-80.844 Y-421.295 Z-3.200 I-5.130 J-0.835 K0.000 F1800.000
G1 X-87.855 Y-428.306 Z-3.200 F1800.000
G3 X-86.254 Y-428.051 Z-3.200 I-0.123 J5.936 K0.000 F1800.000
G1 X-81.099 Y-422.896 Z-3.200 F1800.000
G2 X-83.245 Y-426.389 Z-3.200 I-7.109 J1.962 K0.000 F1800.000
G1 X-83.245 Y-426.389 Z-6.400 F1400.000
G3 X-81.099 Y-422.896 Z-6.400 I-4.963 J5.454 K0.000 F1800.000
G1 X-86.254 Y-428.051 Z-6.400 F1800.000
G2 X-87.855 Y-428.306 Z-6.400 I-1.725 J5.682 K0.000 F1800.000
G1 X-80.844 Y-421.295 Z-6.400 F1800.000
G3 X-80.891 Y-419.994 Z-6.400 I-5.176 J0.465 K0.000 F1800.000
G1 X-89.156 Y-428.259 Z-6.400 F1800.000
G2 X-90.280 Y-428.036 Z-6.400 I0.299 J4.445 K0.000 F1800.000
G1 X-81.114 Y-418.870 Z-6.400 F1800.000
G3 X-81.480 Y-417.889 Z-6.400 I-5.478 J-1.483 K0.000 F1800.000
G1 X-91.261 Y-427.670 Z-6.400 F1800.000
G2 X-92.146 Y-427.208 Z-6.400 I1.457 J3.873 K0.000 F1800.000
G1 X-81.942 Y-417.004 Z-6.400 F1800.000
G3 X-82.509 Y-416.224 Z-6.400 I-4.493 J-2.669 K0.000 F1800.000
G1 X-92.926 Y-426.641 Z-6.400 F1800.000
G2 X-93.626 Y-425.994 Z-6.400 I3.146 J4.097 K0.000 F1800.000
G1 X-83.156 Y-415.524 Z-6.400 F1800.000
G3 X-83.894 Y-414.915 Z-6.400 I-3.215 J-3.139 K0.000 F1800.000
G1 X-94.235 Y-425.256 Z-6.400 F1800.000
G2 X-94.754 Y-424.427 Z-6.400 I4.213 J3.211 K0.000 F1800.000
G1 X-84.723 Y-414.396 Z-6.400 F1800.000
G3 X-85.646 Y-413.973 Z-6.400 I-2.269 J-3.734 K0.000 F1800.000
G1 X-95.177 Y-423.504 Z-6.400 F1800.000
G2 X-95.479 Y-422.459 Z-6.400 I5.488 J2.152 K0.000 F1800.000
G1 X-86.691 Y-413.671 Z-6.400 F1800.000
G3 X-87.885 Y-413.518 Z-6.400 I-1.276 J-5.211 K0.000 F1800.000
G1 X-95.632 Y-421.265 Z-6.400 F1800.000
G2 X-95.564 Y-419.850 Z-6.400 I5.720 J0.434 K0.000 F1800.000
G1 X-89.300 Y-413.586 Z-6.400 F1800.000
G3 X-91.181 Y-414.120 Z-6.400 I0.846 J-6.564 K0.000 F1800.000
G1 X-95.030 Y-417.969 Z-6.400 F1800.000
G2 X-91.181 Y-414.120 Z-6.400 I6.715 J-2.865 K0.000 F1800.000
G0 Z5.000
G0 X-91.184 Y-414.113 Z5.000
G0 X-91.184 Y-414.113 Z3.000
G1 X-91.184 Y-414.113 Z-6.400 F1400.000
G3 X-88.237 Y-428.323 Z-6.400 I2.947 J-6.800 K0.000 F1800.000
G3 X-80.827 Y-420.912 Z-6.400 I0.000 J7.411 K0.000 F1800.000
G3 X-88.237 Y-413.502 Z-6.400 I-7.411 J0.000 K0.000 F1800.000
G3 X-91.184 Y-414.113 Z-6.400 I-0.000 J-7.411 K0.000 F1800.000
G0 Z5.000
G0 Z5.000
G0 X-91.184 Y-414.113
G0 X-71.743 Y-420.424
G0 X-71.743 Y-420.424 Z3.000
G1 X-71.743 Y-420.424 Z-3.200 F1400.000
G3 X-70.237 Y-422.495 Z-3.200 I1.505 J-0.489 K0.000 F1800.000
G3 X-68.655 Y-420.912 Z-3.200 I0.000 J1.583 K0.000 F1800.000
G3 X-70.237 Y-419.330 Z-3.200 I-1.583 J0.000 K0.000 F1800.000
G3 X-71.743 Y-420.424 Z-3.200 I-0.000 J-1.583 K0.000 F1800.000
G0 Z5.000
G0 X-70.477 Y-419.349 Z5.000
G0 X-70.477 Y-419.349 Z3.000
G1 X-70.477 Y-419.349 Z-3.200 F1400.000
G1 X-71.801 Y-420.673 Z-3.200 F1800.000
G2 X-70.477 Y-419.349 Z-3.200 I1.561 J-0.237 K0.000 F1800.000
G2 X-69.373 Y-419.592 Z-3.200 I0.241 J-1.531 K0.000 F1800.000
G1 X-71.558 Y-421.777 Z-3.200 F1800.000
G3 X-70.815 Y-422.381 Z-3.200 I1.259 J0.790 K0.000 F1800.000
G1 X-68.769 Y-420.335 Z-3.200 F1800.000
G2 X-69.118 Y-422.032 Z-3.200 I-1.454 J-0.585 K0.000 F1800.000
G1 X-69.118 Y-422.032 Z-6.400 F1400.000
G3 X-68.769 Y-420.335 Z-6.400 I-1.105 J1.112 K0.000 F1800.000
G1 X-70.815 Y-422.381 Z-6.400 F1800.000
G2 X-71.558 Y-421.777 Z-6.400 I0.516 J1.394 K0.000 F1800.000
G1 X-69.373 Y-419.592 Z-6.400 F1800.000
G3 X-70.477 Y-419.349 Z-6.400 I-0.862 J-1.288 K0.000 F1800.000
G3 X-71.801 Y-420.673 Z-6.400 I0.237 J-1.561 K0.000 F1800.000
G1 X-70.477 Y-419.349 Z-6.400 F1800.000
G0 Z5.000
G0 X-70.477 Y-419.348 Z5.000
G0 X-70.477 Y-419.348 Z3.000
G1 X-70.477 Y-419.348 Z-6.400 F1400.000
G3 X-70.237 Y-422.495 Z-6.400 I0.239 J-1.564 K0.000 F1800.000
G3 X-68.655 Y-420.912 Z-6.400 I0.000 J1.583 K0.000 F1800.000
G3 X-70.237 Y-419.330 Z-6.400 I-1.583 J0.000 K0.000 F1800.000
G3 X-70.477 Y-419.348 Z-6.400 I-0.000 J-1.583 K0.000 F1800.000
G0 Z5.000
G0 Z5.000
G0 X-70.477 Y-419.348
G0 X-87.174 Y-437.741
G0 X-87.174 Y-437.741 Z3.000
G1 X-87.174 Y-437.741 Z-3.200 F1400.000
G3 X-88.237 Y-437.330 Z-3.200 I-1.064 J-1.172 K0.000 F1800.000
G3 X-89.820 Y-438.913 Z-3.200 I-0.000 J-1.583 K0.000 F1800.000
G3 X-88.237 Y-440.495 Z-3.200 I1.583 J0.000 K0.000 F1800.000
G3 X-87.174 Y-437.741 Z-3.200 I0.000 J1.583 K0.000 F1800.000
G0 Z5.000
G0 X-88.477 Y-437.349 Z5.000
G0 X-88.477 Y-437.349 Z3.000
G1 X-88.477 Y-437.349 Z-3.200 F1400.000
G1 X-89.801 Y-438.673 Z-3.200 F1800.000
G2 X-88.477 Y-437.349 Z-3.200 I1.561 J-0.237 K0.000 F1800.000
G2 X-87.373 Y-437.592 Z-3.200 I0.241 J-1.531 K0.000 F1800.000
G1 X-89.558 Y-439.777 Z-3.200 F1800.000
G3 X-88.815 Y-440.381 Z-3.200 I1.259 J0.790 K0.000 F1800.000
G1 X-86.769 Y-438.335 Z-3.200 F1800.000
G2 X-87.118 Y-440.032 Z-3.200 I-1.454 J-0.585 K0.000 F1800.000
G1 X-87.118 Y-440.032 Z-6.400 F1400.000
G3 X-86.769 Y-438.335 Z-6.400 I-1.105 J1.112 K0.000 F1800.000
G1 X-88.815 Y-440.381 Z-6.400 F1800.000
G2 X-89.558 Y-439.777 Z-6.400 I0.516 J1.394 K0.000 F1800.000
G1 X-87.373 Y-437.592 Z-6.400 F1800.000
G3 X-88.477 Y-437.349 Z-6.400 I-0.862 J-1.288 K0.000 F1800.000
G3 X-89.801 Y-438.673 Z-6.400 I0.237 J-1.561 K0.000 F1800.000
G1 X-88.477 Y-437.349 Z-6.400 F1800.000
G0 Z5.000
G0 X-88.477 Y-437.348 Z5.000
G0 X-88.477 Y-437.348 Z3.000
G1 X-88.477 Y-437.348 Z-6.400 F1400.000
G3 X-88.237 Y-440.495 Z-6.400 I0.239 J-1.564 K0.000 F1800.000
G3 X-86.655 Y-438.913 Z-6.400 I0.000 J1.583 K0.000 F1800.000
G3 X-88.237 Y-437.330 Z-6.400 I-1.583 J0.000 K0.000 F1800.000
G3 X-88.477 Y-437.348 Z-6.400 I-0.000 J-1.583 K0.000 F1800.000
G0 Z5.000
G0 Z5.000
G0 X-88.477 Y-437.348
G0 X-88.248 Y-404.495
G0 X-88.248 Y-404.495 Z3.000
G1 X-88.248 Y-404.495 Z-3.200 F1400.000
G3 X-88.237 Y-404.495 Z-3.200 I0.011 J1.583 K0.000 F1800.000
G3 X-88.237 Y-401.330 Z-3.200 I0.000 J1.583 K0.000 F1800.000
G3 X-88.248 Y-404.495 Z-3.200 I0.000 J-1.583 K0.000 F1800.000
G0 Z5.000
G0 X-87.118 Y-404.032 Z5.000
G0 X-87.118 Y-404.032 Z3.000
G1 X-87.118 Y-404.032 Z-3.200 F1400.000
G3 X-86.769 Y-402.335 Z-3.200 I-1.105 J1.112 K0.000 F1800.000
G1 X-88.815 Y-404.381 Z-3.200 F1800.000
G2 X-89.558 Y-403.777 Z-3.200 I0.516 J1.394 K0.000 F1800.000
G1 X-87.373 Y-401.592 Z-3.200 F1800.000
G3 X-88.477 Y-401.349 Z-3.200 I-0.862 J-1.288 K0.000 F1800.000
G3 X-89.801 Y-402.673 Z-3.200 I0.237 J-1.561 K0.000 F1800.000
G1 X-88.477 Y-401.349 Z-3.200 F1800.000
G1 X-88.477 Y-401.349 Z-6.400 F1400.000
G1 X-89.801 Y-402.673 Z-6.400 F1800.000
G2 X-88.477 Y-401.349 Z-6.400 I1.561 J-0.237 K0.000 F1800.000
G2 X-87.373 Y-401.592 Z-6.400 I0.241 J-1.531 K0.000 F1800.000
G1 X-89.558 Y-403.777 Z-6.400 F1800.000
G3 X-88.815 Y-404.381 Z-6.400 I1.259 J0.790 K0.000 F1800.000
G1 X-86.769 Y-402.335 Z-6.400 F1800.000
G2 X-87.118 Y-404.032 Z-6.400 I-1.454 J-0.585 K0.000 F1800.000
G0 Z5.000
G0 X-87.118 Y-404.032 Z5.000
G0 X-87.118 Y-404.032 Z3.000
G1 X-87.118 Y-404.032 Z-6.400 F1400.000
G3 X-88.237 Y-401.330 Z-6.400 I-1.119 J1.119 K0.000 F1800.000
G3 X-88.237 Y-404.495 Z-6.400 I0.000 J-1.583 K0.000 F1800.000
G3 X-87.118 Y-404.032 Z-6.400 I0.000 J1.583 K0.000 F1800.000
G0 Z5.000
G0 Z5.000
G0 X-87.118 Y-404.032
G0 X-96.454 Y-294.089
G0 X-96.454 Y-294.089 Z3.000
G1 X-96.454 Y-294.089 Z-3.200 F1400.000
G3 X-96.587 Y-290.930 Z-3.200 I-0.134 J1.577 K0.000 F1800.000
G3 X-96.587 Y-294.095 Z-3.200 I0.000 J-1.583 K0.000 F1800.000
G3 X-96.454 Y-294.089 Z-3.200 I0.000 J1.583 K0.000 F1800.000
G0 Z5.000
G0 X-95.468 Y-293.632 Z5.000
G0 X-95.468 Y-293.632 Z3.000
G1 X-95.468 Y-293.632 Z-3.200 F1400.000
G3 X-95.119 Y-291.935 Z-3.200 I-1.105 J1.112 K0.000 F1800.000
G1 X-97.165 Y-293.981 Z-3.200 F1800.000
G2 X-97.908 Y-293.377 Z-3.200 I0.516 J1.394 K0.000 F1800.000
G1 X-95.723 Y-291.192 Z-3.200 F1800.000
G3 X-96.827 Y-290.949 Z-3.200 I-0.862 J-1.288 K0.000 F1800.000
G3 X-98.151 Y-292.273 Z-3.200 I0.237 J-1.561 K0.000 F1800.000
G1 X-96.827 Y-290.949 Z-3.200 F1800.000
G1 X-96.827 Y-290.949 Z-6.400 F1400.000
G1 X-98.151 Y-292.273 Z-6.400 F1800.000
G2 X-96.827 Y-290.949 Z-6.400 I1.561 J-0.237 K0.000 F1800.000
G2 X-95.723 Y-291.192 Z-6.400 I0.241 J-1.531 K0.000 F1800.000
G1 X-97.908 Y-293.377 Z-6.400 F1800.000
G3 X-97.165 Y-293.981 Z-6.400 I1.259 J0.790 K0.000 F1800.000
G1 X-95.119 Y-291.935 Z-6.400 F1800.000
G2 X-95.468 Y-293.632 Z-6.400 I-1.454 J-0.585 K0.000 F1800.000
G0 Z5.000
G0 X-95.468 Y-293.632 Z5.000
G0 X-95.468 Y-293.632 Z3.000
G1 X-95.468 Y-293.632 Z-6.400 F1400.000
G3 X-96.587 Y-290.930 Z-6.400 I-1.119 J1.119 K0.000 F1800.000
G3 X-96.587 Y-294.095 Z-6.400 I0.000 J-1.583 K0.000 F1800.000
G3 X-95.468 Y-293.632 Z-6.400 I0.000 J1.583 K0.000 F1800.000
G0 Z5.000
G0 Z5.000
G0 X-95.468 Y-293.632
G0 X-28.170 Y-292.538
G0 X-28.170 Y-292.538 Z3.000
G1 X-28.170 Y-292.538 Z-3.200 F1400.000
G3 X-26.587 Y-294.095 Z-3.200 I1.582 J0.026 K0.000 F1800.000
G3 X-25.005 Y-292.512 Z-3.200 I0.000 J1.583 K0.000 F1800.000
G3 X-26.587 Y-290.930 Z-3.200 I-1.583 J0.000 K0.000 F1800.000
G3 X-28.170 Y-292.538 Z-3.200 I-0.000 J-1.583 K0.000 F1800.000
G0 Z5.000
G0 X-26.827 Y-290.949 Z5.000
G0 X-26.827 Y-290.949 Z3.000
G1 X-26.827 Y-290.949 Z-3.200 F1400.000
G1 X-28.151 Y-292.273 Z-3.200 F1800.000
G2 X-26.827 Y-290.949 Z-3.200 I1.561 J-0.237 K0.000 F1800.000
G2 X-25.723 Y-291.192 Z-3.200 I0.241 J-1.531 K0.000 F1800.000
G1 X-27.908 Y-293.377 Z-3.200 F1800.000
G3 X-27.165 Y-293.981 Z-3.200 I1.259 J0.790 K0.000 F1800.000
G1 X-25.119 Y-291.935 Z-3.200 F1800.000
G2 X-25.468 Y-293.632 Z-3.200 I-1.454 J-0.585 K0.000 F1800.000
G1 X-25.468 Y-293.632 Z-6.400 F1400.000
G3 X-25.119 Y-291.935 Z-6.400 I-1.105 J1.112 K0.000 F1800.000
G1 X-27.165 Y-293.981 Z-6.400 F1800.000
G2 X-27.908 Y-293.377 Z-6.400 I0.516 J1.394 K0.000 F1800.000
G1 X-25.723 Y-291.192 Z-6.400 F1800.000
G3 X-26.827 Y-290.949 Z-6.400 I-0.862 J-1.288 K0.000 F1800.000
G3 X-28.151 Y-292.273 Z-6.400 I0.237 J-1.561 K0.000 F1800.000
G1 X-26.827 Y-290.949 Z-6.400 F1800.000
G0 Z5.000
G0 X-26.827 Y-290.948 Z5.000
G0 X-26.827 Y-290.948 Z3.000
G1 X-26.827 Y-290.948 Z-6.400 F1400.000
G3 X-26.587 Y-294.095 Z-6.400 I0.239 J-1.564 K0.000 F1800.000
G3 X-25.005 Y-292.512 Z-6.400 I0.000 J1.583 K0.000 F1800.000
G3 X-26.587 Y-290.930 Z-6.400 I-1.583 J0.000 K0.000 F1800.000
G3 X-26.827 Y-290.948 Z-6.400 I-0.000 J-1.583 K0.000 F1800.000
G0 Z5.000
G0 Z5.000
(Finish operation: Pocket_Shape011)
(Begin operation: Engrave001)
(Path: Engrave001)
(Engrave001)
G0 Z5.000
G0 Z5.000
G0 X-460.438 Y-126.175
G0 Z3.000
G1 X-460.438 Y-126.175 Z-1.000 F1400.000
G1 X-124.588 Y-126.175 Z-1.000 F1800.000
G0 Z5.000
G0 Z5.000
G0 X-126.175 Y-124.587
G0 Z3.000
G1 X-126.175 Y-124.587 Z-1.000 F1400.000
G1 X-126.175 Y-460.438 Z-1.000 F1800.000
G0 Z5.000
G0 Z5.000
G0 X-458.850 Y-124.587
G0 Z3.000
G1 X-458.850 Y-124.587 Z-1.000 F1400.000
G1 X-458.850 Y-460.438 Z-1.000 F1800.000
G0 Z5.000
G0 Z5.000
G0 X-460.438 Y-458.850
G0 Z3.000
G1 X-460.438 Y-458.850 Z-1.000 F1400.000
G1 X-124.588 Y-458.850 Z-1.000 F1800.000
G0 Z5.000
(Finish operation: Engrave001)
(Begin operation: Profile051)
(Path: Profile051)
(Profile051)
(Compensated Tool Path. Diameter: 3.175)
G0 Z5.000
G0 X-126.175 Y-1.568
G0 Z3.000
G1 X-126.175 Y-1.568 Z0.000 F1400.000
G2 X-126.175 Y-1.587 Z0.000 I-1.587 J-0.020 K0.000 F1800.000
G1 X-126.175 Y-126.086 Z0.000 F1800.000
G3 X-126.086 Y-126.175 Z0.000 I0.055 J-0.034 K0.000 F1800.000
G1 X-1.588 Y-126.175 Z0.000 F1800.000
G2 X-0.000 Y-127.762 Z0.000 I0.000 J-1.587 K0.000 F1800.000
G1 X-0.000 Y-457.262 Z0.000 F1800.000
G2 X-1.588 Y-458.850 Z0.000 I-1.587 J-0.000 K0.000 F1800.000
G1 X-126.086 Y-458.850 Z0.000 F1800.000
G3 X-126.175 Y-458.939 Z0.000 I-0.034 J-0.055 K0.000 F1800.000
G1 X-126.175 Y-583.438 Z0.000 F1800.000
G2 X-127.763 Y-585.025 Z0.000 I-1.587 J-0.000 K0.000 F1800.000
G1 X-457.262 Y-585.025 Z0.000 F1800.000
G2 X-458.850 Y-583.438 Z0.000 I-0.000 J1.587 K0.000 F1800.000
G1 X-458.850 Y-458.939 Z0.000 F1800.000
G3 X-458.939 Y-458.850 Z0.000 I-0.055 J0.034 K0.000 F1800.000
G1 X-583.437 Y-458.850 Z0.000 F1800.000
G2 X-585.025 Y-457.262 Z0.000 I-0.000 J1.587 K0.000 F1800.000
G1 X-585.025 Y-127.762 Z0.000 F1800.000
G2 X-583.437 Y-126.175 Z0.000 I1.587 J0.000 K0.000 F1800.000
G1 X-458.939 Y-126.175 Z0.000 F1800.000
G3 X-458.850 Y-126.086 Z0.000 I0.034 J0.055 K0.000 F1800.000
G1 X-458.850 Y-1.587 Z0.000 F1800.000
G2 X-457.262 Y0.000 Z0.000 I1.587 J0.000 K0.000 F1800.000
G1 X-127.763 Y0.000 Z0.000 F1800.000
G2 X-126.175 Y-1.568 Z0.000 I0.000 J-1.587 K0.000 F1800.000
G1 X-126.175 Y-1.568 Z-3.200 F1400.000
G2 X-126.175 Y-1.587 Z-3.200 I-1.587 J-0.020 K0.000 F1800.000
G1 X-126.175 Y-126.086 Z-3.200 F1800.000
G3 X-126.086 Y-126.175 Z-3.200 I0.055 J-0.034 K0.000 F1800.000
G1 X-1.588 Y-126.175 Z-3.200 F1800.000
G2 X-0.000 Y-127.762 Z-3.200 I0.000 J-1.587 K0.000 F1800.000
G1 X-0.000 Y-457.262 Z-3.200 F1800.000
G2 X-1.588 Y-458.850 Z-3.200 I-1.587 J-0.000 K0.000 F1800.000
G1 X-126.086 Y-458.850 Z-3.200 F1800.000
G3 X-126.175 Y-458.939 Z-3.200 I-0.034 J-0.055 K0.000 F1800.000
G1 X-126.175 Y-583.438 Z-3.200 F1800.000
G2 X-127.763 Y-585.025 Z-3.200 I-1.587 J-0.000 K0.000 F1800.000
G1 X-457.262 Y-585.025 Z-3.200 F1800.000
G2 X-458.850 Y-583.438 Z-3.200 I-0.000 J1.587 K0.000 F1800.000
G1 X-458.850 Y-458.939 Z-3.200 F1800.000
G3 X-458.939 Y-458.850 Z-3.200 I-0.055 J0.034 K0.000 F1800.000
G1 X-583.437 Y-458.850 Z-3.200 F1800.000
G2 X-585.025 Y-457.262 Z-3.200 I-0.000 J1.587 K0.000 F1800.000
G1 X-585.025 Y-127.762 Z-3.200 F1800.000
G2 X-583.437 Y-126.175 Z-3.200 I1.587 J0.000 K0.000 F1800.000
G1 X-458.939 Y-126.175 Z-3.200 F1800.000
G3 X-458.850 Y-126.086 Z-3.200 I0.034 J0.055 K0.000 F1800.000
G1 X-458.850 Y-1.587 Z-3.200 F1800.000
G2 X-457.262 Y0.000 Z-3.200 I1.587 J0.000 K0.000 F1800.000
G1 X-127.763 Y0.000 Z-3.200 F1800.000
G2 X-126.175 Y-1.568 Z-3.200 I0.000 J-1.587 K0.000 F1800.000
G1 X-126.175 Y-1.568 Z-6.400 F1400.000
G2 X-126.175 Y-1.587 Z-6.400 I-1.587 J-0.020 K0.000 F1800.000
G1 X-126.175 Y-126.086 Z-6.400 F1800.000
G3 X-126.086 Y-126.175 Z-6.400 I0.055 J-0.034 K0.000 F1800.000
G1 X-1.588 Y-126.175 Z-6.400 F1800.000
G2 X-0.000 Y-127.762 Z-6.400 I0.000 J-1.587 K0.000 F1800.000
G1 X-0.000 Y-457.262 Z-6.400 F1800.000
G2 X-1.588 Y-458.850 Z-6.400 I-1.587 J-0.000 K0.000 F1800.000
G1 X-126.086 Y-458.850 Z-6.400 F1800.000
G3 X-126.175 Y-458.939 Z-6.400 I-0.034 J-0.055 K0.000 F1800.000
G1 X-126.175 Y-583.438 Z-6.400 F1800.000
G2 X-127.763 Y-585.025 Z-6.400 I-1.587 J-0.000 K0.000 F1800.000
G1 X-457.262 Y-585.025 Z-6.400 F1800.000
G2 X-458.850 Y-583.438 Z-6.400 I-0.000 J1.587 K0.000 F1800.000
G1 X-458.850 Y-458.939 Z-6.400 F1800.000
G3 X-458.939 Y-458.850 Z-6.400 I-0.055 J0.034 K0.000 F1800.000
G1 X-583.437 Y-458.850 Z-6.400 F1800.000
G2 X-585.025 Y-457.262 Z-6.400 I-0.000 J1.587 K0.000 F1800.000
G1 X-585.025 Y-127.762 Z-6.400 F1800.000
G2 X-583.437 Y-126.175 Z-6.400 I1.587 J0.000 K0.000 F1800.000
G1 X-458.939 Y-126.175 Z-6.400 F1800.000
G3 X-458.850 Y-126.086 Z-6.400 I0.034 J0.055 K0.000 F1800.000
G1 X-458.850 Y-1.587 Z-6.400 F1800.000
G2 X-457.262 Y0.000 Z-6.400 I1.587 J0.000 K0.000 F1800.000
G1 X-127.763 Y0.000 Z-6.400 F1800.000
G2 X-126.175 Y-1.568 Z-6.400 I0.000 J-1.587 K0.000 F1800.000
G0 Z5.000
G0 Z5.000
(Finish operation: Profile051)
(Begin postamble)
M5
G17 G90
M2
