(Exported by FreeCAD)
(Post Processor: grbl_post)
(Output Time:2024-03-02 21:59:28.727924)
(Begin preamble)
G17 G90
G21
(Begin operation: Fixture)
(Path: Fixture)
G54
(Finish operation: Fixture)
(Begin operation: 1/8th in Endmill023)
(Path: 1/8th in Endmill023)
(1/8th in Endmill023)
(Begin toolchange)
( M6 T2 )
(Finish operation: 1/8th in Endmill023)
(Begin operation: Drilling003)
(Path: Drilling003)
(Drilling003)
(Begin Drilling)
G0 Z5.000
G90
( G98 )
G0 X-115.175 Y-129.762
(G81 X-115.175 Y-129.762 Z-2.588 F1400.000 R3.000)
G0 X-115.175 Y-129.762
G0 Z3.000 F1400.00
G1 Z-2.588 F1400.00
G0 Z3.000
G0 X-129.762 Y-115.175
(G81 X-129.762 Y-115.175 Z-2.588 F1400.000 R3.000)
G0 X-129.762 Y-115.175
G0 Z3.000 F1400.00
G1 Z-2.588 F1400.00
G0 Z3.000
G0 X-455.262 Y-115.175
(G81 X-455.262 Y-115.175 Z-2.588 F1400.000 R3.000)
G0 X-455.262 Y-115.175
G0 Z3.000 F1400.00
G1 Z-2.588 F1400.00
G0 Z3.000
G0 X-469.850 Y-129.762
(G81 X-469.850 Y-129.762 Z-2.588 F1400.000 R3.000)
G0 X-469.850 Y-129.762
G0 Z3.000 F1400.00
G1 Z-2.588 F1400.00
G0 Z3.000
G0 X-469.850 Y-455.262
(G81 X-469.850 Y-455.262 Z-2.588 F1400.000 R3.000)
G0 X-469.850 Y-455.262
G0 Z3.000 F1400.00
G1 Z-2.588 F1400.00
G0 Z3.000
G0 X-455.262 Y-469.850
(G81 X-455.262 Y-469.850 Z-2.588 F1400.000 R3.000)
G0 X-455.262 Y-469.850
G0 Z3.000 F1400.00
G1 Z-2.588 F1400.00
G0 Z3.000
G0 X-129.762 Y-469.850
(G81 X-129.762 Y-469.850 Z-2.588 F1400.000 R3.000)
G0 X-129.762 Y-469.850
G0 Z3.000 F1400.00
G1 Z-2.588 F1400.00
G0 Z3.000
G0 X-115.175 Y-455.262
(G81 X-115.175 Y-455.262 Z-2.588 F1400.000 R3.000)
G0 X-115.175 Y-455.262
G0 Z3.000 F1400.00
G1 Z-2.588 F1400.00
G0 Z3.000
( G80 )
G0 Z3.000
G0 Z5.000
(Finish operation: Drilling003)
(Begin operation: Engrave001)
(Path: Engrave001)
(Engrave001)
G0 Z5.000
G0 Z5.000
G0 X-460.438 Y-126.175
G0 Z3.000
G1 X-460.438 Y-126.175 Z-1.000 F1400.000
G1 X-124.588 Y-126.175 Z-1.000 F1800.000
G0 Z5.000
G0 Z5.000
G0 X-458.850 Y-124.587
G0 Z3.000
G1 X-458.850 Y-124.587 Z-1.000 F1400.000
G1 X-458.850 Y-460.438 Z-1.000 F1800.000
G0 Z5.000
G0 Z5.000
G0 X-460.438 Y-458.850
G0 Z3.000
G1 X-460.438 Y-458.850 Z-1.000 F1400.000
G1 X-124.588 Y-458.850 Z-1.000 F1800.000
G0 Z5.000
G0 Z5.000
G0 X-126.175 Y-124.587
G0 Z3.000
G1 X-126.175 Y-124.587 Z-1.000 F1400.000
G1 X-126.175 Y-460.438 Z-1.000 F1800.000
G0 Z5.000
(Finish operation: Engrave001)
(Begin operation: Pocket_Shape003)
(Path: Pocket_Shape003)
(Pocket_Shape002)
G0 Z5.000
G0 X-87.118 Y-144.993
G0 Z3.000
G1 X-87.118 Y-144.993 Z-3.200 F1400.000
G2 X-87.748 Y-147.618 Z-3.200 I-1.119 J-1.119 K0.000 F1800.000
G2 X-89.743 Y-146.602 Z-3.200 I-0.489 J1.505 K0.000 F1800.000
G2 X-88.727 Y-144.607 Z-3.200 I1.505 J0.489 K0.000 F1800.000
G2 X-87.118 Y-144.993 Z-3.200 I0.489 J-1.505 K0.000 F1800.000
G0 Z5.000
G0 X-87.794 Y-145.669 Z5.000
G0 X-87.794 Y-145.669 Z3.000
G1 X-87.794 Y-145.669 Z-3.200 F1400.000
G2 X-88.044 Y-146.709 Z-3.200 I-0.443 J-0.443 K0.000 F1800.000
G2 X-88.431 Y-145.516 Z-3.200 I-0.194 J0.596 K0.000 F1800.000
G2 X-87.794 Y-145.669 Z-3.200 I0.194 J-0.596 K0.000 F1800.000
G1 X-87.794 Y-145.669 Z-6.400 F1400.000
G2 X-88.044 Y-146.709 Z-6.400 I-0.443 J-0.443 K0.000 F1800.000
G2 X-88.431 Y-145.516 Z-6.400 I-0.194 J0.596 K0.000 F1800.000
G2 X-87.794 Y-145.669 Z-6.400 I0.194 J-0.596 K0.000 F1800.000
G0 Z5.000
G0 X-87.118 Y-144.993 Z5.000
G0 X-87.118 Y-144.993 Z3.000
G1 X-87.118 Y-144.993 Z-6.400 F1400.000
G2 X-87.748 Y-147.618 Z-6.400 I-1.119 J-1.119 K0.000 F1800.000
G2 X-89.743 Y-146.602 Z-6.400 I-0.489 J1.505 K0.000 F1800.000
G2 X-88.727 Y-144.607 Z-6.400 I1.505 J0.489 K0.000 F1800.000
G2 X-87.118 Y-144.993 Z-6.400 I0.489 J-1.505 K0.000 F1800.000
G0 Z5.000
G0 Z5.000
G0 X-87.118 Y-144.993
G0 X-87.804 Y-156.714
G0 X-87.804 Y-156.714 Z3.000
G1 X-87.804 Y-156.714 Z-3.200 F1400.000
G2 X-86.876 Y-171.397 Z-3.200 I-0.433 J-7.398 K0.000 F1800.000
G2 X-89.599 Y-156.828 Z-3.200 I-1.362 J7.285 K0.000 F1800.000
G2 X-87.804 Y-156.714 Z-3.200 I1.362 J-7.285 K0.000 F1800.000
G0 Z5.000
G0 X-87.860 Y-157.666 Z5.000
G0 X-87.860 Y-157.666 Z3.000
G1 X-87.860 Y-157.666 Z-3.200 F1400.000
G2 X-87.051 Y-170.460 Z-3.200 I-0.377 J-6.446 K0.000 F1800.000
G2 X-89.424 Y-157.765 Z-3.200 I-1.187 J6.347 K0.000 F1800.000
G2 X-87.860 Y-157.666 Z-3.200 I1.187 J-6.347 K0.000 F1800.000
G0 Z5.000
G0 X-87.916 Y-158.618 Z5.000
G0 X-87.916 Y-158.618 Z3.000
G1 X-87.916 Y-158.618 Z-3.200 F1400.000
G2 X-87.226 Y-169.523 Z-3.200 I-0.322 J-5.494 K0.000 F1800.000
G2 X-89.249 Y-158.702 Z-3.200 I-1.011 J5.410 K0.000 F1800.000
G2 X-87.916 Y-158.618 Z-3.200 I1.011 J-5.410 K0.000 F1800.000
G0 Z5.000
G0 X-87.972 Y-159.570 Z5.000
G0 X-87.972 Y-159.570 Z3.000
G1 X-87.972 Y-159.570 Z-3.200 F1400.000
G2 X-87.401 Y-168.585 Z-3.200 I-0.266 J-4.542 K0.000 F1800.000
G2 X-89.074 Y-159.640 Z-3.200 I-0.836 J4.473 K0.000 F1800.000
G2 X-87.972 Y-159.570 Z-3.200 I0.836 J-4.473 K0.000 F1800.000
G0 Z5.000
G0 X-88.027 Y-160.522 Z5.000
G0 X-88.027 Y-160.522 Z3.000
G1 X-88.027 Y-160.522 Z-3.200 F1400.000
G2 X-87.577 Y-167.648 Z-3.200 I-0.210 J-3.591 K0.000 F1800.000
G2 X-88.898 Y-160.577 Z-3.200 I-0.661 J3.535 K0.000 F1800.000
G2 X-88.027 Y-160.522 Z-3.200 I0.661 J-3.535 K0.000 F1800.000
G0 Z5.000
G0 X-88.083 Y-161.474 Z5.000
G0 X-88.083 Y-161.474 Z3.000
G1 X-88.083 Y-161.474 Z-3.200 F1400.000
G2 X-87.752 Y-166.711 Z-3.200 I-0.154 J-2.639 K0.000 F1800.000
G2 X-88.723 Y-161.514 Z-3.200 I-0.486 J2.598 K0.000 F1800.000
G2 X-88.083 Y-161.474 Z-3.200 I0.486 J-2.598 K0.000 F1800.000
G0 Z5.000
G0 X-88.139 Y-162.426 Z5.000
G0 X-88.139 Y-162.426 Z3.000
G1 X-88.139 Y-162.426 Z-3.200 F1400.000
G2 X-87.927 Y-165.773 Z-3.200 I-0.099 J-1.687 K0.000 F1800.000
G2 X-88.548 Y-162.452 Z-3.200 I-0.310 J1.661 K0.000 F1800.000
G2 X-88.139 Y-162.426 Z-3.200 I0.310 J-1.661 K0.000 F1800.000
G0 Z5.000
G0 X-88.194 Y-163.378 Z5.000
G0 X-88.194 Y-163.378 Z3.000
G1 X-88.194 Y-163.378 Z-3.200 F1400.000
G2 X-88.102 Y-164.836 Z-3.200 I-0.043 J-0.735 K0.000 F1800.000
G2 X-88.373 Y-163.389 Z-3.200 I-0.135 J0.724 K0.000 F1800.000
G2 X-88.194 Y-163.378 Z-3.200 I0.135 J-0.724 K0.000 F1800.000
G1 X-88.194 Y-163.378 Z-6.400 F1400.000
G2 X-88.102 Y-164.836 Z-6.400 I-0.043 J-0.735 K0.000 F1800.000
G2 X-88.373 Y-163.389 Z-6.400 I-0.135 J0.724 K0.000 F1800.000
G2 X-88.194 Y-163.378 Z-6.400 I0.135 J-0.724 K0.000 F1800.000
G0 Z5.000
G0 X-88.139 Y-162.426 Z5.000
G0 X-88.139 Y-162.426 Z3.000
G1 X-88.139 Y-162.426 Z-6.400 F1400.000
G2 X-87.927 Y-165.773 Z-6.400 I-0.099 J-1.687 K0.000 F1800.000
G2 X-88.548 Y-162.452 Z-6.400 I-0.310 J1.661 K0.000 F1800.000
G2 X-88.139 Y-162.426 Z-6.400 I0.310 J-1.661 K0.000 F1800.000
G0 Z5.000
G0 X-88.083 Y-161.474 Z5.000
G0 X-88.083 Y-161.474 Z3.000
G1 X-88.083 Y-161.474 Z-6.400 F1400.000
G2 X-87.752 Y-166.711 Z-6.400 I-0.154 J-2.639 K0.000 F1800.000
G2 X-88.723 Y-161.514 Z-6.400 I-0.486 J2.598 K0.000 F1800.000
G2 X-88.083 Y-161.474 Z-6.400 I0.486 J-2.598 K0.000 F1800.000
G0 Z5.000
G0 X-88.027 Y-160.522 Z5.000
G0 X-88.027 Y-160.522 Z3.000
G1 X-88.027 Y-160.522 Z-6.400 F1400.000
G2 X-87.577 Y-167.648 Z-6.400 I-0.210 J-3.591 K0.000 F1800.000
G2 X-88.898 Y-160.577 Z-6.400 I-0.661 J3.535 K0.000 F1800.000
G2 X-88.027 Y-160.522 Z-6.400 I0.661 J-3.535 K0.000 F1800.000
G0 Z5.000
G0 X-87.972 Y-159.570 Z5.000
G0 X-87.972 Y-159.570 Z3.000
G1 X-87.972 Y-159.570 Z-6.400 F1400.000
G2 X-87.401 Y-168.585 Z-6.400 I-0.266 J-4.542 K0.000 F1800.000
G2 X-89.074 Y-159.640 Z-6.400 I-0.836 J4.473 K0.000 F1800.000
G2 X-87.972 Y-159.570 Z-6.400 I0.836 J-4.473 K0.000 F1800.000
G0 Z5.000
G0 X-87.916 Y-158.618 Z5.000
G0 X-87.916 Y-158.618 Z3.000
G1 X-87.916 Y-158.618 Z-6.400 F1400.000
G2 X-87.226 Y-169.523 Z-6.400 I-0.322 J-5.494 K0.000 F1800.000
G2 X-89.249 Y-158.702 Z-6.400 I-1.011 J5.410 K0.000 F1800.000
G2 X-87.916 Y-158.618 Z-6.400 I1.011 J-5.410 K0.000 F1800.000
G0 Z5.000
G0 X-87.860 Y-157.666 Z5.000
G0 X-87.860 Y-157.666 Z3.000
G1 X-87.860 Y-157.666 Z-6.400 F1400.000
G2 X-87.051 Y-170.460 Z-6.400 I-0.377 J-6.446 K0.000 F1800.000
G2 X-89.424 Y-157.765 Z-6.400 I-1.187 J6.347 K0.000 F1800.000
G2 X-87.860 Y-157.666 Z-6.400 I1.187 J-6.347 K0.000 F1800.000
G0 Z5.000
G0 X-87.804 Y-156.714 Z5.000
G0 X-87.804 Y-156.714 Z3.000
G1 X-87.804 Y-156.714 Z-6.400 F1400.000
G2 X-86.876 Y-171.397 Z-6.400 I-0.433 J-7.398 K0.000 F1800.000
G2 X-89.599 Y-156.828 Z-6.400 I-1.362 J7.285 K0.000 F1800.000
G2 X-87.804 Y-156.714 Z-6.400 I1.362 J-7.285 K0.000 F1800.000
G0 Z5.000
G0 Z5.000
G0 X-87.804 Y-156.714
G0 X-71.696 Y-163.498
G0 X-71.696 Y-163.498 Z3.000
G1 X-71.696 Y-163.498 Z-3.200 F1400.000
G2 X-70.727 Y-162.607 Z-3.200 I1.459 J-0.614 K0.000 F1800.000
G2 X-69.748 Y-165.618 Z-3.200 I0.489 J-1.505 K0.000 F1800.000
G2 X-71.696 Y-163.498 Z-3.200 I-0.489 J1.505 K0.000 F1800.000
G0 Z5.000
G0 X-70.815 Y-163.869 Z5.000
G0 X-70.815 Y-163.869 Z3.000
G1 X-70.815 Y-163.869 Z-3.200 F1400.000
G2 X-70.431 Y-163.516 Z-3.200 I0.578 J-0.243 K0.000 F1800.000
G2 X-70.044 Y-164.709 Z-3.200 I0.194 J-0.596 K0.000 F1800.000
G2 X-70.815 Y-163.869 Z-3.200 I-0.194 J0.596 K0.000 F1800.000
G1 X-70.815 Y-163.869 Z-6.400 F1400.000
G2 X-70.431 Y-163.516 Z-6.400 I0.578 J-0.243 K0.000 F1800.000
G2 X-70.044 Y-164.709 Z-6.400 I0.194 J-0.596 K0.000 F1800.000
G2 X-70.815 Y-163.869 Z-6.400 I-0.194 J0.596 K0.000 F1800.000
G0 Z5.000
G0 X-71.696 Y-163.498 Z5.000
G0 X-71.696 Y-163.498 Z3.000
G1 X-71.696 Y-163.498 Z-6.400 F1400.000
G2 X-70.727 Y-162.607 Z-6.400 I1.459 J-0.614 K0.000 F1800.000
G2 X-69.748 Y-165.618 Z-6.400 I0.489 J-1.505 K0.000 F1800.000
G2 X-71.696 Y-163.498 Z-6.400 I-0.489 J1.505 K0.000 F1800.000
G0 Z5.000
G0 Z5.000
G0 X-71.696 Y-163.498
G0 X-87.186 Y-180.930
G0 X-87.186 Y-180.930 Z3.000
G1 X-87.186 Y-180.930 Z-3.200 F1400.000
G2 X-87.748 Y-183.618 Z-3.200 I-1.051 J-1.183 K0.000 F1800.000
G2 X-89.743 Y-182.602 Z-3.200 I-0.489 J1.505 K0.000 F1800.000
G2 X-88.727 Y-180.607 Z-3.200 I1.505 J0.489 K0.000 F1800.000
G2 X-87.186 Y-180.930 Z-3.200 I0.489 J-1.505 K0.000 F1800.000
G0 Z5.000
G0 X-87.821 Y-181.644 Z5.000
G0 X-87.821 Y-181.644 Z3.000
G1 X-87.821 Y-181.644 Z-3.200 F1400.000
G2 X-88.044 Y-182.709 Z-3.200 I-0.417 J-0.469 K0.000 F1800.000
G2 X-88.431 Y-181.516 Z-3.200 I-0.194 J0.596 K0.000 F1800.000
G2 X-87.821 Y-181.644 Z-3.200 I0.194 J-0.596 K0.000 F1800.000
G1 X-87.821 Y-181.644 Z-6.400 F1400.000
G2 X-88.044 Y-182.709 Z-6.400 I-0.417 J-0.469 K0.000 F1800.000
G2 X-88.431 Y-181.516 Z-6.400 I-0.194 J0.596 K0.000 F1800.000
G2 X-87.821 Y-181.644 Z-6.400 I0.194 J-0.596 K0.000 F1800.000
G0 Z5.000
G0 X-87.186 Y-180.930 Z5.000
G0 X-87.186 Y-180.930 Z3.000
G1 X-87.186 Y-180.930 Z-6.400 F1400.000
G2 X-87.748 Y-183.618 Z-6.400 I-1.051 J-1.183 K0.000 F1800.000
G2 X-89.743 Y-182.602 Z-6.400 I-0.489 J1.505 K0.000 F1800.000
G2 X-88.727 Y-180.607 Z-6.400 I1.505 J0.489 K0.000 F1800.000
G2 X-87.186 Y-180.930 Z-6.400 I0.489 J-1.505 K0.000 F1800.000
G0 Z5.000
G0 Z5.000
G0 X-87.186 Y-180.930
G0 X-105.051 Y-165.160
G0 X-105.051 Y-165.160 Z3.000
G1 X-105.051 Y-165.160 Z-3.200 F1400.000
G2 X-105.748 Y-165.618 Z-3.200 I-1.186 J1.047 K0.000 F1800.000
G2 X-107.743 Y-164.602 Z-3.200 I-0.489 J1.505 K0.000 F1800.000
G2 X-106.727 Y-162.607 Z-3.200 I1.505 J0.489 K0.000 F1800.000
G2 X-105.051 Y-165.160 Z-3.200 I0.489 J-1.505 K0.000 F1800.000
G0 Z5.000
G0 X-105.767 Y-164.528 Z5.000
G0 X-105.767 Y-164.528 Z3.000
G1 X-105.767 Y-164.528 Z-3.200 F1400.000
G2 X-106.044 Y-164.709 Z-3.200 I-0.470 J0.415 K0.000 F1800.000
G2 X-106.431 Y-163.516 Z-3.200 I-0.194 J0.596 K0.000 F1800.000
G2 X-105.767 Y-164.528 Z-3.200 I0.194 J-0.596 K0.000 F1800.000
G1 X-105.767 Y-164.528 Z-6.400 F1400.000
G2 X-106.044 Y-164.709 Z-6.400 I-0.470 J0.415 K0.000 F1800.000
G2 X-106.431 Y-163.516 Z-6.400 I-0.194 J0.596 K0.000 F1800.000
G2 X-105.767 Y-164.528 Z-6.400 I0.194 J-0.596 K0.000 F1800.000
G0 Z5.000
G0 X-105.051 Y-165.160 Z5.000
G0 X-105.051 Y-165.160 Z3.000
G1 X-105.051 Y-165.160 Z-6.400 F1400.000
G2 X-105.748 Y-165.618 Z-6.400 I-1.186 J1.047 K0.000 F1800.000
G2 X-107.743 Y-164.602 Z-6.400 I-0.489 J1.505 K0.000 F1800.000
G2 X-106.727 Y-162.607 Z-6.400 I1.505 J0.489 K0.000 F1800.000
G2 X-105.051 Y-165.160 Z-6.400 I0.489 J-1.505 K0.000 F1800.000
G0 Z5.000
G0 Z5.000
G0 X-105.051 Y-165.160
G0 X-191.267 Y-97.564
G0 X-191.267 Y-97.564 Z3.000
G1 X-191.267 Y-97.564 Z-3.200 F1400.000
G2 X-192.023 Y-98.093 Z-3.200 I-1.245 J0.976 K0.000 F1800.000
G2 X-194.018 Y-97.077 Z-3.200 I-0.489 J1.505 K0.000 F1800.000
G2 X-193.002 Y-95.082 Z-3.200 I1.505 J0.489 K0.000 F1800.000
G2 X-191.267 Y-97.564 Z-3.200 I0.489 J-1.505 K0.000 F1800.000
G0 Z5.000
G0 X-192.019 Y-96.974 Z5.000
G0 X-192.019 Y-96.974 Z3.000
G1 X-192.019 Y-96.974 Z-3.200 F1400.000
G2 X-192.319 Y-97.184 Z-3.200 I-0.494 J0.387 K0.000 F1800.000
G2 X-192.706 Y-95.991 Z-3.200 I-0.194 J0.596 K0.000 F1800.000
G2 X-192.019 Y-96.974 Z-3.200 I0.194 J-0.596 K0.000 F1800.000
G1 X-192.019 Y-96.974 Z-6.400 F1400.000
G2 X-192.319 Y-97.184 Z-6.400 I-0.494 J0.387 K0.000 F1800.000
G2 X-192.706 Y-95.991 Z-6.400 I-0.194 J0.596 K0.000 F1800.000
G2 X-192.019 Y-96.974 Z-6.400 I0.194 J-0.596 K0.000 F1800.000
G0 Z5.000
G0 X-191.267 Y-97.564 Z5.000
G0 X-191.267 Y-97.564 Z3.000
G1 X-191.267 Y-97.564 Z-6.400 F1400.000
G2 X-192.023 Y-98.093 Z-6.400 I-1.245 J0.976 K0.000 F1800.000
G2 X-194.018 Y-97.077 Z-6.400 I-0.489 J1.505 K0.000 F1800.000
G2 X-193.002 Y-95.082 Z-6.400 I1.505 J0.489 K0.000 F1800.000
G2 X-191.267 Y-97.564 Z-6.400 I0.489 J-1.505 K0.000 F1800.000
G0 Z5.000
G0 Z5.000
G0 X-191.267 Y-97.564
G0 X-192.485 Y-28.170
G0 X-192.485 Y-28.170 Z3.000
G1 X-192.485 Y-28.170 Z-3.200 F1400.000
G2 X-193.002 Y-25.082 Z-3.200 I-0.028 J1.582 K0.000 F1800.000
G2 X-192.023 Y-28.093 Z-3.200 I0.489 J-1.505 K0.000 F1800.000
G2 X-192.485 Y-28.170 Z-3.200 I-0.489 J1.505 K0.000 F1800.000
G0 Z5.000
G0 X-192.501 Y-27.215 Z5.000
G0 X-192.501 Y-27.215 Z3.000
G1 X-192.501 Y-27.215 Z-3.200 F1400.000
G2 X-192.706 Y-25.991 Z-3.200 I-0.011 J0.627 K0.000 F1800.000
G2 X-192.319 Y-27.184 Z-3.200 I0.194 J-0.596 K0.000 F1800.000
G2 X-192.501 Y-27.215 Z-3.200 I-0.194 J0.596 K0.000 F1800.000
G1 X-192.501 Y-27.215 Z-6.400 F1400.000
G2 X-192.706 Y-25.991 Z-6.400 I-0.011 J0.627 K0.000 F1800.000
G2 X-192.319 Y-27.184 Z-6.400 I0.194 J-0.596 K0.000 F1800.000
G2 X-192.501 Y-27.215 Z-6.400 I-0.194 J0.596 K0.000 F1800.000
G0 Z5.000
G0 X-192.485 Y-28.170 Z5.000
G0 X-192.485 Y-28.170 Z3.000
G1 X-192.485 Y-28.170 Z-6.400 F1400.000
G2 X-193.002 Y-25.082 Z-6.400 I-0.028 J1.582 K0.000 F1800.000
G2 X-192.023 Y-28.093 Z-6.400 I0.489 J-1.505 K0.000 F1800.000
G2 X-192.485 Y-28.170 Z-6.400 I-0.489 J1.505 K0.000 F1800.000
G0 Z5.000
G0 Z5.000
G0 X-192.485 Y-28.170
G0 X-390.930 Y-26.600
G0 X-390.930 Y-26.600 Z3.000
G1 X-390.930 Y-26.600 Z-3.200 F1400.000
G2 X-392.023 Y-28.093 Z-3.200 I-1.583 J0.013 K0.000 F1800.000
G2 X-394.018 Y-27.077 Z-3.200 I-0.489 J1.505 K0.000 F1800.000
G2 X-393.002 Y-25.082 Z-3.200 I1.505 J0.489 K0.000 F1800.000
G2 X-390.930 Y-26.600 Z-3.200 I0.489 J-1.505 K0.000 F1800.000
G0 Z5.000
G0 X-391.885 Y-26.592 Z5.000
G0 X-391.885 Y-26.592 Z3.000
G1 X-391.885 Y-26.592 Z-3.200 F1400.000
G2 X-392.319 Y-27.184 Z-3.200 I-0.627 J0.005 K0.000 F1800.000
G2 X-392.706 Y-25.991 Z-3.200 I-0.194 J0.596 K0.000 F1800.000
G2 X-391.885 Y-26.592 Z-3.200 I0.194 J-0.596 K0.000 F1800.000
G1 X-391.885 Y-26.592 Z-6.400 F1400.000
G2 X-392.319 Y-27.184 Z-6.400 I-0.627 J0.005 K0.000 F1800.000
G2 X-392.706 Y-25.991 Z-6.400 I-0.194 J0.596 K0.000 F1800.000
G2 X-391.885 Y-26.592 Z-6.400 I0.194 J-0.596 K0.000 F1800.000
G0 Z5.000
G0 X-390.930 Y-26.600 Z5.000
G0 X-390.930 Y-26.600 Z3.000
G1 X-390.930 Y-26.600 Z-6.400 F1400.000
G2 X-392.023 Y-28.093 Z-6.400 I-1.583 J0.013 K0.000 F1800.000
G2 X-394.018 Y-27.077 Z-6.400 I-0.489 J1.505 K0.000 F1800.000
G2 X-393.002 Y-25.082 Z-6.400 I1.505 J0.489 K0.000 F1800.000
G2 X-390.930 Y-26.600 Z-6.400 I0.489 J-1.505 K0.000 F1800.000
G0 Z5.000
G0 Z5.000
G0 X-390.930 Y-26.600
G0 X-392.477 Y-95.005
G0 X-392.477 Y-95.005 Z3.000
G1 X-392.477 Y-95.005 Z-3.200 F1400.000
G2 X-392.023 Y-98.093 Z-3.200 I-0.036 J-1.582 K0.000 F1800.000
G2 X-394.018 Y-97.077 Z-3.200 I-0.489 J1.505 K0.000 F1800.000
G2 X-393.002 Y-95.082 Z-3.200 I1.505 J0.489 K0.000 F1800.000
G2 X-392.477 Y-95.005 Z-3.200 I0.489 J-1.505 K0.000 F1800.000
G0 Z5.000
G0 X-392.498 Y-95.961 Z5.000
G0 X-392.498 Y-95.961 Z3.000
G1 X-392.498 Y-95.961 Z-3.200 F1400.000
G2 X-392.319 Y-97.184 Z-3.200 I-0.014 J-0.627 K0.000 F1800.000
G2 X-392.706 Y-95.991 Z-3.200 I-0.194 J0.596 K0.000 F1800.000
G2 X-392.498 Y-95.961 Z-3.200 I0.194 J-0.596 K0.000 F1800.000
G1 X-392.498 Y-95.961 Z-6.400 F1400.000
G2 X-392.319 Y-97.184 Z-6.400 I-0.014 J-0.627 K0.000 F1800.000
G2 X-392.706 Y-95.991 Z-6.400 I-0.194 J0.596 K0.000 F1800.000
G2 X-392.498 Y-95.961 Z-6.400 I0.194 J-0.596 K0.000 F1800.000
G0 Z5.000
G0 X-392.477 Y-95.005 Z5.000
G0 X-392.477 Y-95.005 Z3.000
G1 X-392.477 Y-95.005 Z-6.400 F1400.000
G2 X-392.023 Y-98.093 Z-6.400 I-0.036 J-1.582 K0.000 F1800.000
G2 X-394.018 Y-97.077 Z-6.400 I-0.489 J1.505 K0.000 F1800.000
G2 X-393.002 Y-95.082 Z-6.400 I1.505 J0.489 K0.000 F1800.000
G2 X-392.477 Y-95.005 Z-6.400 I0.489 J-1.505 K0.000 F1800.000
G0 Z5.000
G0 Z5.000
G0 X-392.477 Y-95.005
G0 X-477.552 Y-163.123
G0 X-477.552 Y-163.123 Z3.000
G1 X-477.552 Y-163.123 Z-3.200 F1400.000
G2 X-478.298 Y-165.618 Z-3.200 I-1.235 J-0.989 K0.000 F1800.000
G2 X-480.293 Y-164.602 Z-3.200 I-0.489 J1.505 K0.000 F1800.000
G2 X-479.277 Y-162.607 Z-3.200 I1.505 J0.489 K0.000 F1800.000
G2 X-477.552 Y-163.123 Z-3.200 I0.489 J-1.505 K0.000 F1800.000
G0 Z5.000
G0 X-478.298 Y-163.721 Z5.000
G0 X-478.298 Y-163.721 Z3.000
G1 X-478.298 Y-163.721 Z-3.200 F1400.000
G2 X-478.594 Y-164.709 Z-3.200 I-0.490 J-0.392 K0.000 F1800.000
G2 X-478.981 Y-163.516 Z-3.200 I-0.194 J0.596 K0.000 F1800.000
G2 X-478.298 Y-163.721 Z-3.200 I0.194 J-0.596 K0.000 F1800.000
G1 X-478.298 Y-163.721 Z-6.400 F1400.000
G2 X-478.594 Y-164.709 Z-6.400 I-0.490 J-0.392 K0.000 F1800.000
G2 X-478.981 Y-163.516 Z-6.400 I-0.194 J0.596 K0.000 F1800.000
G2 X-478.298 Y-163.721 Z-6.400 I0.194 J-0.596 K0.000 F1800.000
G0 Z5.000
G0 X-477.552 Y-163.123 Z5.000
G0 X-477.552 Y-163.123 Z3.000
G1 X-477.552 Y-163.123 Z-6.400 F1400.000
G2 X-478.298 Y-165.618 Z-6.400 I-1.235 J-0.989 K0.000 F1800.000
G2 X-480.293 Y-164.602 Z-6.400 I-0.489 J1.505 K0.000 F1800.000
G2 X-479.277 Y-162.607 Z-6.400 I1.505 J0.489 K0.000 F1800.000
G2 X-477.552 Y-163.123 Z-6.400 I0.489 J-1.505 K0.000 F1800.000
G0 Z5.000
G0 Z5.000
G0 X-477.552 Y-163.123
G0 X-489.386 Y-163.732
G0 X-489.386 Y-163.732 Z3.000
G1 X-489.386 Y-163.732 Z-3.200 F1400.000
G2 X-495.426 Y-171.397 Z-3.200 I-7.401 J-0.381 K0.000 F1800.000
G2 X-498.149 Y-156.828 Z-3.200 I-1.362 J7.285 K0.000 F1800.000
G2 X-489.386 Y-163.732 Z-3.200 I1.362 J-7.285 K0.000 F1800.000
G0 Z5.000
G0 X-490.339 Y-163.781 Z5.000
G0 X-490.339 Y-163.781 Z3.000
G1 X-490.339 Y-163.781 Z-3.200 F1400.000
G2 X-495.601 Y-170.460 Z-3.200 I-6.449 J-0.332 K0.000 F1800.000
G2 X-497.974 Y-157.765 Z-3.200 I-1.187 J6.347 K0.000 F1800.000
G2 X-490.339 Y-163.781 Z-3.200 I1.187 J-6.347 K0.000 F1800.000
G0 Z5.000
G0 X-491.291 Y-163.830 Z5.000
G0 X-491.291 Y-163.830 Z3.000
G1 X-491.291 Y-163.830 Z-3.200 F1400.000
G2 X-495.776 Y-169.523 Z-3.200 I-5.497 J-0.283 K0.000 F1800.000
G2 X-497.799 Y-158.702 Z-3.200 I-1.011 J5.410 K0.000 F1800.000
G2 X-491.291 Y-163.830 Z-3.200 I1.011 J-5.410 K0.000 F1800.000
G0 Z5.000
G0 X-492.243 Y-163.879 Z5.000
G0 X-492.243 Y-163.879 Z3.000
G1 X-492.243 Y-163.879 Z-3.200 F1400.000
G2 X-495.951 Y-168.585 Z-3.200 I-4.544 J-0.234 K0.000 F1800.000
G2 X-497.624 Y-159.640 Z-3.200 I-0.836 J4.473 K0.000 F1800.000
G2 X-492.243 Y-163.879 Z-3.200 I0.836 J-4.473 K0.000 F1800.000
G0 Z5.000
G0 X-493.196 Y-163.928 Z5.000
G0 X-493.196 Y-163.928 Z3.000
G1 X-493.196 Y-163.928 Z-3.200 F1400.000
G2 X-496.127 Y-167.648 Z-3.200 I-3.592 J-0.185 K0.000 F1800.000
G2 X-497.448 Y-160.577 Z-3.200 I-0.661 J3.535 K0.000 F1800.000
G2 X-493.196 Y-163.928 Z-3.200 I0.661 J-3.535 K0.000 F1800.000
G0 Z5.000
G0 X-494.148 Y-163.977 Z5.000
G0 X-494.148 Y-163.977 Z3.000
G1 X-494.148 Y-163.977 Z-3.200 F1400.000
G2 X-496.302 Y-166.711 Z-3.200 I-2.640 J-0.136 K0.000 F1800.000
G2 X-497.273 Y-161.514 Z-3.200 I-0.486 J2.598 K0.000 F1800.000
G2 X-494.148 Y-163.977 Z-3.200 I0.486 J-2.598 K0.000 F1800.000
G0 Z5.000
G0 X-495.100 Y-164.026 Z5.000
G0 X-495.100 Y-164.026 Z3.000
G1 X-495.100 Y-164.026 Z-3.200 F1400.000
G2 X-496.477 Y-165.773 Z-3.200 I-1.687 J-0.087 K0.000 F1800.000
G2 X-497.098 Y-162.452 Z-3.200 I-0.310 J1.661 K0.000 F1800.000
G2 X-495.100 Y-164.026 Z-3.200 I0.310 J-1.661 K0.000 F1800.000
G0 Z5.000
G0 X-496.052 Y-164.075 Z5.000
G0 X-496.052 Y-164.075 Z3.000
G1 X-496.052 Y-164.075 Z-3.200 F1400.000
G2 X-496.652 Y-164.836 Z-3.200 I-0.735 J-0.038 K0.000 F1800.000
G2 X-496.923 Y-163.389 Z-3.200 I-0.135 J0.724 K0.000 F1800.000
G2 X-496.052 Y-164.075 Z-3.200 I0.135 J-0.724 K0.000 F1800.000
G1 X-496.052 Y-164.075 Z-6.400 F1400.000
G2 X-496.652 Y-164.836 Z-6.400 I-0.735 J-0.038 K0.000 F1800.000
G2 X-496.923 Y-163.389 Z-6.400 I-0.135 J0.724 K0.000 F1800.000
G2 X-496.052 Y-164.075 Z-6.400 I0.135 J-0.724 K0.000 F1800.000
G0 Z5.000
G0 X-495.100 Y-164.026 Z5.000
G0 X-495.100 Y-164.026 Z3.000
G1 X-495.100 Y-164.026 Z-6.400 F1400.000
G2 X-496.477 Y-165.773 Z-6.400 I-1.687 J-0.087 K0.000 F1800.000
G2 X-497.098 Y-162.452 Z-6.400 I-0.310 J1.661 K0.000 F1800.000
G2 X-495.100 Y-164.026 Z-6.400 I0.310 J-1.661 K0.000 F1800.000
G0 Z5.000
G0 X-494.148 Y-163.977 Z5.000
G0 X-494.148 Y-163.977 Z3.000
G1 X-494.148 Y-163.977 Z-6.400 F1400.000
G2 X-496.302 Y-166.711 Z-6.400 I-2.640 J-0.136 K0.000 F1800.000
G2 X-497.273 Y-161.514 Z-6.400 I-0.486 J2.598 K0.000 F1800.000
G2 X-494.148 Y-163.977 Z-6.400 I0.486 J-2.598 K0.000 F1800.000
G0 Z5.000
G0 X-493.196 Y-163.928 Z5.000
G0 X-493.196 Y-163.928 Z3.000
G1 X-493.196 Y-163.928 Z-6.400 F1400.000
G2 X-496.127 Y-167.648 Z-6.400 I-3.592 J-0.185 K0.000 F1800.000
G2 X-497.448 Y-160.577 Z-6.400 I-0.661 J3.535 K0.000 F1800.000
G2 X-493.196 Y-163.928 Z-6.400 I0.661 J-3.535 K0.000 F1800.000
G0 Z5.000
G0 X-492.243 Y-163.879 Z5.000
G0 X-492.243 Y-163.879 Z3.000
G1 X-492.243 Y-163.879 Z-6.400 F1400.000
G2 X-495.951 Y-168.585 Z-6.400 I-4.544 J-0.234 K0.000 F1800.000
G2 X-497.624 Y-159.640 Z-6.400 I-0.836 J4.473 K0.000 F1800.000
G2 X-492.243 Y-163.879 Z-6.400 I0.836 J-4.473 K0.000 F1800.000
G0 Z5.000
G0 X-491.291 Y-163.830 Z5.000
G0 X-491.291 Y-163.830 Z3.000
G1 X-491.291 Y-163.830 Z-6.400 F1400.000
G2 X-495.776 Y-169.523 Z-6.400 I-5.497 J-0.283 K0.000 F1800.000
G2 X-497.799 Y-158.702 Z-6.400 I-1.011 J5.410 K0.000 F1800.000
G2 X-491.291 Y-163.830 Z-6.400 I1.011 J-5.410 K0.000 F1800.000
G0 Z5.000
G0 X-490.339 Y-163.781 Z5.000
G0 X-490.339 Y-163.781 Z3.000
G1 X-490.339 Y-163.781 Z-6.400 F1400.000
G2 X-495.601 Y-170.460 Z-6.400 I-6.449 J-0.332 K0.000 F1800.000
G2 X-497.974 Y-157.765 Z-6.400 I-1.187 J6.347 K0.000 F1800.000
G2 X-490.339 Y-163.781 Z-6.400 I1.187 J-6.347 K0.000 F1800.000
G0 Z5.000
G0 X-489.386 Y-163.732 Z5.000
G0 X-489.386 Y-163.732 Z3.000
G1 X-489.386 Y-163.732 Z-6.400 F1400.000
G2 X-495.426 Y-171.397 Z-6.400 I-7.401 J-0.381 K0.000 F1800.000
G2 X-498.149 Y-156.828 Z-6.400 I-1.362 J7.285 K0.000 F1800.000
G2 X-489.386 Y-163.732 Z-6.400 I1.362 J-7.285 K0.000 F1800.000
G0 Z5.000
G0 Z5.000
G0 X-489.386 Y-163.732
G0 X-496.175 Y-147.572
G0 X-496.175 Y-147.572 Z3.000
G1 X-496.175 Y-147.572 Z-3.200 F1400.000
G2 X-496.298 Y-147.618 Z-3.200 I-0.613 J1.459 K0.000 F1800.000
G2 X-498.293 Y-146.602 Z-3.200 I-0.489 J1.505 K0.000 F1800.000
G2 X-497.277 Y-144.607 Z-3.200 I1.505 J0.489 K0.000 F1800.000
G2 X-496.175 Y-147.572 Z-3.200 I0.489 J-1.505 K0.000 F1800.000
G0 Z5.000
G0 X-496.545 Y-146.691 Z5.000
G0 X-496.545 Y-146.691 Z3.000
G1 X-496.545 Y-146.691 Z-3.200 F1400.000
G2 X-496.594 Y-146.709 Z-3.200 I-0.243 J0.578 K0.000 F1800.000
G2 X-496.981 Y-145.516 Z-3.200 I-0.194 J0.596 K0.000 F1800.000
G2 X-496.545 Y-146.691 Z-3.200 I0.194 J-0.596 K0.000 F1800.000
G1 X-496.545 Y-146.691 Z-6.400 F1400.000
G2 X-496.594 Y-146.709 Z-6.400 I-0.243 J0.578 K0.000 F1800.000
G2 X-496.981 Y-145.516 Z-6.400 I-0.194 J0.596 K0.000 F1800.000
G2 X-496.545 Y-146.691 Z-6.400 I0.194 J-0.596 K0.000 F1800.000
G0 Z5.000
G0 X-496.175 Y-147.572 Z5.000
G0 X-496.175 Y-147.572 Z3.000
G1 X-496.175 Y-147.572 Z-6.400 F1400.000
G2 X-496.298 Y-147.618 Z-6.400 I-0.613 J1.459 K0.000 F1800.000
G2 X-498.293 Y-146.602 Z-6.400 I-0.489 J1.505 K0.000 F1800.000
G2 X-497.277 Y-144.607 Z-6.400 I1.505 J0.489 K0.000 F1800.000
G2 X-496.175 Y-147.572 Z-6.400 I0.489 J-1.505 K0.000 F1800.000
G0 Z5.000
G0 Z5.000
G0 X-496.175 Y-147.572
G0 X-513.605 Y-163.061
G0 X-513.605 Y-163.061 Z3.000
G1 X-513.605 Y-163.061 Z-3.200 F1400.000
G2 X-514.298 Y-165.618 Z-3.200 I-1.183 J-1.051 K0.000 F1800.000
G2 X-516.293 Y-164.602 Z-3.200 I-0.489 J1.505 K0.000 F1800.000
G2 X-515.277 Y-162.607 Z-3.200 I1.505 J0.489 K0.000 F1800.000
G2 X-513.605 Y-163.061 Z-3.200 I0.489 J-1.505 K0.000 F1800.000
G0 Z5.000
G0 X-514.319 Y-163.696 Z5.000
G0 X-514.319 Y-163.696 Z3.000
G1 X-514.319 Y-163.696 Z-3.200 F1400.000
G2 X-514.594 Y-164.709 Z-3.200 I-0.469 J-0.417 K0.000 F1800.000
G2 X-514.981 Y-163.516 Z-3.200 I-0.194 J0.596 K0.000 F1800.000
G2 X-514.319 Y-163.696 Z-3.200 I0.194 J-0.596 K0.000 F1800.000
G1 X-514.319 Y-163.696 Z-6.400 F1400.000
G2 X-514.594 Y-164.709 Z-6.400 I-0.469 J-0.417 K0.000 F1800.000
G2 X-514.981 Y-163.516 Z-6.400 I-0.194 J0.596 K0.000 F1800.000
G2 X-514.319 Y-163.696 Z-6.400 I0.194 J-0.596 K0.000 F1800.000
G0 Z5.000
G0 X-513.605 Y-163.061 Z5.000
G0 X-513.605 Y-163.061 Z3.000
G1 X-513.605 Y-163.061 Z-6.400 F1400.000
G2 X-514.298 Y-165.618 Z-6.400 I-1.183 J-1.051 K0.000 F1800.000
G2 X-516.293 Y-164.602 Z-6.400 I-0.489 J1.505 K0.000 F1800.000
G2 X-515.277 Y-162.607 Z-6.400 I1.505 J0.489 K0.000 F1800.000
G2 X-513.605 Y-163.061 Z-6.400 I0.489 J-1.505 K0.000 F1800.000
G0 Z5.000
G0 Z5.000
G0 X-513.605 Y-163.061
G0 X-497.835 Y-180.926
G0 X-497.835 Y-180.926 Z3.000
G1 X-497.835 Y-180.926 Z-3.200 F1400.000
G2 X-497.277 Y-180.607 Z-3.200 I1.047 J-1.186 K0.000 F1800.000
G2 X-496.298 Y-183.618 Z-3.200 I0.489 J-1.505 K0.000 F1800.000
G2 X-497.835 Y-180.926 Z-3.200 I-0.489 J1.505 K0.000 F1800.000
G0 Z5.000
G0 X-497.203 Y-181.642 Z5.000
G0 X-497.203 Y-181.642 Z3.000
G1 X-497.203 Y-181.642 Z-3.200 F1400.000
G2 X-496.981 Y-181.516 Z-3.200 I0.415 J-0.470 K0.000 F1800.000
G2 X-496.594 Y-182.709 Z-3.200 I0.194 J-0.596 K0.000 F1800.000
G2 X-497.203 Y-181.642 Z-3.200 I-0.194 J0.596 K0.000 F1800.000
G1 X-497.203 Y-181.642 Z-6.400 F1400.000
G2 X-496.981 Y-181.516 Z-6.400 I0.415 J-0.470 K0.000 F1800.000
G2 X-496.594 Y-182.709 Z-6.400 I0.194 J-0.596 K0.000 F1800.000
G2 X-497.203 Y-181.642 Z-6.400 I-0.194 J0.596 K0.000 F1800.000
G0 Z5.000
G0 X-497.835 Y-180.926 Z5.000
G0 X-497.835 Y-180.926 Z3.000
G1 X-497.835 Y-180.926 Z-6.400 F1400.000
G2 X-497.277 Y-180.607 Z-6.400 I1.047 J-1.186 K0.000 F1800.000
G2 X-496.298 Y-183.618 Z-6.400 I0.489 J-1.505 K0.000 F1800.000
G2 X-497.835 Y-180.926 Z-6.400 I-0.489 J1.505 K0.000 F1800.000
G0 Z5.000
G0 Z5.000
G0 X-497.835 Y-180.926
G0 X-488.570 Y-290.935
G0 X-488.570 Y-290.935 Z3.000
G1 X-488.570 Y-290.935 Z-3.200 F1400.000
G2 X-487.948 Y-294.018 Z-3.200 I0.133 J-1.577 K0.000 F1800.000
G2 X-489.943 Y-293.002 Z-3.200 I-0.489 J1.505 K0.000 F1800.000
G2 X-488.927 Y-291.007 Z-3.200 I1.505 J0.489 K0.000 F1800.000
G2 X-488.570 Y-290.935 Z-3.200 I0.489 J-1.505 K0.000 F1800.000
G0 Z5.000
G0 X-488.490 Y-291.888 Z5.000
G0 X-488.490 Y-291.888 Z3.000
G1 X-488.490 Y-291.888 Z-3.200 F1400.000
G2 X-488.244 Y-293.109 Z-3.200 I0.053 J-0.625 K0.000 F1800.000
G2 X-488.631 Y-291.916 Z-3.200 I-0.194 J0.596 K0.000 F1800.000
G2 X-488.490 Y-291.888 Z-3.200 I0.194 J-0.596 K0.000 F1800.000
G1 X-488.490 Y-291.888 Z-6.400 F1400.000
G2 X-488.244 Y-293.109 Z-6.400 I0.053 J-0.625 K0.000 F1800.000
G2 X-488.631 Y-291.916 Z-6.400 I-0.194 J0.596 K0.000 F1800.000
G2 X-488.490 Y-291.888 Z-6.400 I0.194 J-0.596 K0.000 F1800.000
G0 Z5.000
G0 X-488.570 Y-290.935 Z5.000
G0 X-488.570 Y-290.935 Z3.000
G1 X-488.570 Y-290.935 Z-6.400 F1400.000
G2 X-487.948 Y-294.018 Z-6.400 I0.133 J-1.577 K0.000 F1800.000
G2 X-489.943 Y-293.002 Z-6.400 I-0.489 J1.505 K0.000 F1800.000
G2 X-488.927 Y-291.007 Z-6.400 I1.505 J0.489 K0.000 F1800.000
G2 X-488.570 Y-290.935 Z-6.400 I0.489 J-1.505 K0.000 F1800.000
G0 Z5.000
G0 Z5.000
G0 X-488.570 Y-290.935
G0 X-556.855 Y-292.477
G0 X-556.855 Y-292.477 Z3.000
G1 X-556.855 Y-292.477 Z-3.200 F1400.000
G2 X-557.948 Y-294.018 Z-3.200 I-1.582 J-0.036 K0.000 F1800.000
G2 X-559.943 Y-293.002 Z-3.200 I-0.489 J1.505 K0.000 F1800.000
G2 X-558.927 Y-291.007 Z-3.200 I1.505 J0.489 K0.000 F1800.000
G2 X-556.855 Y-292.477 Z-3.200 I0.489 J-1.505 K0.000 F1800.000
G0 Z5.000
G0 X-557.811 Y-292.498 Z5.000
G0 X-557.811 Y-292.498 Z3.000
G1 X-557.811 Y-292.498 Z-3.200 F1400.000
G2 X-558.244 Y-293.109 Z-3.200 I-0.627 J-0.014 K0.000 F1800.000
G2 X-558.631 Y-291.916 Z-3.200 I-0.194 J0.596 K0.000 F1800.000
G2 X-557.811 Y-292.498 Z-3.200 I0.194 J-0.596 K0.000 F1800.000
G1 X-557.811 Y-292.498 Z-6.400 F1400.000
G2 X-558.244 Y-293.109 Z-6.400 I-0.627 J-0.014 K0.000 F1800.000
G2 X-558.631 Y-291.916 Z-6.400 I-0.194 J0.596 K0.000 F1800.000
G2 X-557.811 Y-292.498 Z-6.400 I0.194 J-0.596 K0.000 F1800.000
G0 Z5.000
G0 X-556.855 Y-292.477 Z5.000
G0 X-556.855 Y-292.477 Z3.000
G1 X-556.855 Y-292.477 Z-6.400 F1400.000
G2 X-557.948 Y-294.018 Z-6.400 I-1.582 J-0.036 K0.000 F1800.000
G2 X-559.943 Y-293.002 Z-6.400 I-0.489 J1.505 K0.000 F1800.000
G2 X-558.927 Y-291.007 Z-6.400 I1.505 J0.489 K0.000 F1800.000
G2 X-556.855 Y-292.477 Z-6.400 I0.489 J-1.505 K0.000 F1800.000
G0 Z5.000
G0 Z5.000
G0 X-556.855 Y-292.477
G0 X-497.544 Y-401.522
G0 X-497.544 Y-401.522 Z3.000
G1 X-497.544 Y-401.522 Z-3.200 F1400.000
G2 X-497.277 Y-401.407 Z-3.200 I0.756 J-1.390 K0.000 F1800.000
G2 X-496.298 Y-404.418 Z-3.200 I0.489 J-1.505 K0.000 F1800.000
G2 X-497.544 Y-401.522 Z-3.200 I-0.489 J1.505 K0.000 F1800.000
G0 Z5.000
G0 X-497.087 Y-402.362 Z5.000
G0 X-497.087 Y-402.362 Z3.000
G1 X-497.087 Y-402.362 Z-3.200 F1400.000
G2 X-496.981 Y-402.316 Z-3.200 I0.300 J-0.551 K0.000 F1800.000
G2 X-496.594 Y-403.509 Z-3.200 I0.194 J-0.596 K0.000 F1800.000
G2 X-497.087 Y-402.362 Z-3.200 I-0.194 J0.596 K0.000 F1800.000
G1 X-497.087 Y-402.362 Z-6.400 F1400.000
G2 X-496.981 Y-402.316 Z-6.400 I0.300 J-0.551 K0.000 F1800.000
G2 X-496.594 Y-403.509 Z-6.400 I0.194 J-0.596 K0.000 F1800.000
G2 X-497.087 Y-402.362 Z-6.400 I-0.194 J0.596 K0.000 F1800.000
G0 Z5.000
G0 X-497.544 Y-401.522 Z5.000
G0 X-497.544 Y-401.522 Z3.000
G1 X-497.544 Y-401.522 Z-6.400 F1400.000
G2 X-497.277 Y-401.407 Z-6.400 I0.756 J-1.390 K0.000 F1800.000
G2 X-496.298 Y-404.418 Z-6.400 I0.489 J-1.505 K0.000 F1800.000
G2 X-497.544 Y-401.522 Z-6.400 I-0.489 J1.505 K0.000 F1800.000
G0 Z5.000
G0 Z5.000
G0 X-497.544 Y-401.522
G0 X-497.076 Y-413.507
G0 X-497.076 Y-413.507 Z3.000
G1 X-497.076 Y-413.507 Z-3.200 F1400.000
G2 X-495.426 Y-428.197 Z-3.200 I0.289 J-7.405 K0.000 F1800.000
G2 X-498.149 Y-413.628 Z-3.200 I-1.362 J7.285 K0.000 F1800.000
G2 X-497.076 Y-413.507 Z-3.200 I1.362 J-7.285 K0.000 F1800.000
G0 Z5.000
G0 X-497.039 Y-414.460 Z5.000
G0 X-497.039 Y-414.460 Z3.000
G1 X-497.039 Y-414.460 Z-3.200 F1400.000
G2 X-495.601 Y-427.260 Z-3.200 I0.252 J-6.452 K0.000 F1800.000
G2 X-497.974 Y-414.565 Z-3.200 I-1.187 J6.347 K0.000 F1800.000
G2 X-497.039 Y-414.460 Z-3.200 I1.187 J-6.347 K0.000 F1800.000
G0 Z5.000
G0 X-497.002 Y-415.413 Z5.000
G0 X-497.002 Y-415.413 Z3.000
G1 X-497.002 Y-415.413 Z-3.200 F1400.000
G2 X-495.776 Y-426.323 Z-3.200 I0.214 J-5.500 K0.000 F1800.000
G2 X-497.799 Y-415.502 Z-3.200 I-1.011 J5.410 K0.000 F1800.000
G2 X-497.002 Y-415.413 Z-3.200 I1.011 J-5.410 K0.000 F1800.000
G0 Z5.000
G0 X-496.965 Y-416.366 Z5.000
G0 X-496.965 Y-416.366 Z3.000
G1 X-496.965 Y-416.366 Z-3.200 F1400.000
G2 X-495.951 Y-425.385 Z-3.200 I0.177 J-4.547 K0.000 F1800.000
G2 X-497.624 Y-416.440 Z-3.200 I-0.836 J4.473 K0.000 F1800.000
G2 X-496.965 Y-416.366 Z-3.200 I0.836 J-4.473 K0.000 F1800.000
G0 Z5.000
G0 X-496.928 Y-417.318 Z5.000
G0 X-496.928 Y-417.318 Z3.000
G1 X-496.928 Y-417.318 Z-3.200 F1400.000
G2 X-496.127 Y-424.448 Z-3.200 I0.140 J-3.594 K0.000 F1800.000
G2 X-497.448 Y-417.377 Z-3.200 I-0.661 J3.535 K0.000 F1800.000
G2 X-496.928 Y-417.318 Z-3.200 I0.661 J-3.535 K0.000 F1800.000
G0 Z5.000
G0 X-496.891 Y-418.271 Z5.000
G0 X-496.891 Y-418.271 Z3.000
G1 X-496.891 Y-418.271 Z-3.200 F1400.000
G2 X-496.302 Y-423.511 Z-3.200 I0.103 J-2.641 K0.000 F1800.000
G2 X-497.273 Y-418.314 Z-3.200 I-0.486 J2.598 K0.000 F1800.000
G2 X-496.891 Y-418.271 Z-3.200 I0.486 J-2.598 K0.000 F1800.000
G0 Z5.000
G0 X-496.853 Y-419.224 Z5.000
G0 X-496.853 Y-419.224 Z3.000
G1 X-496.853 Y-419.224 Z-3.200 F1400.000
G2 X-496.477 Y-422.573 Z-3.200 I0.066 J-1.688 K0.000 F1800.000
G2 X-497.098 Y-419.252 Z-3.200 I-0.310 J1.661 K0.000 F1800.000
G2 X-496.853 Y-419.224 Z-3.200 I0.310 J-1.661 K0.000 F1800.000
G0 Z5.000
G0 X-496.816 Y-420.177 Z5.000
G0 X-496.816 Y-420.177 Z3.000
G1 X-496.816 Y-420.177 Z-3.200 F1400.000
G2 X-496.652 Y-421.636 Z-3.200 I0.029 J-0.736 K0.000 F1800.000
G2 X-496.923 Y-420.189 Z-3.200 I-0.135 J0.724 K0.000 F1800.000
G2 X-496.816 Y-420.177 Z-3.200 I0.135 J-0.724 K0.000 F1800.000
G1 X-496.816 Y-420.177 Z-6.400 F1400.000
G2 X-496.652 Y-421.636 Z-6.400 I0.029 J-0.736 K0.000 F1800.000
G2 X-496.923 Y-420.189 Z-6.400 I-0.135 J0.724 K0.000 F1800.000
G2 X-496.816 Y-420.177 Z-6.400 I0.135 J-0.724 K0.000 F1800.000
G0 Z5.000
G0 X-496.853 Y-419.224 Z5.000
G0 X-496.853 Y-419.224 Z3.000
G1 X-496.853 Y-419.224 Z-6.400 F1400.000
G2 X-496.477 Y-422.573 Z-6.400 I0.066 J-1.688 K0.000 F1800.000
G2 X-497.098 Y-419.252 Z-6.400 I-0.310 J1.661 K0.000 F1800.000
G2 X-496.853 Y-419.224 Z-6.400 I0.310 J-1.661 K0.000 F1800.000
G0 Z5.000
G0 X-496.891 Y-418.271 Z5.000
G0 X-496.891 Y-418.271 Z3.000
G1 X-496.891 Y-418.271 Z-6.400 F1400.000
G2 X-496.302 Y-423.511 Z-6.400 I0.103 J-2.641 K0.000 F1800.000
G2 X-497.273 Y-418.314 Z-6.400 I-0.486 J2.598 K0.000 F1800.000
G2 X-496.891 Y-418.271 Z-6.400 I0.486 J-2.598 K0.000 F1800.000
G0 Z5.000
G0 X-496.928 Y-417.318 Z5.000
G0 X-496.928 Y-417.318 Z3.000
G1 X-496.928 Y-417.318 Z-6.400 F1400.000
G2 X-496.127 Y-424.448 Z-6.400 I0.140 J-3.594 K0.000 F1800.000
G2 X-497.448 Y-417.377 Z-6.400 I-0.661 J3.535 K0.000 F1800.000
G2 X-496.928 Y-417.318 Z-6.400 I0.661 J-3.535 K0.000 F1800.000
G0 Z5.000
G0 X-496.965 Y-416.366 Z5.000
G0 X-496.965 Y-416.366 Z3.000
G1 X-496.965 Y-416.366 Z-6.400 F1400.000
G2 X-495.951 Y-425.385 Z-6.400 I0.177 J-4.547 K0.000 F1800.000
G2 X-497.624 Y-416.440 Z-6.400 I-0.836 J4.473 K0.000 F1800.000
G2 X-496.965 Y-416.366 Z-6.400 I0.836 J-4.473 K0.000 F1800.000
G0 Z5.000
G0 X-497.002 Y-415.413 Z5.000
G0 X-497.002 Y-415.413 Z3.000
G1 X-497.002 Y-415.413 Z-6.400 F1400.000
G2 X-495.776 Y-426.323 Z-6.400 I0.214 J-5.500 K0.000 F1800.000
G2 X-497.799 Y-415.502 Z-6.400 I-1.011 J5.410 K0.000 F1800.000
G2 X-497.002 Y-415.413 Z-6.400 I1.011 J-5.410 K0.000 F1800.000
G0 Z5.000
G0 X-497.039 Y-414.460 Z5.000
G0 X-497.039 Y-414.460 Z3.000
G1 X-497.039 Y-414.460 Z-6.400 F1400.000
G2 X-495.601 Y-427.260 Z-6.400 I0.252 J-6.452 K0.000 F1800.000
G2 X-497.974 Y-414.565 Z-6.400 I-1.187 J6.347 K0.000 F1800.000
G2 X-497.039 Y-414.460 Z-6.400 I1.187 J-6.347 K0.000 F1800.000
G0 Z5.000
G0 X-497.076 Y-413.507 Z5.000
G0 X-497.076 Y-413.507 Z3.000
G1 X-497.076 Y-413.507 Z-6.400 F1400.000
G2 X-495.426 Y-428.197 Z-6.400 I0.289 J-7.405 K0.000 F1800.000
G2 X-498.149 Y-413.628 Z-6.400 I-1.362 J7.285 K0.000 F1800.000
G2 X-497.076 Y-413.507 Z-6.400 I1.362 J-7.285 K0.000 F1800.000
G0 Z5.000
G0 Z5.000
G0 X-497.076 Y-413.507
G0 X-480.254 Y-420.319
G0 X-480.254 Y-420.319 Z3.000
G1 X-480.254 Y-420.319 Z-3.200 F1400.000
G2 X-479.277 Y-419.407 Z-3.200 I1.467 J-0.594 K0.000 F1800.000
G2 X-478.298 Y-422.418 Z-3.200 I0.489 J-1.505 K0.000 F1800.000
G2 X-480.254 Y-420.319 Z-3.200 I-0.489 J1.505 K0.000 F1800.000
G0 Z5.000
G0 X-479.369 Y-420.677 Z5.000
G0 X-479.369 Y-420.677 Z3.000
G1 X-479.369 Y-420.677 Z-3.200 F1400.000
G2 X-478.981 Y-420.316 Z-3.200 I0.581 J-0.235 K0.000 F1800.000
G2 X-478.594 Y-421.509 Z-3.200 I0.194 J-0.596 K0.000 F1800.000
G2 X-479.369 Y-420.677 Z-3.200 I-0.194 J0.596 K0.000 F1800.000
G1 X-479.369 Y-420.677 Z-6.400 F1400.000
G2 X-478.981 Y-420.316 Z-6.400 I0.581 J-0.235 K0.000 F1800.000
G2 X-478.594 Y-421.509 Z-6.400 I0.194 J-0.596 K0.000 F1800.000
G2 X-479.369 Y-420.677 Z-6.400 I-0.194 J0.596 K0.000 F1800.000
G0 Z5.000
G0 X-480.254 Y-420.319 Z5.000
G0 X-480.254 Y-420.319 Z3.000
G1 X-480.254 Y-420.319 Z-6.400 F1400.000
G2 X-479.277 Y-419.407 Z-6.400 I1.467 J-0.594 K0.000 F1800.000
G2 X-478.298 Y-422.418 Z-6.400 I0.489 J-1.505 K0.000 F1800.000
G2 X-480.254 Y-420.319 Z-6.400 I-0.489 J1.505 K0.000 F1800.000
G0 Z5.000
G0 Z5.000
G0 X-480.254 Y-420.319
G0 X-495.736 Y-437.730
G0 X-495.736 Y-437.730 Z3.000
G1 X-495.736 Y-437.730 Z-3.200 F1400.000
G2 X-496.298 Y-440.418 Z-3.200 I-1.052 J-1.183 K0.000 F1800.000
G2 X-498.293 Y-439.402 Z-3.200 I-0.489 J1.505 K0.000 F1800.000
G2 X-497.277 Y-437.407 Z-3.200 I1.505 J0.489 K0.000 F1800.000
G2 X-495.736 Y-437.730 Z-3.200 I0.489 J-1.505 K0.000 F1800.000
G0 Z5.000
G0 X-496.371 Y-438.444 Z5.000
G0 X-496.371 Y-438.444 Z3.000
G1 X-496.371 Y-438.444 Z-3.200 F1400.000
G2 X-496.594 Y-439.509 Z-3.200 I-0.417 J-0.469 K0.000 F1800.000
G2 X-496.981 Y-438.316 Z-3.200 I-0.194 J0.596 K0.000 F1800.000
G2 X-496.371 Y-438.444 Z-3.200 I0.194 J-0.596 K0.000 F1800.000
G1 X-496.371 Y-438.444 Z-6.400 F1400.000
G2 X-496.594 Y-439.509 Z-6.400 I-0.417 J-0.469 K0.000 F1800.000
G2 X-496.981 Y-438.316 Z-6.400 I-0.194 J0.596 K0.000 F1800.000
G2 X-496.371 Y-438.444 Z-6.400 I0.194 J-0.596 K0.000 F1800.000
G0 Z5.000
G0 X-495.736 Y-437.730 Z5.000
G0 X-495.736 Y-437.730 Z3.000
G1 X-495.736 Y-437.730 Z-6.400 F1400.000
G2 X-496.298 Y-440.418 Z-6.400 I-1.052 J-1.183 K0.000 F1800.000
G2 X-498.293 Y-439.402 Z-6.400 I-0.489 J1.505 K0.000 F1800.000
G2 X-497.277 Y-437.407 Z-6.400 I1.505 J0.489 K0.000 F1800.000
G2 X-495.736 Y-437.730 Z-6.400 I0.489 J-1.505 K0.000 F1800.000
G0 Z5.000
G0 Z5.000
G0 X-495.736 Y-437.730
G0 X-513.601 Y-421.960
G0 X-513.601 Y-421.960 Z3.000
G1 X-513.601 Y-421.960 Z-3.200 F1400.000
G2 X-514.298 Y-422.418 Z-3.200 I-1.186 J1.047 K0.000 F1800.000
G2 X-516.293 Y-421.402 Z-3.200 I-0.489 J1.505 K0.000 F1800.000
G2 X-515.277 Y-419.407 Z-3.200 I1.505 J0.489 K0.000 F1800.000
G2 X-513.601 Y-421.960 Z-3.200 I0.489 J-1.505 K0.000 F1800.000
G0 Z5.000
G0 X-514.317 Y-421.328 Z5.000
G0 X-514.317 Y-421.328 Z3.000
G1 X-514.317 Y-421.328 Z-3.200 F1400.000
G2 X-514.594 Y-421.509 Z-3.200 I-0.470 J0.415 K0.000 F1800.000
G2 X-514.981 Y-420.316 Z-3.200 I-0.194 J0.596 K0.000 F1800.000
G2 X-514.317 Y-421.328 Z-3.200 I0.194 J-0.596 K0.000 F1800.000
G1 X-514.317 Y-421.328 Z-6.400 F1400.000
G2 X-514.594 Y-421.509 Z-6.400 I-0.470 J0.415 K0.000 F1800.000
G2 X-514.981 Y-420.316 Z-6.400 I-0.194 J0.596 K0.000 F1800.000
G2 X-514.317 Y-421.328 Z-6.400 I0.194 J-0.596 K0.000 F1800.000
G0 Z5.000
G0 X-513.601 Y-421.960 Z5.000
G0 X-513.601 Y-421.960 Z3.000
G1 X-513.601 Y-421.960 Z-6.400 F1400.000
G2 X-514.298 Y-422.418 Z-6.400 I-1.186 J1.047 K0.000 F1800.000
G2 X-516.293 Y-421.402 Z-6.400 I-0.489 J1.505 K0.000 F1800.000
G2 X-515.277 Y-419.407 Z-6.400 I1.505 J0.489 K0.000 F1800.000
G2 X-513.601 Y-421.960 Z-6.400 I0.489 J-1.505 K0.000 F1800.000
G0 Z5.000
G0 Z5.000
G0 X-513.601 Y-421.960
G0 X-421.303 Y-487.521
G0 X-421.303 Y-487.521 Z3.000
G1 X-421.303 Y-487.521 Z-3.200 F1400.000
G2 X-420.502 Y-486.932 Z-3.200 I1.290 J-0.916 K0.000 F1800.000
G2 X-419.523 Y-489.943 Z-3.200 I0.489 J-1.505 K0.000 F1800.000
G2 X-421.303 Y-487.521 Z-3.200 I-0.489 J1.505 K0.000 F1800.000
G0 Z5.000
G0 X-420.524 Y-488.074 Z5.000
G0 X-420.524 Y-488.074 Z3.000
G1 X-420.524 Y-488.074 Z-3.200 F1400.000
G2 X-420.206 Y-487.841 Z-3.200 I0.511 J-0.363 K0.000 F1800.000
G2 X-419.819 Y-489.034 Z-3.200 I0.194 J-0.596 K0.000 F1800.000
G2 X-420.524 Y-488.074 Z-3.200 I-0.194 J0.596 K0.000 F1800.000
G1 X-420.524 Y-488.074 Z-6.400 F1400.000
G2 X-420.206 Y-487.841 Z-6.400 I0.511 J-0.363 K0.000 F1800.000
G2 X-419.819 Y-489.034 Z-6.400 I0.194 J-0.596 K0.000 F1800.000
G2 X-420.524 Y-488.074 Z-6.400 I-0.194 J0.596 K0.000 F1800.000
G0 Z5.000
G0 X-421.303 Y-487.521 Z5.000
G0 X-421.303 Y-487.521 Z3.000
G1 X-421.303 Y-487.521 Z-6.400 F1400.000
G2 X-420.502 Y-486.932 Z-6.400 I1.290 J-0.916 K0.000 F1800.000
G2 X-419.523 Y-489.943 Z-6.400 I0.489 J-1.505 K0.000 F1800.000
G2 X-421.303 Y-487.521 Z-6.400 I-0.489 J1.505 K0.000 F1800.000
G0 Z5.000
G0 Z5.000
G0 X-421.303 Y-487.521
G0 X-420.041 Y-556.855
G0 X-420.041 Y-556.855 Z3.000
G1 X-420.041 Y-556.855 Z-3.200 F1400.000
G2 X-419.523 Y-559.943 Z-3.200 I0.029 J-1.582 K0.000 F1800.000
G2 X-421.518 Y-558.927 Z-3.200 I-0.489 J1.505 K0.000 F1800.000
G2 X-420.502 Y-556.932 Z-3.200 I1.505 J0.489 K0.000 F1800.000
G2 X-420.041 Y-556.855 Z-3.200 I0.489 J-1.505 K0.000 F1800.000
G0 Z5.000
G0 X-420.024 Y-557.810 Z5.000
G0 X-420.024 Y-557.810 Z3.000
G1 X-420.024 Y-557.810 Z-3.200 F1400.000
G2 X-419.819 Y-559.034 Z-3.200 I0.011 J-0.627 K0.000 F1800.000
G2 X-420.206 Y-557.841 Z-3.200 I-0.194 J0.596 K0.000 F1800.000
G2 X-420.024 Y-557.810 Z-3.200 I0.194 J-0.596 K0.000 F1800.000
G1 X-420.024 Y-557.810 Z-6.400 F1400.000
G2 X-419.819 Y-559.034 Z-6.400 I0.011 J-0.627 K0.000 F1800.000
G2 X-420.206 Y-557.841 Z-6.400 I-0.194 J0.596 K0.000 F1800.000
G2 X-420.024 Y-557.810 Z-6.400 I0.194 J-0.596 K0.000 F1800.000
G0 Z5.000
G0 X-420.041 Y-556.855 Z5.000
G0 X-420.041 Y-556.855 Z3.000
G1 X-420.041 Y-556.855 Z-6.400 F1400.000
G2 X-419.523 Y-559.943 Z-6.400 I0.029 J-1.582 K0.000 F1800.000
G2 X-421.518 Y-558.927 Z-6.400 I-0.489 J1.505 K0.000 F1800.000
G2 X-420.502 Y-556.932 Z-6.400 I1.505 J0.489 K0.000 F1800.000
G2 X-420.041 Y-556.855 Z-6.400 I0.489 J-1.505 K0.000 F1800.000
G0 Z5.000
G0 Z5.000
G0 X-420.041 Y-556.855
G0 X-166.595 Y-558.428
G0 X-166.595 Y-558.428 Z3.000
G1 X-166.595 Y-558.428 Z-3.200 F1400.000
G2 X-165.502 Y-556.932 Z-3.200 I1.583 J-0.010 K0.000 F1800.000
G2 X-164.523 Y-559.943 Z-3.200 I0.489 J-1.505 K0.000 F1800.000
G2 X-166.595 Y-558.428 Z-3.200 I-0.489 J1.505 K0.000 F1800.000
G0 Z5.000
G0 X-165.640 Y-558.434 Z5.000
G0 X-165.640 Y-558.434 Z3.000
G1 X-165.640 Y-558.434 Z-3.200 F1400.000
G2 X-165.206 Y-557.841 Z-3.200 I0.627 J-0.004 K0.000 F1800.000
G2 X-164.819 Y-559.034 Z-3.200 I0.194 J-0.596 K0.000 F1800.000
G2 X-165.640 Y-558.434 Z-3.200 I-0.194 J0.596 K0.000 F1800.000
G1 X-165.640 Y-558.434 Z-6.400 F1400.000
G2 X-165.206 Y-557.841 Z-6.400 I0.627 J-0.004 K0.000 F1800.000
G2 X-164.819 Y-559.034 Z-6.400 I0.194 J-0.596 K0.000 F1800.000
G2 X-165.640 Y-558.434 Z-6.400 I-0.194 J0.596 K0.000 F1800.000
G0 Z5.000
G0 X-166.595 Y-558.428 Z5.000
G0 X-166.595 Y-558.428 Z3.000
G1 X-166.595 Y-558.428 Z-6.400 F1400.000
G2 X-165.502 Y-556.932 Z-6.400 I1.583 J-0.010 K0.000 F1800.000
G2 X-164.523 Y-559.943 Z-6.400 I0.489 J-1.505 K0.000 F1800.000
G2 X-166.595 Y-558.428 Z-6.400 I-0.489 J1.505 K0.000 F1800.000
G0 Z5.000
G0 Z5.000
G0 X-166.595 Y-558.428
G0 X-165.048 Y-490.020
G0 X-165.048 Y-490.020 Z3.000
G1 X-165.048 Y-490.020 Z-3.200 F1400.000
G2 X-165.502 Y-486.932 Z-3.200 I0.036 J1.582 K0.000 F1800.000
G2 X-164.523 Y-489.943 Z-3.200 I0.489 J-1.505 K0.000 F1800.000
G2 X-165.048 Y-490.020 Z-3.200 I-0.489 J1.505 K0.000 F1800.000
G0 Z5.000
G0 X-165.027 Y-489.064 Z5.000
G0 X-165.027 Y-489.064 Z3.000
G1 X-165.027 Y-489.064 Z-3.200 F1400.000
G2 X-165.206 Y-487.841 Z-3.200 I0.014 J0.627 K0.000 F1800.000
G2 X-164.819 Y-489.034 Z-3.200 I0.194 J-0.596 K0.000 F1800.000
G2 X-165.027 Y-489.064 Z-3.200 I-0.194 J0.596 K0.000 F1800.000
G1 X-165.027 Y-489.064 Z-6.400 F1400.000
G2 X-165.206 Y-487.841 Z-6.400 I0.014 J0.627 K0.000 F1800.000
G2 X-164.819 Y-489.034 Z-6.400 I0.194 J-0.596 K0.000 F1800.000
G2 X-165.027 Y-489.064 Z-6.400 I-0.194 J0.596 K0.000 F1800.000
G0 Z5.000
G0 X-165.048 Y-490.020 Z5.000
G0 X-165.048 Y-490.020 Z3.000
G1 X-165.048 Y-490.020 Z-6.400 F1400.000
G2 X-165.502 Y-486.932 Z-6.400 I0.036 J1.582 K0.000 F1800.000
G2 X-164.523 Y-489.943 Z-6.400 I0.489 J-1.505 K0.000 F1800.000
G2 X-165.048 Y-490.020 Z-6.400 I-0.489 J1.505 K0.000 F1800.000
G0 Z5.000
G0 Z5.000
G0 X-165.048 Y-490.020
G0 X-107.263 Y-422.118
G0 X-107.263 Y-422.118 Z3.000
G1 X-107.263 Y-422.118 Z-3.200 F1400.000
G2 X-106.727 Y-419.407 Z-3.200 I1.026 J1.205 K0.000 F1800.000
G2 X-105.748 Y-422.418 Z-3.200 I0.489 J-1.505 K0.000 F1800.000
G2 X-107.263 Y-422.118 Z-3.200 I-0.489 J1.505 K0.000 F1800.000
G0 Z5.000
G0 X-106.644 Y-421.390 Z5.000
G0 X-106.644 Y-421.390 Z3.000
G1 X-106.644 Y-421.390 Z-3.200 F1400.000
G2 X-106.431 Y-420.316 Z-3.200 I0.406 J0.478 K0.000 F1800.000
G2 X-106.044 Y-421.509 Z-3.200 I0.194 J-0.596 K0.000 F1800.000
G2 X-106.644 Y-421.390 Z-3.200 I-0.194 J0.596 K0.000 F1800.000
G1 X-106.644 Y-421.390 Z-6.400 F1400.000
G2 X-106.431 Y-420.316 Z-6.400 I0.406 J0.478 K0.000 F1800.000
G2 X-106.044 Y-421.509 Z-6.400 I0.194 J-0.596 K0.000 F1800.000
G2 X-106.644 Y-421.390 Z-6.400 I-0.194 J0.596 K0.000 F1800.000
G0 Z5.000
G0 X-107.263 Y-422.118 Z5.000
G0 X-107.263 Y-422.118 Z3.000
G1 X-107.263 Y-422.118 Z-6.400 F1400.000
G2 X-106.727 Y-419.407 Z-6.400 I1.026 J1.205 K0.000 F1800.000
G2 X-105.748 Y-422.418 Z-6.400 I0.489 J-1.505 K0.000 F1800.000
G2 X-107.263 Y-422.118 Z-6.400 I-0.489 J1.505 K0.000 F1800.000
G0 Z5.000
G0 Z5.000
G0 X-107.263 Y-422.118
G0 X-95.633 Y-421.381
G0 X-95.633 Y-421.381 Z3.000
G1 X-95.633 Y-421.381 Z-3.200 F1400.000
G2 X-89.599 Y-413.628 Z-3.200 I7.396 J0.469 K0.000 F1800.000
G2 X-86.876 Y-428.197 Z-3.200 I1.362 J-7.285 K0.000 F1800.000
G2 X-95.633 Y-421.381 Z-3.200 I-1.362 J7.285 K0.000 F1800.000
G0 Z5.000
G0 X-94.682 Y-421.321 Z5.000
G0 X-94.682 Y-421.321 Z3.000
G1 X-94.682 Y-421.321 Z-3.200 F1400.000
G2 X-89.424 Y-414.565 Z-3.200 I6.444 J0.408 K0.000 F1800.000
G2 X-81.890 Y-419.726 Z-3.200 I1.187 J-6.347 K0.000 F1800.000
G2 X-87.051 Y-427.260 Z-3.200 I-6.347 J-1.187 K0.000 F1800.000
G2 X-94.682 Y-421.321 Z-3.200 I-1.187 J6.347 K0.000 F1800.000
G0 Z5.000
G0 X-93.730 Y-421.260 Z5.000
G0 X-93.730 Y-421.260 Z3.000
G1 X-93.730 Y-421.260 Z-3.200 F1400.000
G2 X-89.249 Y-415.502 Z-3.200 I5.493 J0.348 K0.000 F1800.000
G2 X-87.226 Y-426.323 Z-3.200 I1.011 J-5.410 K0.000 F1800.000
G2 X-93.730 Y-421.260 Z-3.200 I-1.011 J5.410 K0.000 F1800.000
G0 Z5.000
G0 X-92.779 Y-421.200 Z5.000
G0 X-92.779 Y-421.200 Z3.000
G1 X-92.779 Y-421.200 Z-3.200 F1400.000
G2 X-89.074 Y-416.440 Z-3.200 I4.541 J0.288 K0.000 F1800.000
G2 X-87.401 Y-425.385 Z-3.200 I0.836 J-4.473 K0.000 F1800.000
G2 X-92.779 Y-421.200 Z-3.200 I-0.836 J4.473 K0.000 F1800.000
G0 Z5.000
G0 X-91.827 Y-421.140 Z5.000
G0 X-91.827 Y-421.140 Z3.000
G1 X-91.827 Y-421.140 Z-3.200 F1400.000
G2 X-88.898 Y-417.377 Z-3.200 I3.590 J0.227 K0.000 F1800.000
G2 X-87.577 Y-424.448 Z-3.200 I0.661 J-3.535 K0.000 F1800.000
G2 X-91.827 Y-421.140 Z-3.200 I-0.661 J3.535 K0.000 F1800.000
G0 Z5.000
G0 X-90.875 Y-421.080 Z5.000
G0 X-90.875 Y-421.080 Z3.000
G1 X-90.875 Y-421.080 Z-3.200 F1400.000
G2 X-88.723 Y-418.314 Z-3.200 I2.638 J0.167 K0.000 F1800.000
G2 X-87.752 Y-423.511 Z-3.200 I0.486 J-2.598 K0.000 F1800.000
G2 X-90.875 Y-421.080 Z-3.200 I-0.486 J2.598 K0.000 F1800.000
G0 Z5.000
G0 X-89.924 Y-421.019 Z5.000
G0 X-89.924 Y-421.019 Z3.000
G1 X-89.924 Y-421.019 Z-3.200 F1400.000
G2 X-88.548 Y-419.252 Z-3.200 I1.686 J0.107 K0.000 F1800.000
G2 X-87.927 Y-422.573 Z-3.200 I0.310 J-1.661 K0.000 F1800.000
G2 X-89.924 Y-421.019 Z-3.200 I-0.310 J1.661 K0.000 F1800.000
G0 Z5.000
G0 X-88.972 Y-420.959 Z5.000
G0 X-88.972 Y-420.959 Z3.000
G1 X-88.972 Y-420.959 Z-3.200 F1400.000
G2 X-88.373 Y-420.189 Z-3.200 I0.735 J0.047 K0.000 F1800.000
G2 X-88.102 Y-421.636 Z-3.200 I0.135 J-0.724 K0.000 F1800.000
G2 X-88.972 Y-420.959 Z-3.200 I-0.135 J0.724 K0.000 F1800.000
G1 X-88.972 Y-420.959 Z-6.400 F1400.000
G2 X-88.373 Y-420.189 Z-6.400 I0.735 J0.047 K0.000 F1800.000
G2 X-88.102 Y-421.636 Z-6.400 I0.135 J-0.724 K0.000 F1800.000
G2 X-88.972 Y-420.959 Z-6.400 I-0.135 J0.724 K0.000 F1800.000
G0 Z5.000
G0 X-89.924 Y-421.019 Z5.000
G0 X-89.924 Y-421.019 Z3.000
G1 X-89.924 Y-421.019 Z-6.400 F1400.000
G2 X-88.548 Y-419.252 Z-6.400 I1.686 J0.107 K0.000 F1800.000
G2 X-87.927 Y-422.573 Z-6.400 I0.310 J-1.661 K0.000 F1800.000
G2 X-89.924 Y-421.019 Z-6.400 I-0.310 J1.661 K0.000 F1800.000
G0 Z5.000
G0 X-90.875 Y-421.080 Z5.000
G0 X-90.875 Y-421.080 Z3.000
G1 X-90.875 Y-421.080 Z-6.400 F1400.000
G2 X-88.723 Y-418.314 Z-6.400 I2.638 J0.167 K0.000 F1800.000
G2 X-87.752 Y-423.511 Z-6.400 I0.486 J-2.598 K0.000 F1800.000
G2 X-90.875 Y-421.080 Z-6.400 I-0.486 J2.598 K0.000 F1800.000
G0 Z5.000
G0 X-91.827 Y-421.140 Z5.000
G0 X-91.827 Y-421.140 Z3.000
G1 X-91.827 Y-421.140 Z-6.400 F1400.000
G2 X-88.898 Y-417.377 Z-6.400 I3.590 J0.227 K0.000 F1800.000
G2 X-87.577 Y-424.448 Z-6.400 I0.661 J-3.535 K0.000 F1800.000
G2 X-91.827 Y-421.140 Z-6.400 I-0.661 J3.535 K0.000 F1800.000
G0 Z5.000
G0 X-92.779 Y-421.200 Z5.000
G0 X-92.779 Y-421.200 Z3.000
G1 X-92.779 Y-421.200 Z-6.400 F1400.000
G2 X-89.074 Y-416.440 Z-6.400 I4.541 J0.288 K0.000 F1800.000
G2 X-87.401 Y-425.385 Z-6.400 I0.836 J-4.473 K0.000 F1800.000
G2 X-92.779 Y-421.200 Z-6.400 I-0.836 J4.473 K0.000 F1800.000
G0 Z5.000
G0 X-93.730 Y-421.260 Z5.000
G0 X-93.730 Y-421.260 Z3.000
G1 X-93.730 Y-421.260 Z-6.400 F1400.000
G2 X-89.249 Y-415.502 Z-6.400 I5.493 J0.348 K0.000 F1800.000
G2 X-87.226 Y-426.323 Z-6.400 I1.011 J-5.410 K0.000 F1800.000
G2 X-93.730 Y-421.260 Z-6.400 I-1.011 J5.410 K0.000 F1800.000
G0 Z5.000
G0 X-94.682 Y-421.321 Z5.000
G0 X-94.682 Y-421.321 Z3.000
G1 X-94.682 Y-421.321 Z-6.400 F1400.000
G2 X-89.424 Y-414.565 Z-6.400 I6.444 J0.408 K0.000 F1800.000
G2 X-81.890 Y-419.726 Z-6.400 I1.187 J-6.347 K0.000 F1800.000
G2 X-87.051 Y-427.260 Z-6.400 I-6.347 J-1.187 K0.000 F1800.000
G2 X-94.682 Y-421.321 Z-6.400 I-1.187 J6.347 K0.000 F1800.000
G0 Z5.000
G0 X-95.633 Y-421.381 Z5.000
G0 X-95.633 Y-421.381 Z3.000
G1 X-95.633 Y-421.381 Z-6.400 F1400.000
G2 X-89.599 Y-413.628 Z-6.400 I7.396 J0.469 K0.000 F1800.000
G2 X-86.876 Y-428.197 Z-6.400 I1.362 J-7.285 K0.000 F1800.000
G2 X-95.633 Y-421.381 Z-6.400 I-1.362 J7.285 K0.000 F1800.000
G0 Z5.000
G0 Z5.000
G0 X-95.633 Y-421.381
G0 X-71.820 Y-420.942
G0 X-71.820 Y-420.942 Z3.000
G1 X-71.820 Y-420.942 Z-3.200 F1400.000
G2 X-70.727 Y-419.407 Z-3.200 I1.582 J0.029 K0.000 F1800.000
G2 X-69.748 Y-422.418 Z-3.200 I0.489 J-1.505 K0.000 F1800.000
G2 X-71.820 Y-420.942 Z-3.200 I-0.489 J1.505 K0.000 F1800.000
G0 Z5.000
G0 X-70.865 Y-420.924 Z5.000
G0 X-70.865 Y-420.924 Z3.000
G1 X-70.865 Y-420.924 Z-3.200 F1400.000
G2 X-70.431 Y-420.316 Z-3.200 I0.627 J0.012 K0.000 F1800.000
G2 X-70.044 Y-421.509 Z-3.200 I0.194 J-0.596 K0.000 F1800.000
G2 X-70.865 Y-420.924 Z-3.200 I-0.194 J0.596 K0.000 F1800.000
G1 X-70.865 Y-420.924 Z-6.400 F1400.000
G2 X-70.431 Y-420.316 Z-6.400 I0.627 J0.012 K0.000 F1800.000
G2 X-70.044 Y-421.509 Z-6.400 I0.194 J-0.596 K0.000 F1800.000
G2 X-70.865 Y-420.924 Z-6.400 I-0.194 J0.596 K0.000 F1800.000
G0 Z5.000
G0 X-71.820 Y-420.942 Z5.000
G0 X-71.820 Y-420.942 Z3.000
G1 X-71.820 Y-420.942 Z-6.400 F1400.000
G2 X-70.727 Y-419.407 Z-6.400 I1.582 J0.029 K0.000 F1800.000
G2 X-69.748 Y-422.418 Z-6.400 I0.489 J-1.505 K0.000 F1800.000
G2 X-71.820 Y-420.942 Z-6.400 I-0.489 J1.505 K0.000 F1800.000
G0 Z5.000
G0 Z5.000
G0 X-71.820 Y-420.942
G0 X-87.170 Y-437.744
G0 X-87.170 Y-437.744 Z3.000
G1 X-87.170 Y-437.744 Z-3.200 F1400.000
G2 X-87.748 Y-440.418 Z-3.200 I-1.067 J-1.168 K0.000 F1800.000
G2 X-89.743 Y-439.402 Z-3.200 I-0.489 J1.505 K0.000 F1800.000
G2 X-88.727 Y-437.407 Z-3.200 I1.505 J0.489 K0.000 F1800.000
G2 X-87.170 Y-437.744 Z-3.200 I0.489 J-1.505 K0.000 F1800.000
G0 Z5.000
G0 X-87.815 Y-438.449 Z5.000
G0 X-87.815 Y-438.449 Z3.000
G1 X-87.815 Y-438.449 Z-3.200 F1400.000
G2 X-88.044 Y-439.509 Z-3.200 I-0.423 J-0.463 K0.000 F1800.000
G2 X-88.431 Y-438.316 Z-3.200 I-0.194 J0.596 K0.000 F1800.000
G2 X-87.815 Y-438.449 Z-3.200 I0.194 J-0.596 K0.000 F1800.000
G1 X-87.815 Y-438.449 Z-6.400 F1400.000
G2 X-88.044 Y-439.509 Z-6.400 I-0.423 J-0.463 K0.000 F1800.000
G2 X-88.431 Y-438.316 Z-6.400 I-0.194 J0.596 K0.000 F1800.000
G2 X-87.815 Y-438.449 Z-6.400 I0.194 J-0.596 K0.000 F1800.000
G0 Z5.000
G0 X-87.170 Y-437.744 Z5.000
G0 X-87.170 Y-437.744 Z3.000
G1 X-87.170 Y-437.744 Z-6.400 F1400.000
G2 X-87.748 Y-440.418 Z-6.400 I-1.067 J-1.168 K0.000 F1800.000
G2 X-89.743 Y-439.402 Z-6.400 I-0.489 J1.505 K0.000 F1800.000
G2 X-88.727 Y-437.407 Z-6.400 I1.505 J0.489 K0.000 F1800.000
G2 X-87.170 Y-437.744 Z-6.400 I0.489 J-1.505 K0.000 F1800.000
G0 Z5.000
G0 Z5.000
G0 X-87.170 Y-437.744
G0 X-88.189 Y-404.494
G0 X-88.189 Y-404.494 Z3.000
G1 X-88.189 Y-404.494 Z-3.200 F1400.000
G2 X-88.727 Y-401.407 Z-3.200 I-0.048 J1.582 K0.000 F1800.000
G2 X-87.748 Y-404.418 Z-3.200 I0.489 J-1.505 K0.000 F1800.000
G2 X-88.189 Y-404.494 Z-3.200 I-0.489 J1.505 K0.000 F1800.000
G0 Z5.000
G0 X-88.218 Y-403.539 Z5.000
G0 X-88.218 Y-403.539 Z3.000
G1 X-88.218 Y-403.539 Z-3.200 F1400.000
G2 X-88.431 Y-402.316 Z-3.200 I-0.019 J0.627 K0.000 F1800.000
G2 X-88.044 Y-403.509 Z-3.200 I0.194 J-0.596 K0.000 F1800.000
G2 X-88.218 Y-403.539 Z-3.200 I-0.194 J0.596 K0.000 F1800.000
G1 X-88.218 Y-403.539 Z-6.400 F1400.000
G2 X-88.431 Y-402.316 Z-6.400 I-0.019 J0.627 K0.000 F1800.000
G2 X-88.044 Y-403.509 Z-6.400 I0.194 J-0.596 K0.000 F1800.000
G2 X-88.218 Y-403.539 Z-6.400 I-0.194 J0.596 K0.000 F1800.000
G0 Z5.000
G0 X-88.189 Y-404.494 Z5.000
G0 X-88.189 Y-404.494 Z3.000
G1 X-88.189 Y-404.494 Z-6.400 F1400.000
G2 X-88.727 Y-401.407 Z-6.400 I-0.048 J1.582 K0.000 F1800.000
G2 X-87.748 Y-404.418 Z-6.400 I0.489 J-1.505 K0.000 F1800.000
G2 X-88.189 Y-404.494 Z-6.400 I-0.489 J1.505 K0.000 F1800.000
G0 Z5.000
G0 Z5.000
G0 X-88.189 Y-404.494
G0 X-96.469 Y-294.091
G0 X-96.469 Y-294.091 Z3.000
G1 X-96.469 Y-294.091 Z-3.200 F1400.000
G2 X-97.077 Y-291.007 Z-3.200 I-0.118 J1.578 K0.000 F1800.000
G2 X-96.098 Y-294.018 Z-3.200 I0.489 J-1.505 K0.000 F1800.000
G2 X-96.469 Y-294.091 Z-3.200 I-0.489 J1.505 K0.000 F1800.000
G0 Z5.000
G0 X-96.541 Y-293.138 Z5.000
G0 X-96.541 Y-293.138 Z3.000
G1 X-96.541 Y-293.138 Z-3.200 F1400.000
G2 X-96.781 Y-291.916 Z-3.200 I-0.047 J0.625 K0.000 F1800.000
G2 X-96.394 Y-293.109 Z-3.200 I0.194 J-0.596 K0.000 F1800.000
G2 X-96.541 Y-293.138 Z-3.200 I-0.194 J0.596 K0.000 F1800.000
G1 X-96.541 Y-293.138 Z-6.400 F1400.000
G2 X-96.781 Y-291.916 Z-6.400 I-0.047 J0.625 K0.000 F1800.000
G2 X-96.394 Y-293.109 Z-6.400 I0.194 J-0.596 K0.000 F1800.000
G2 X-96.541 Y-293.138 Z-6.400 I-0.194 J0.596 K0.000 F1800.000
G0 Z5.000
G0 X-96.469 Y-294.091 Z5.000
G0 X-96.469 Y-294.091 Z3.000
G1 X-96.469 Y-294.091 Z-6.400 F1400.000
G2 X-97.077 Y-291.007 Z-6.400 I-0.118 J1.578 K0.000 F1800.000
G2 X-96.098 Y-294.018 Z-6.400 I0.489 J-1.505 K0.000 F1800.000
G2 X-96.469 Y-294.091 Z-6.400 I-0.489 J1.505 K0.000 F1800.000
G0 Z5.000
G0 Z5.000
G0 X-96.469 Y-294.091
G0 X-28.170 Y-292.548
G0 X-28.170 Y-292.548 Z3.000
G1 X-28.170 Y-292.548 Z-3.200 F1400.000
G2 X-27.077 Y-291.007 Z-3.200 I1.582 J0.036 K0.000 F1800.000
G2 X-26.098 Y-294.018 Z-3.200 I0.489 J-1.505 K0.000 F1800.000
G2 X-28.170 Y-292.548 Z-3.200 I-0.489 J1.505 K0.000 F1800.000
G0 Z5.000
G0 X-27.214 Y-292.527 Z5.000
G0 X-27.214 Y-292.527 Z3.000
G1 X-27.214 Y-292.527 Z-3.200 F1400.000
G2 X-26.781 Y-291.916 Z-3.200 I0.627 J0.014 K0.000 F1800.000
G2 X-26.394 Y-293.109 Z-3.200 I0.194 J-0.596 K0.000 F1800.000
G2 X-27.214 Y-292.527 Z-3.200 I-0.194 J0.596 K0.000 F1800.000
G1 X-27.214 Y-292.527 Z-6.400 F1400.000
G2 X-26.781 Y-291.916 Z-6.400 I0.627 J0.014 K0.000 F1800.000
G2 X-26.394 Y-293.109 Z-6.400 I0.194 J-0.596 K0.000 F1800.000
G2 X-27.214 Y-292.527 Z-6.400 I-0.194 J0.596 K0.000 F1800.000
G0 Z5.000
G0 X-28.170 Y-292.548 Z5.000
G0 X-28.170 Y-292.548 Z3.000
G1 X-28.170 Y-292.548 Z-6.400 F1400.000
G2 X-27.077 Y-291.007 Z-6.400 I1.582 J0.036 K0.000 F1800.000
G2 X-26.098 Y-294.018 Z-6.400 I0.489 J-1.505 K0.000 F1800.000
G2 X-28.170 Y-292.548 Z-6.400 I-0.489 J1.505 K0.000 F1800.000
G0 Z5.000
G0 Z5.000
(Finish operation: Pocket_Shape003)
(Begin operation: Profile030)
(Path: Profile030)
(Profile030)
(Compensated Tool Path. Diameter: 3.175)
G0 Z5.000
G0 X-126.175 Y-1.568
G0 Z3.000
G1 X-126.175 Y-1.568 Z-3.200 F1400.000
G2 X-126.175 Y-1.587 Z-3.200 I-1.587 J-0.020 K0.000 F1800.000
G1 X-126.175 Y-126.086 Z-3.200 F1800.000
G3 X-126.086 Y-126.175 Z-3.200 I0.055 J-0.034 K0.000 F1800.000
G1 X-1.588 Y-126.175 Z-3.200 F1800.000
G2 X-0.000 Y-127.762 Z-3.200 I0.000 J-1.587 K0.000 F1800.000
G1 X-0.000 Y-457.262 Z-3.200 F1800.000
G2 X-1.588 Y-458.850 Z-3.200 I-1.587 J-0.000 K0.000 F1800.000
G1 X-126.086 Y-458.850 Z-3.200 F1800.000
G3 X-126.175 Y-458.939 Z-3.200 I-0.034 J-0.055 K0.000 F1800.000
G1 X-126.175 Y-583.438 Z-3.200 F1800.000
G2 X-127.763 Y-585.025 Z-3.200 I-1.587 J-0.000 K0.000 F1800.000
G1 X-202.513 Y-585.025 Z-3.200 F1800.000
G2 X-204.100 Y-583.438 Z-3.200 I-0.000 J1.587 K0.000 F1800.000
G1 X-204.100 Y-502.114 Z-3.200 F1800.000
G3 X-204.189 Y-502.025 Z-3.200 I-0.055 J0.034 K0.000 F1800.000
G1 X-380.836 Y-502.025 Z-3.200 F1800.000
G3 X-380.925 Y-502.114 Z-3.200 I-0.034 J-0.055 K0.000 F1800.000
G1 X-380.925 Y-583.438 Z-3.200 F1800.000
G2 X-382.512 Y-585.025 Z-3.200 I-1.587 J-0.000 K0.000 F1800.000
G1 X-457.262 Y-585.025 Z-3.200 F1800.000
G2 X-458.850 Y-583.438 Z-3.200 I-0.000 J1.587 K0.000 F1800.000
G1 X-458.850 Y-458.939 Z-3.200 F1800.000
G3 X-458.939 Y-458.850 Z-3.200 I-0.055 J0.034 K0.000 F1800.000
G1 X-583.437 Y-458.850 Z-3.200 F1800.000
G2 X-585.025 Y-457.262 Z-3.200 I-0.000 J1.587 K0.000 F1800.000
G1 X-585.025 Y-127.762 Z-3.200 F1800.000
G2 X-583.437 Y-126.175 Z-3.200 I1.587 J0.000 K0.000 F1800.000
G1 X-458.939 Y-126.175 Z-3.200 F1800.000
G3 X-458.850 Y-126.086 Z-3.200 I0.034 J0.055 K0.000 F1800.000
G1 X-458.850 Y-1.587 Z-3.200 F1800.000
G2 X-457.262 Y0.000 Z-3.200 I1.587 J0.000 K0.000 F1800.000
G1 X-127.763 Y0.000 Z-3.200 F1800.000
G2 X-126.175 Y-1.568 Z-3.200 I0.000 J-1.587 K0.000 F1800.000
G1 X-126.175 Y-1.568 Z-6.400 F1400.000
G2 X-126.175 Y-1.587 Z-6.400 I-1.587 J-0.020 K0.000 F1800.000
G1 X-126.175 Y-126.086 Z-6.400 F1800.000
G3 X-126.086 Y-126.175 Z-6.400 I0.055 J-0.034 K0.000 F1800.000
G1 X-1.588 Y-126.175 Z-6.400 F1800.000
G2 X-0.000 Y-127.762 Z-6.400 I0.000 J-1.587 K0.000 F1800.000
G1 X-0.000 Y-457.262 Z-6.400 F1800.000
G2 X-1.588 Y-458.850 Z-6.400 I-1.587 J-0.000 K0.000 F1800.000
G1 X-126.086 Y-458.850 Z-6.400 F1800.000
G3 X-126.175 Y-458.939 Z-6.400 I-0.034 J-0.055 K0.000 F1800.000
G1 X-126.175 Y-583.438 Z-6.400 F1800.000
G2 X-127.763 Y-585.025 Z-6.400 I-1.587 J-0.000 K0.000 F1800.000
G1 X-202.513 Y-585.025 Z-6.400 F1800.000
G2 X-204.100 Y-583.438 Z-6.400 I-0.000 J1.587 K0.000 F1800.000
G1 X-204.100 Y-502.114 Z-6.400 F1800.000
G3 X-204.189 Y-502.025 Z-6.400 I-0.055 J0.034 K0.000 F1800.000
G1 X-380.836 Y-502.025 Z-6.400 F1800.000
G3 X-380.925 Y-502.114 Z-6.400 I-0.034 J-0.055 K0.000 F1800.000
G1 X-380.925 Y-583.438 Z-6.400 F1800.000
G2 X-382.512 Y-585.025 Z-6.400 I-1.587 J-0.000 K0.000 F1800.000
G1 X-457.262 Y-585.025 Z-6.400 F1800.000
G2 X-458.850 Y-583.438 Z-6.400 I-0.000 J1.587 K0.000 F1800.000
G1 X-458.850 Y-458.939 Z-6.400 F1800.000
G3 X-458.939 Y-458.850 Z-6.400 I-0.055 J0.034 K0.000 F1800.000
G1 X-583.437 Y-458.850 Z-6.400 F1800.000
G2 X-585.025 Y-457.262 Z-6.400 I-0.000 J1.587 K0.000 F1800.000
G1 X-585.025 Y-127.762 Z-6.400 F1800.000
G2 X-583.437 Y-126.175 Z-6.400 I1.587 J0.000 K0.000 F1800.000
G1 X-458.939 Y-126.175 Z-6.400 F1800.000
G3 X-458.850 Y-126.086 Z-6.400 I0.034 J0.055 K0.000 F1800.000
G1 X-458.850 Y-1.587 Z-6.400 F1800.000
G2 X-457.262 Y0.000 Z-6.400 I1.587 J0.000 K0.000 F1800.000
G1 X-127.763 Y0.000 Z-6.400 F1800.000
G2 X-126.175 Y-1.568 Z-6.400 I0.000 J-1.587 K0.000 F1800.000
G0 Z5.000
G0 Z5.000
(Finish operation: Profile030)
(Begin postamble)
M5
G17 G90
M2
