(Exported by FreeCAD)
(Post Processor: grbl_post)
(Output Time:2024-03-12 10:46:52.175905)
(Begin preamble)
G17 G90
G21
(Begin operation: Fixture)
(Path: Fixture)
G54
(Finish operation: Fixture)
(Begin operation: 1/8th in Endmill035)
(Path: 1/8th in Endmill035)
(1/8th in Endmill035)
(Begin toolchange)
( M6 T2 )
(Finish operation: 1/8th in Endmill035)
(Begin operation: Drilling011)
(Path: Drilling011)
(Drilling011)
(Begin Drilling)
G0 Z5.000
G90
( G98 )
G0 X-70.088 Y-20.588
(G83 X-70.088 Y-20.588 Z-4.000 F1400.000 Q1.000 R3.000)
G0 X-70.088 Y-20.588
G0 Z3.000 F1400.00
G1 Z2.000 F1400.00
G0 Z3.000
G0 Z2.050
G1 Z1.000 F1400.00
G0 Z3.000
G0 Z1.050
G1 Z0.000 F1400.00
G0 Z3.000
G0 Z0.050
G1 Z-1.000 F1400.00
G0 Z3.000
G0 Z-0.950
G1 Z-2.000 F1400.00
G0 Z3.000
G0 Z-1.950
G1 Z-3.000 F1400.00
G0 Z3.000
G0 Z-2.950
G1 Z-4.000 F1400.00
G0 Z5.000
G0 X-128.088 Y-20.588
(G83 X-128.088 Y-20.588 Z-4.000 F1400.000 Q1.000 R3.000)
G0 X-128.088 Y-20.588
G0 Z3.000 F1400.00
G1 Z2.000 F1400.00
G0 Z3.000
G0 Z2.050
G1 Z1.000 F1400.00
G0 Z3.000
G0 Z1.050
G1 Z0.000 F1400.00
G0 Z3.000
G0 Z0.050
G1 Z-1.000 F1400.00
G0 Z3.000
G0 Z-0.950
G1 Z-2.000 F1400.00
G0 Z3.000
G0 Z-1.950
G1 Z-3.000 F1400.00
G0 Z3.000
G0 Z-2.950
G1 Z-4.000 F1400.00
G0 Z5.000
G0 X-128.088 Y-107.588
(G83 X-128.088 Y-107.588 Z-4.000 F1400.000 Q1.000 R3.000)
G0 X-128.088 Y-107.588
G0 Z3.000 F1400.00
G1 Z2.000 F1400.00
G0 Z3.000
G0 Z2.050
G1 Z1.000 F1400.00
G0 Z3.000
G0 Z1.050
G1 Z0.000 F1400.00
G0 Z3.000
G0 Z0.050
G1 Z-1.000 F1400.00
G0 Z3.000
G0 Z-0.950
G1 Z-2.000 F1400.00
G0 Z3.000
G0 Z-1.950
G1 Z-3.000 F1400.00
G0 Z3.000
G0 Z-2.950
G1 Z-4.000 F1400.00
G0 Z5.000
G0 X-70.088 Y-107.588
(G83 X-70.088 Y-107.588 Z-4.000 F1400.000 Q1.000 R3.000)
G0 X-70.088 Y-107.588
G0 Z3.000 F1400.00
G1 Z2.000 F1400.00
G0 Z3.000
G0 Z2.050
G1 Z1.000 F1400.00
G0 Z3.000
G0 Z1.050
G1 Z0.000 F1400.00
G0 Z3.000
G0 Z0.050
G1 Z-1.000 F1400.00
G0 Z3.000
G0 Z-0.950
G1 Z-2.000 F1400.00
G0 Z3.000
G0 Z-1.950
G1 Z-3.000 F1400.00
G0 Z3.000
G0 Z-2.950
G1 Z-4.000 F1400.00
G0 Z5.000
( G80 )
G0 Z3.000
G0 Z5.000
(Finish operation: Drilling011)
(Begin operation: Drilling012)
(Path: Drilling012)
(Drilling012)
(Begin Drilling)
G0 Z5.000
G90
( G98 )
G0 X-9.088 Y-59.088
(G83 X-9.088 Y-59.088 Z-6.400 F1400.000 Q1.000 R3.000)
G0 X-9.088 Y-59.088
G0 Z3.000 F1400.00
G1 Z2.000 F1400.00
G0 Z3.000
G0 Z2.050
G1 Z1.000 F1400.00
G0 Z3.000
G0 Z1.050
G1 Z0.000 F1400.00
G0 Z3.000
G0 Z0.050
G1 Z-1.000 F1400.00
G0 Z3.000
G0 Z-0.950
G1 Z-2.000 F1400.00
G0 Z3.000
G0 Z-1.950
G1 Z-3.000 F1400.00
G0 Z3.000
G0 Z-2.950
G1 Z-4.000 F1400.00
G0 Z3.000
G0 Z-3.950
G1 Z-5.000 F1400.00
G0 Z3.000
G0 Z-4.950
G1 Z-6.000 F1400.00
G0 Z3.000
G0 Z-5.950
G1 Z-6.400 F1400.00
G0 Z5.000
G0 X-189.088 Y-59.088
(G83 X-189.088 Y-59.088 Z-6.400 F1400.000 Q1.000 R3.000)
G0 X-189.088 Y-59.088
G0 Z3.000 F1400.00
G1 Z2.000 F1400.00
G0 Z3.000
G0 Z2.050
G1 Z1.000 F1400.00
G0 Z3.000
G0 Z1.050
G1 Z0.000 F1400.00
G0 Z3.000
G0 Z0.050
G1 Z-1.000 F1400.00
G0 Z3.000
G0 Z-0.950
G1 Z-2.000 F1400.00
G0 Z3.000
G0 Z-1.950
G1 Z-3.000 F1400.00
G0 Z3.000
G0 Z-2.950
G1 Z-4.000 F1400.00
G0 Z3.000
G0 Z-3.950
G1 Z-5.000 F1400.00
G0 Z3.000
G0 Z-4.950
G1 Z-6.000 F1400.00
G0 Z3.000
G0 Z-5.950
G1 Z-6.400 F1400.00
G0 Z5.000
( G80 )
G0 Z3.000
G0 Z5.000
(Finish operation: Drilling012)
(Begin operation: Pocket_Shape012)
(Path: Pocket_Shape012)
(Pocket_Shape012)
G0 Z5.000
G0 X-69.979 Y-20.479
G0 Z3.000
G1 X-69.979 Y-20.479 Z-2.000 F1400.000
G2 X-70.011 Y-20.721 Z-2.000 I-0.109 J-0.109 K0.000 F1800.000
G2 X-70.164 Y-20.454 Z-2.000 I-0.077 J0.133 K0.000 F1800.000
G2 X-69.979 Y-20.479 Z-2.000 I0.077 J-0.133 K0.000 F1800.000
G1 X-69.979 Y-20.479 Z-4.000 F1400.000
G2 X-70.011 Y-20.721 Z-4.000 I-0.109 J-0.109 K0.000 F1800.000
G2 X-70.164 Y-20.454 Z-4.000 I-0.077 J0.133 K0.000 F1800.000
G2 X-69.979 Y-20.479 Z-4.000 I0.077 J-0.133 K0.000 F1800.000
G0 Z5.000
G0 Z5.000
G0 X-69.979 Y-20.479
G0 X-127.934 Y-20.587
G0 X-127.934 Y-20.587 Z3.000
G1 X-127.934 Y-20.587 Z-2.000 F1400.000
G2 X-128.011 Y-20.721 Z-2.000 I-0.154 J-0.000 K0.000 F1800.000
G2 X-128.164 Y-20.454 Z-2.000 I-0.077 J0.133 K0.000 F1800.000
G2 X-127.934 Y-20.587 Z-2.000 I0.077 J-0.133 K0.000 F1800.000
G1 X-127.934 Y-20.587 Z-4.000 F1400.000
G2 X-128.011 Y-20.721 Z-4.000 I-0.154 J-0.000 K0.000 F1800.000
G2 X-128.164 Y-20.454 Z-4.000 I-0.077 J0.133 K0.000 F1800.000
G2 X-127.934 Y-20.587 Z-4.000 I0.077 J-0.133 K0.000 F1800.000
G0 Z5.000
G0 Z5.000
G0 X-127.934 Y-20.587
G0 X-128.087 Y-107.434
G0 X-128.087 Y-107.434 Z3.000
G1 X-128.087 Y-107.434 Z-2.000 F1400.000
G2 X-128.011 Y-107.721 Z-2.000 I-0.000 J-0.154 K0.000 F1800.000
G2 X-128.164 Y-107.454 Z-2.000 I-0.077 J0.133 K0.000 F1800.000
G2 X-128.087 Y-107.434 Z-2.000 I0.077 J-0.133 K0.000 F1800.000
G1 X-128.087 Y-107.434 Z-4.000 F1400.000
G2 X-128.011 Y-107.721 Z-4.000 I-0.000 J-0.154 K0.000 F1800.000
G2 X-128.164 Y-107.454 Z-4.000 I-0.077 J0.133 K0.000 F1800.000
G2 X-128.087 Y-107.434 Z-4.000 I0.077 J-0.133 K0.000 F1800.000
G0 Z5.000
G0 Z5.000
G0 X-128.087 Y-107.434
G0 X-70.241 Y-107.587
G0 X-70.241 Y-107.587 Z3.000
G1 X-70.241 Y-107.587 Z-2.000 F1400.000
G2 X-70.164 Y-107.454 Z-2.000 I0.154 J-0.000 K0.000 F1800.000
G2 X-69.954 Y-107.511 Z-2.000 I0.077 J-0.133 K0.000 F1800.000
G2 X-70.011 Y-107.721 Z-2.000 I-0.133 J-0.077 K0.000 F1800.000
G2 X-70.241 Y-107.587 Z-2.000 I-0.077 J0.133 K0.000 F1800.000
G1 X-70.241 Y-107.587 Z-4.000 F1400.000
G2 X-70.164 Y-107.454 Z-4.000 I0.154 J-0.000 K0.000 F1800.000
G2 X-69.954 Y-107.511 Z-4.000 I0.077 J-0.133 K0.000 F1800.000
G2 X-70.011 Y-107.721 Z-4.000 I-0.133 J-0.077 K0.000 F1800.000
G2 X-70.241 Y-107.587 Z-4.000 I-0.077 J0.133 K0.000 F1800.000
G0 Z5.000
G0 Z5.000
(Finish operation: Pocket_Shape012)
(Begin operation: Pocket_Shape013)
(Path: Pocket_Shape013)
(Pocket_Shape013)
G0 Z5.000
G0 X-69.624 Y-20.124
G0 Z3.000
G1 X-69.624 Y-20.124 Z-1.000 F1400.000
G2 X-69.795 Y-21.174 Z-1.000 I-0.464 J-0.464 K0.000 F1800.000
G2 X-70.674 Y-20.880 Z-1.000 I-0.292 J0.587 K0.000 F1800.000
G2 X-70.380 Y-20.001 Z-1.000 I0.587 J0.292 K0.000 F1800.000
G2 X-69.624 Y-20.124 Z-1.000 I0.292 J-0.587 K0.000 F1800.000
G0 Z5.000
G0 Z5.000
G0 X-69.624 Y-20.124
G0 X-127.432 Y-20.582
G0 X-127.432 Y-20.582 Z3.000
G1 X-127.432 Y-20.582 Z-1.000 F1400.000
G2 X-127.795 Y-21.174 Z-1.000 I-0.656 J-0.005 K0.000 F1800.000
G2 X-128.674 Y-20.880 Z-1.000 I-0.292 J0.587 K0.000 F1800.000
G2 X-128.380 Y-20.001 Z-1.000 I0.587 J0.292 K0.000 F1800.000
G2 X-127.432 Y-20.582 Z-1.000 I0.292 J-0.587 K0.000 F1800.000
G0 Z5.000
G0 Z5.000
G0 X-127.432 Y-20.582
G0 X-128.083 Y-106.932
G0 X-128.083 Y-106.932 Z3.000
G1 X-128.083 Y-106.932 Z-1.000 F1400.000
G2 X-127.795 Y-108.174 Z-1.000 I-0.005 J-0.656 K0.000 F1800.000
G2 X-128.674 Y-107.880 Z-1.000 I-0.292 J0.587 K0.000 F1800.000
G2 X-128.380 Y-107.001 Z-1.000 I0.587 J0.292 K0.000 F1800.000
G2 X-128.083 Y-106.932 Z-1.000 I0.292 J-0.587 K0.000 F1800.000
G0 Z5.000
G0 Z5.000
G0 X-128.083 Y-106.932
G0 X-70.743 Y-107.580
G0 X-70.743 Y-107.580 Z3.000
G1 X-70.743 Y-107.580 Z-1.000 F1400.000
G2 X-70.380 Y-107.001 Z-1.000 I0.656 J-0.007 K0.000 F1800.000
G2 X-69.501 Y-107.295 Z-1.000 I0.292 J-0.587 K0.000 F1800.000
G2 X-69.795 Y-108.174 Z-1.000 I-0.587 J-0.292 K0.000 F1800.000
G2 X-70.743 Y-107.580 Z-1.000 I-0.292 J0.587 K0.000 F1800.000
G0 Z5.000
G0 Z5.000
(Finish operation: Pocket_Shape013)
(Begin operation: Pocket_Shape015)
(Path: Pocket_Shape015)
(Pocket_Shape015)
G0 Z5.000
G0 X-8.624 Y-58.624
G0 Z3.000
G1 X-8.624 Y-58.624 Z-3.200 F1400.000
G2 X-8.795 Y-59.674 Z-3.200 I-0.464 J-0.464 K0.000 F1800.000
G2 X-9.674 Y-59.380 Z-3.200 I-0.292 J0.587 K0.000 F1800.000
G2 X-9.380 Y-58.501 Z-3.200 I0.587 J0.292 K0.000 F1800.000
G2 X-8.624 Y-58.624 Z-3.200 I0.292 J-0.587 K0.000 F1800.000
G1 X-8.624 Y-58.624 Z-6.400 F1400.000
G2 X-8.795 Y-59.674 Z-6.400 I-0.464 J-0.464 K0.000 F1800.000
G2 X-9.674 Y-59.380 Z-6.400 I-0.292 J0.587 K0.000 F1800.000
G2 X-9.380 Y-58.501 Z-6.400 I0.587 J0.292 K0.000 F1800.000
G2 X-8.624 Y-58.624 Z-6.400 I0.292 J-0.587 K0.000 F1800.000
G0 Z5.000
G0 Z5.000
G0 X-8.624 Y-58.624
G0 X-188.432 Y-59.086
G0 X-188.432 Y-59.086 Z3.000
G1 X-188.432 Y-59.086 Z-3.200 F1400.000
G2 X-188.795 Y-59.674 Z-3.200 I-0.656 J-0.002 K0.000 F1800.000
G2 X-189.674 Y-59.380 Z-3.200 I-0.292 J0.587 K0.000 F1800.000
G2 X-189.380 Y-58.501 Z-3.200 I0.587 J0.292 K0.000 F1800.000
G2 X-188.432 Y-59.086 Z-3.200 I0.292 J-0.587 K0.000 F1800.000
G1 X-188.432 Y-59.086 Z-6.400 F1400.000
G2 X-188.795 Y-59.674 Z-6.400 I-0.656 J-0.002 K0.000 F1800.000
G2 X-189.674 Y-59.380 Z-6.400 I-0.292 J0.587 K0.000 F1800.000
G2 X-189.380 Y-58.501 Z-6.400 I0.587 J0.292 K0.000 F1800.000
G2 X-188.432 Y-59.086 Z-6.400 I0.292 J-0.587 K0.000 F1800.000
G0 Z5.000
G0 Z5.000
(Finish operation: Pocket_Shape015)
(Begin operation: Profile052)
(Path: Profile052)
(Profile052)
(Compensated Tool Path. Diameter: 3.175)
G0 Z5.000
G0 X-0.762 Y-0.762
G0 Z3.000
G1 X-0.762 Y-0.762 Z-3.200 F1400.000
G2 X-0.000 Y-2.588 Z-3.200 I-1.839 J-1.839 K0.000 F1800.000
G1 X-0.000 Y-115.588 Z-3.200 F1800.000
G2 X-2.588 Y-118.175 Z-3.200 I-2.600 J0.013 K0.000 F1800.000
G1 X-195.587 Y-118.175 Z-3.200 F1800.000
G2 X-198.175 Y-115.587 Z-3.200 I0.013 J2.600 K0.000 F1800.000
G1 X-198.175 Y-2.588 Z-3.200 F1800.000
G2 X-195.587 Y-0.000 Z-3.200 I2.600 J-0.013 K0.000 F1800.000
G1 X-140.087 Y-0.000 Z-3.200 F1800.000
G2 X-137.500 Y-2.588 Z-3.200 I-0.013 J-2.600 K0.000 F1800.000
G1 X-137.500 Y-12.500 Z-3.200 F1800.000
G1 X-60.675 Y-12.500 Z-3.200 F1800.000
G1 X-60.675 Y-2.588 Z-3.200 F1800.000
G2 X-58.088 Y-0.000 Z-3.200 I2.600 J-0.013 K0.000 F1800.000
G1 X-2.588 Y-0.000 Z-3.200 F1800.000
G2 X-0.762 Y-0.762 Z-3.200 I-0.013 J-2.600 K0.000 F1800.000
G1 X-0.762 Y-0.762 Z-6.400 F1400.000
G2 X-0.000 Y-2.588 Z-6.400 I-1.839 J-1.839 K0.000 F1800.000
G1 X-0.000 Y-115.588 Z-6.400 F1800.000
G2 X-2.588 Y-118.175 Z-6.400 I-2.600 J0.013 K0.000 F1800.000
G1 X-195.587 Y-118.175 Z-6.400 F1800.000
G2 X-198.175 Y-115.587 Z-6.400 I0.013 J2.600 K0.000 F1800.000
G1 X-198.175 Y-2.588 Z-6.400 F1800.000
G2 X-195.587 Y-0.000 Z-6.400 I2.600 J-0.013 K0.000 F1800.000
G1 X-140.087 Y-0.000 Z-6.400 F1800.000
G2 X-137.500 Y-2.588 Z-6.400 I-0.013 J-2.600 K0.000 F1800.000
G1 X-137.500 Y-12.500 Z-6.400 F1800.000
G1 X-60.675 Y-12.500 Z-6.400 F1800.000
G1 X-60.675 Y-2.588 Z-6.400 F1800.000
G2 X-58.088 Y-0.000 Z-6.400 I2.600 J-0.013 K0.000 F1800.000
G1 X-2.588 Y-0.000 Z-6.400 F1800.000
G2 X-0.762 Y-0.762 Z-6.400 I-0.013 J-2.600 K0.000 F1800.000
G0 Z5.000
G0 Z5.000
(Finish operation: Profile052)
(Begin postamble)
M5
G17 G90
M2
