(Exported by FreeCAD)
(Post Processor: grbl_post)
(Output Time:2024-03-07 09:43:19.386853)
(Begin preamble)
G17 G90
G21
(Begin operation: Fixture)
(Path: Fixture)
G54
(Finish operation: Fixture)
(Begin operation: 1/8th in Endmill027)
(Path: 1/8th in Endmill027)
(1/8th in Endmill027)
(Begin toolchange)
( M6 T2 )
(Finish operation: 1/8th in Endmill027)
(Begin operation: Pocket_Shape005)
(Path: Pocket_Shape005)
(Pocket_Shape005)
G0 Z5.000
G0 X-9.587 Y-11.184
G0 Z3.000
G1 X-9.587 Y-11.184 Z-1.000 F1400.000
G2 X-9.584 Y-11.189 Z-1.000 I-0.001 J-0.004 K0.000 F1800.000
G3 X-11.175 Y-12.788 Z-1.000 I0.050 J-1.641 K0.000 F1800.000
G1 X-11.175 Y-332.587 Z-1.000 F1800.000
G3 X-9.587 Y-334.184 Z-1.000 I1.603 J0.006 K0.000 F1800.000
G2 X-9.584 Y-334.189 Z-1.000 I-0.001 J-0.004 K0.000 F1800.000
G2 X-9.671 Y-334.200 Z-1.000 I-0.049 J0.034 K0.000 F1800.000
G1 X-335.704 Y-334.200 Z-1.000 F1800.000
G1 X-335.788 Y-334.191 Z-1.000 F1800.000
G2 X-335.791 Y-334.186 Z-1.000 I0.001 J0.004 K0.000 F1800.000
G3 X-334.200 Y-332.587 Z-1.000 I-0.050 J1.641 K0.000 F1800.000
G1 X-334.200 Y-12.788 Z-1.000 F1800.000
G3 X-335.788 Y-11.191 Z-1.000 I-1.603 J-0.006 K0.000 F1800.000
G2 X-335.791 Y-11.186 Z-1.000 I0.001 J0.004 K0.000 F1800.000
G2 X-335.704 Y-11.175 Z-1.000 I0.049 J-0.034 K0.000 F1800.000
G1 X-329.371 Y-11.175 Z-1.000 F1800.000
G1 X-329.287 Y-11.184 Z-1.000 F1800.000
G2 X-329.284 Y-11.189 Z-1.000 I-0.001 J-0.004 K0.000 F1800.000
G3 X-330.875 Y-12.788 Z-1.000 I0.050 J-1.641 K0.000 F1800.000
G1 X-330.875 Y-329.287 Z-1.000 F1800.000
G3 X-329.287 Y-330.875 Z-1.000 I1.587 J-0.000 K0.000 F1800.000
G1 X-16.087 Y-330.875 Z-1.000 F1800.000
G3 X-14.500 Y-329.287 Z-1.000 I0.000 J1.587 K0.000 F1800.000
G1 X-14.500 Y-12.788 Z-1.000 F1800.000
G3 X-16.088 Y-11.191 Z-1.000 I-1.603 J-0.006 K0.000 F1800.000
G2 X-16.091 Y-11.186 Z-1.000 I0.001 J0.004 K0.000 F1800.000
G2 X-16.004 Y-11.175 Z-1.000 I0.049 J-0.034 K0.000 F1800.000
G1 X-9.671 Y-11.175 Z-1.000 F1800.000
G1 X-9.587 Y-11.184 Z-1.000 F1800.000
G0 Z5.000
G0 X-12.030 Y-12.128 Z5.000
G0 X-12.030 Y-12.128 Z3.000
G1 X-12.030 Y-12.128 Z-1.000 F1400.000
G3 X-12.127 Y-12.788 Z-1.000 I1.823 J-0.606 K0.000 F1800.000
G1 X-12.127 Y-332.587 Z-1.000 F1800.000
G1 X-12.052 Y-333.202 Z-1.000 F1800.000
G1 X-12.036 Y-333.247 Z-1.000 F1800.000
G1 X-333.345 Y-333.247 Z-1.000 F1800.000
G3 X-333.247 Y-332.587 Z-1.000 I-1.823 J0.606 K0.000 F1800.000
G1 X-333.247 Y-12.788 Z-1.000 F1800.000
G1 X-333.323 Y-12.173 Z-1.000 F1800.000
G1 X-333.339 Y-12.128 Z-1.000 F1800.000
G1 X-331.730 Y-12.128 Z-1.000 F1800.000
G3 X-331.827 Y-12.788 Z-1.000 I1.823 J-0.606 K0.000 F1800.000
G1 X-331.827 Y-329.287 Z-1.000 F1800.000
G3 X-329.287 Y-331.827 Z-1.000 I2.540 J0.000 K0.000 F1800.000
G1 X-16.087 Y-331.827 Z-1.000 F1800.000
G3 X-13.547 Y-329.287 Z-1.000 I-0.000 J2.540 K0.000 F1800.000
G1 X-13.547 Y-12.788 Z-1.000 F1800.000
G1 X-13.623 Y-12.173 Z-1.000 F1800.000
G1 X-13.639 Y-12.128 Z-1.000 F1800.000
G1 X-12.030 Y-12.128 Z-1.000 F1800.000
G0 Z5.000
G0 X-13.080 Y-331.044 Z5.000
G0 X-13.080 Y-331.044 Z3.000
G1 X-13.080 Y-331.044 Z-1.000 F1400.000
G1 X-13.080 Y-332.295 Z-1.000 F1800.000
G1 X-14.316 Y-332.295 Z-1.000 F1800.000
G3 X-13.080 Y-331.044 Z-1.000 I-1.645 J2.861 K0.000 F1800.000
G0 Z5.000
G0 X-331.044 Y-332.295 Z5.000
G0 X-331.044 Y-332.295 Z3.000
G1 X-331.044 Y-332.295 Z-1.000 F1400.000
G1 X-332.295 Y-332.295 Z-1.000 F1800.000
G1 X-332.295 Y-331.059 Z-1.000 F1800.000
G3 X-331.044 Y-332.295 Z-1.000 I2.861 J1.645 K0.000 F1800.000
G0 Z5.000
G0 Z5.000
(Finish operation: Pocket_Shape005)
(Begin operation: Profile032)
(Path: Profile032)
(Profile032)
(Compensated Tool Path. Diameter: 3.175)
G0 Z5.000
G0 X-1.200 Y-1.199
G0 Z3.000
G1 X-1.200 Y-1.199 Z-3.200 F1400.000
G2 X-0.006 Y-3.949 Z-3.200 I-2.894 J-2.891 K0.000 F1800.000
G1 X-0.000 Y-341.287 Z-3.200 F1800.000
G2 X-3.949 Y-345.369 Z-3.200 I-4.091 J0.007 K0.000 F1800.000
G1 X-341.287 Y-345.375 Z-3.200 F1800.000
G2 X-345.369 Y-341.426 Z-3.200 I0.007 J4.091 K0.000 F1800.000
G1 X-345.375 Y-4.088 Z-3.200 F1800.000
G2 X-341.426 Y-0.006 Z-3.200 I4.091 J-0.007 K0.000 F1800.000
G1 X-4.088 Y-0.000 Z-3.200 F1800.000
G2 X-1.200 Y-1.199 Z-3.200 I-0.007 J-4.091 K0.000 F1800.000
G1 X-1.200 Y-1.199 Z-6.400 F1400.000
G2 X-0.006 Y-3.949 Z-6.400 I-2.894 J-2.891 K0.000 F1800.000
G1 X-0.000 Y-341.287 Z-6.400 F1800.000
G2 X-3.949 Y-345.369 Z-6.400 I-4.091 J0.007 K0.000 F1800.000
G1 X-341.287 Y-345.375 Z-6.400 F1800.000
G2 X-345.369 Y-341.426 Z-6.400 I0.007 J4.091 K0.000 F1800.000
G1 X-345.375 Y-4.088 Z-6.400 F1800.000
G2 X-341.426 Y-0.006 Z-6.400 I4.091 J-0.007 K0.000 F1800.000
G1 X-4.088 Y-0.000 Z-6.400 F1800.000
G2 X-1.200 Y-1.199 Z-6.400 I-0.007 J-4.091 K0.000 F1800.000
G0 Z5.000
G0 Z5.000
(Finish operation: Profile032)
(Begin postamble)
M5
G17 G90
M2
