(Exported by FreeCAD)
(Post Processor: grbl_post)
(Output Time:2024-03-07 09:28:25.666469)
(Begin preamble)
G17 G90
G21
(Begin operation: Fixture)
(Path: Fixture)
G54
(Finish operation: Fixture)
(Begin operation: 1/8th in Endmill031)
(Path: 1/8th in Endmill031)
(1/8th in Endmill031)
(Begin toolchange)
( M6 T2 )
(Finish operation: 1/8th in Endmill031)
(Begin operation: Profile034)
(Path: Profile034)
(Profile034)
(Compensated Tool Path. Diameter: 3.175)
G0 Z5.000
G0 X-0.762 Y-0.762
G0 Z3.000
G1 X-0.762 Y-0.762 Z-3.200 F1400.000
G2 X0.000 Y-2.588 Z-3.200 I-1.839 J-1.839 K0.000 F1800.000
G1 X-0.000 Y-50.587 Z-3.200 F1800.000
G2 X-2.588 Y-53.175 Z-3.200 I-2.600 J0.013 K0.000 F1800.000
G1 X-313.787 Y-53.175 Z-3.200 F1800.000
G2 X-316.375 Y-50.587 Z-3.200 I0.013 J2.600 K0.000 F1800.000
G1 X-316.375 Y-2.588 Z-3.200 F1800.000
G2 X-313.787 Y-0.000 Z-3.200 I2.600 J-0.013 K0.000 F1800.000
G1 X-300.187 Y-0.000 Z-3.200 F1800.000
G2 X-297.600 Y-2.588 Z-3.200 I-0.013 J-2.600 K0.000 F1800.000
G1 X-297.600 Y-26.557 Z-3.200 F1800.000
G3 X-285.688 Y-38.499 Z-3.200 I11.912 J-0.029 K0.000 F1800.000
G3 X-273.775 Y-26.557 Z-3.200 I0.000 J11.913 K0.000 F1800.000
G1 X-273.775 Y-2.588 Z-3.200 F1800.000
G2 X-271.187 Y-0.000 Z-3.200 I2.600 J-0.013 K0.000 F1800.000
G1 X-45.188 Y-0.000 Z-3.200 F1800.000
G2 X-42.600 Y-2.588 Z-3.200 I-0.013 J-2.600 K0.000 F1800.000
G1 X-42.600 Y-26.557 Z-3.200 F1800.000
G3 X-30.688 Y-38.499 Z-3.200 I11.912 J-0.029 K0.000 F1800.000
G3 X-18.775 Y-26.557 Z-3.200 I0.000 J11.913 K0.000 F1800.000
G1 X-18.775 Y-2.588 Z-3.200 F1800.000
G2 X-16.188 Y-0.000 Z-3.200 I2.600 J-0.013 K0.000 F1800.000
G1 X-2.588 Y-0.000 Z-3.200 F1800.000
G2 X-0.762 Y-0.762 Z-3.200 I-0.013 J-2.600 K0.000 F1800.000
G1 X-0.762 Y-0.762 Z-6.400 F1400.000
G2 X0.000 Y-2.588 Z-6.400 I-1.839 J-1.839 K0.000 F1800.000
G1 X-0.000 Y-50.587 Z-6.400 F1800.000
G2 X-2.588 Y-53.175 Z-6.400 I-2.600 J0.013 K0.000 F1800.000
G1 X-313.787 Y-53.175 Z-6.400 F1800.000
G2 X-316.375 Y-50.587 Z-6.400 I0.013 J2.600 K0.000 F1800.000
G1 X-316.375 Y-2.588 Z-6.400 F1800.000
G2 X-313.787 Y-0.000 Z-6.400 I2.600 J-0.013 K0.000 F1800.000
G1 X-300.187 Y-0.000 Z-6.400 F1800.000
G2 X-297.600 Y-2.588 Z-6.400 I-0.013 J-2.600 K0.000 F1800.000
G1 X-297.600 Y-26.557 Z-6.400 F1800.000
G3 X-285.688 Y-38.499 Z-6.400 I11.912 J-0.029 K0.000 F1800.000
G3 X-273.775 Y-26.557 Z-6.400 I0.000 J11.913 K0.000 F1800.000
G1 X-273.775 Y-2.588 Z-6.400 F1800.000
G2 X-271.187 Y-0.000 Z-6.400 I2.600 J-0.013 K0.000 F1800.000
G1 X-45.188 Y-0.000 Z-6.400 F1800.000
G2 X-42.600 Y-2.588 Z-6.400 I-0.013 J-2.600 K0.000 F1800.000
G1 X-42.600 Y-26.557 Z-6.400 F1800.000
G3 X-30.688 Y-38.499 Z-6.400 I11.912 J-0.029 K0.000 F1800.000
G3 X-18.775 Y-26.557 Z-6.400 I0.000 J11.913 K0.000 F1800.000
G1 X-18.775 Y-2.588 Z-6.400 F1800.000
G2 X-16.188 Y-0.000 Z-6.400 I2.600 J-0.013 K0.000 F1800.000
G1 X-2.588 Y-0.000 Z-6.400 F1800.000
G2 X-0.762 Y-0.762 Z-6.400 I-0.013 J-2.600 K0.000 F1800.000
G0 Z5.000
G0 Z5.000
(Finish operation: Profile034)
(Begin postamble)
M5
G17 G90
M2
